;FLAVOR:Marlin
;TIME:6715
;Filament used: 11.4753m
;Layer height: 0.2
;MINX:29.78
;MINY:48.409
;MINZ:0.3
;MAXX:192.252
;MAXY:173.644
;MAXZ:23.1
;TARGET_MACHINE.NAME:Unknown
;Generated with Cura_SteamEngine 5.6.0
M140 S63
M105
M190 S63
M104 S177
M105
M109 S177
M82 ;absolute extrusion mode
G28 ;Home
G1 Z15.0 F6000 ;Move the platform down 15mm
;Prime the extruder
G92 E0
G1 F200 E3
G92 E0
G92 E0
G92 E0
G1 F5400 E-3
;LAYER_COUNT:115
;LAYER:0
M107
M204 S3000
M205 X20 Y20
G0 F2400 X31.401 Y49.075 Z0.3
M204 S2000
;TYPE:SKIRT
G1 F5400 E0
G1 F3000 X31.838 Y48.816 E0.03649
G1 X32.45 Y48.574 E0.08377
G1 X33.012 Y48.452 E0.12509
G1 X33.525 Y48.41 E0.16207
G1 X79.502 Y48.409 E3.46514
G1 X80.345 Y48.421 E3.52571
G1 X83.064 Y48.421 E3.72105
G1 X83.857 Y48.409 E3.77803
G1 X108.453 Y48.409 E5.54505
G1 X110.376 Y48.416 E5.6832
G1 X111.287 Y48.409 E5.74865
G1 X131.55 Y48.409 E7.20439
G1 X132.505 Y48.427 E7.27301
G1 X133.449 Y48.549 E7.34139
G1 X134.719 Y48.73 E7.43355
G1 X137.43 Y49.038 E7.62957
G1 X140.115 Y49.267 E7.82316
G1 X142.838 Y49.421 E8.0191
G1 X145.602 Y49.5 E8.21775
G1 X146.977 Y49.51 E8.31654
G1 X160.464 Y49.517 E9.28547
G1 X161.387 Y49.51 E9.35178
G1 X181.646 Y49.51 E10.80723
G1 X182.382 Y49.522 E10.86011
G1 X182.889 Y49.57 E10.8967
G1 X183.528 Y49.732 E10.94405
G1 X183.995 Y49.934 E10.98061
G1 X184.491 Y50.241 E11.02252
G1 X184.986 Y50.677 E11.06991
G1 X185.353 Y51.13 E11.11179
G1 X185.613 Y51.568 E11.14838
G1 X185.833 Y52.108 E11.19027
G1 X185.996 Y52.81 E11.24205
G1 X186.124 Y55.663 E11.44722
G1 X186.321 Y58.397 E11.64414
G1 X186.596 Y61.126 E11.84119
G1 X186.941 Y63.795 E12.03454
G1 X187.364 Y66.468 E12.22896
G1 X187.87 Y69.173 E12.42666
G1 X188.437 Y71.792 E12.61917
G1 X189.106 Y74.5 E12.81957
G1 X189.823 Y77.09 E13.01264
G1 X190.623 Y79.695 E13.20841
G1 X191.5 Y82.281 E13.40459
G1 X192.036 Y83.788 E13.5195
G1 X192.183 Y84.352 E13.56137
G1 X192.252 Y85.015 E13.60926
G1 X192.252 Y109.853 E15.39367
G1 X192.245 Y111.805 E15.53391
G1 X192.252 Y112.684 E15.59706
G1 X192.252 Y132.92 E17.05085
G1 X192.239 Y133.687 E17.10596
G1 X192.178 Y134.267 E17.14786
G1 X192.028 Y134.832 E17.18986
G1 X191.826 Y135.299 E17.22641
G1 X191.472 Y135.855 E17.27376
G1 X191.082 Y136.289 E17.31568
G1 X190.69 Y136.614 E17.35226
G1 X190.151 Y136.94 E17.39752
G1 X189.492 Y137.182 E17.44795
G1 X188.199 Y137.516 E17.54389
G1 X185.539 Y138.243 E17.742
G1 X182.926 Y139.038 E17.93822
G1 X180.336 Y139.906 E18.13446
G1 X177.787 Y140.842 E18.32954
G1 X175.265 Y141.851 E18.52469
G1 X172.762 Y142.934 E18.72062
G1 X170.305 Y144.08 E18.91539
G1 X167.852 Y145.311 E19.11257
G1 X165.439 Y146.608 E19.30938
G1 X163.1 Y147.952 E19.50318
G1 X160.788 Y149.368 E19.69796
G1 X158.467 Y150.883 E19.89708
G1 X156.261 Y152.413 E20.08995
G1 X154.057 Y154.037 E20.28663
G1 X151.938 Y155.691 E20.47975
G1 X149.81 Y157.452 E20.67819
G1 X147.772 Y159.238 E20.87287
G1 X145.771 Y161.094 E21.06894
G1 X143.833 Y162.998 E21.26412
G1 X141.944 Y164.961 E21.45984
G1 X140.091 Y166.996 E21.65757
G1 X138.37 Y169 E21.84734
G1 X136.198 Y171.673 E22.09478
G1 X135.536 Y172.342 E22.16239
G1 X134.582 Y172.978 E22.24477
G1 X133.521 Y173.413 E22.32715
G1 X132.589 Y173.609 E22.39557
G1 X130.877 Y173.644 E22.51859
G1 X84.547 Y173.644 E25.84702
G1 X83.79 Y173.626 E25.90142
G1 X83.162 Y173.575 E25.94669
G1 X82.258 Y173.405 E26.01277
G1 X81.411 Y173.055 E26.07861
G1 X81.006 Y172.838 E26.11162
G1 X80.276 Y172.352 E26.17463
G1 X79.626 Y171.7 E26.24077
G1 X79.371 Y171.39 E26.2696
G1 X78.945 Y170.746 E26.32508
G1 X78.231 Y169.374 E26.43619
G1 X76.93 Y166.942 E26.63434
G1 X75.564 Y164.551 E26.83217
G1 X74.158 Y162.246 E27.02614
G1 X72.665 Y159.946 E27.22314
G1 X71.111 Y157.695 E27.41965
G1 X69.522 Y155.527 E27.61276
G1 X67.85 Y153.376 E27.80848
G1 X66.122 Y151.278 E28.00375
G1 X64.318 Y149.211 E28.20085
G1 X62.464 Y147.202 E28.39725
G1 X60.557 Y145.251 E28.59325
G1 X58.608 Y143.366 E28.78804
G1 X56.614 Y141.543 E28.98214
G1 X54.542 Y139.755 E29.17876
G1 X53.881 Y139.214 E29.24012
G1 X53.22 Y138.652 E29.30245
G1 X52.604 Y138.023 E29.3657
G1 X52.108 Y137.272 E29.43036
G1 X51.899 Y136.874 E29.46266
G1 X51.565 Y136.055 E29.5262
G1 X51.395 Y135.172 E29.5908
G1 X51.126 Y132.477 E29.78538
G1 X50.782 Y129.742 E29.98341
G1 X50.361 Y127.032 E30.18044
G1 X49.877 Y124.403 E30.37249
G1 X49.307 Y121.733 E30.56863
G1 X48.66 Y119.077 E30.76502
G1 X47.944 Y116.459 E30.96001
G1 X47.145 Y113.833 E31.1572
G1 X46.281 Y111.257 E31.3524
G1 X45.349 Y108.72 E31.54657
G1 X44.33 Y106.166 E31.74412
G1 X43.26 Y103.697 E31.93744
G1 X42.087 Y101.184 E32.13668
G1 X40.886 Y98.787 E32.32929
G1 X39.588 Y96.375 E32.52607
G1 X38.22 Y93.994 E32.72335
G1 X36.82 Y91.709 E32.91587
G1 X35.317 Y89.406 E33.11344
G1 X33.769 Y87.177 E33.3084
G1 X32.158 Y84.987 E33.50372
G1 X30.551 Y82.92 E33.69182
G1 X30.271 Y82.495 E33.72838
G1 X29.999 Y81.895 E33.77571
G1 X29.85 Y81.33 E33.81769
G1 X29.781 Y80.674 E33.86508
G1 X29.78 Y52.767 E35.86997
G1 X29.792 Y52.046 E35.92177
G1 X29.853 Y51.465 E35.96374
G1 X30.003 Y50.901 E36.00567
G1 X30.204 Y50.434 E36.0422
G1 X30.558 Y49.877 E36.08961
G1 X30.948 Y49.443 E36.13153
G1 X31.401 Y49.075 E36.17346
M204 S3000
G0 F2400 X31.646 Y49.488
M204 S2000
G1 F3000 X32.083 Y49.229 E36.20995
G1 X32.556 Y49.042 E36.24649
G1 X33.053 Y48.93 E36.28309
G1 X33.525 Y48.89 E36.31712
G1 X79.495 Y48.889 E39.6197
G1 X80.338 Y48.901 E39.68027
G1 X83.071 Y48.901 E39.87661
G1 X83.864 Y48.889 E39.93359
G1 X108.451 Y48.889 E41.69996
G1 X110.378 Y48.896 E41.8384
G1 X111.291 Y48.889 E41.904
G1 X131.543 Y48.889 E43.35894
G1 X132.444 Y48.903 E43.42368
G1 X133.381 Y49.024 E43.49155
G1 X134.665 Y49.207 E43.58473
G1 X137.376 Y49.515 E43.78074
G1 X140.081 Y49.746 E43.97578
G1 X142.824 Y49.901 E44.17316
G1 X145.588 Y49.98 E44.37181
G1 X146.974 Y49.99 E44.47139
G1 X160.468 Y49.997 E45.44082
G1 X161.391 Y49.99 E45.50713
G1 X181.639 Y49.99 E46.96179
G1 X182.337 Y50 E47.01194
G1 X182.844 Y50.048 E47.04853
G1 X183.337 Y50.173 E47.08507
G1 X183.804 Y50.375 E47.12162
G1 X184.234 Y50.647 E47.15817
G1 X184.616 Y50.983 E47.19472
G1 X184.94 Y51.375 E47.23126
G1 X185.2 Y51.813 E47.26785
G1 X185.387 Y52.285 E47.30433
G1 X185.518 Y52.871 E47.34746
G1 X185.645 Y55.698 E47.55077
G1 X185.843 Y58.445 E47.74863
G1 X186.118 Y61.174 E47.94568
G1 X186.467 Y63.87 E48.14098
G1 X186.892 Y66.556 E48.33635
G1 X187.401 Y69.275 E48.53508
G1 X187.971 Y71.907 E48.72855
G1 X188.643 Y74.628 E48.9299
G1 X189.364 Y77.231 E49.12395
G1 X190.168 Y79.849 E49.3207
G1 X191.045 Y82.435 E49.51688
G1 X191.573 Y83.913 E49.62963
G1 X191.706 Y84.404 E49.66618
G1 X191.772 Y85.015 E49.71033
G1 X191.772 Y109.851 E51.49459
G1 X191.765 Y111.803 E51.63483
G1 X191.772 Y112.688 E51.69841
G1 X191.772 Y132.913 E53.15141
G1 X191.761 Y133.642 E53.20379
G1 X191.713 Y134.148 E53.24031
G1 X191.587 Y134.641 E53.27686
G1 X191.385 Y135.108 E53.31342
G1 X191.112 Y135.538 E53.35001
G1 X190.776 Y135.919 E53.38651
G1 X190.384 Y136.244 E53.42309
G1 X189.946 Y136.503 E53.45965
G1 X189.326 Y136.731 E53.5071
G1 X188.072 Y137.053 E53.60012
G1 X185.412 Y137.78 E53.79822
G1 X182.773 Y138.583 E53.9964
G1 X180.171 Y139.455 E54.19355
G1 X177.616 Y140.393 E54.38908
G1 X175.074 Y141.41 E54.58578
G1 X172.571 Y142.493 E54.78171
G1 X170.102 Y143.645 E54.97744
G1 X167.625 Y144.888 E55.17655
G1 X165.212 Y146.185 E55.37336
G1 X162.849 Y147.543 E55.56916
G1 X160.537 Y148.959 E55.76393
G1 X158.205 Y150.481 E55.96399
G1 X155.987 Y152.019 E56.1579
G1 X153.772 Y153.651 E56.35556
G1 X151.632 Y155.321 E56.55057
G1 X149.504 Y157.082 E56.74901
G1 X147.456 Y158.877 E56.94465
G1 X145.445 Y160.742 E57.14169
G1 X143.487 Y162.665 E57.33886
G1 X141.598 Y164.628 E57.53457
G1 X139.736 Y166.673 E57.73327
G1 X137.997 Y168.697 E57.92497
G1 X135.825 Y171.37 E58.17241
G1 X135.227 Y171.972 E58.23337
G1 X134.357 Y172.552 E58.30849
G1 X133.382 Y172.951 E58.38418
G1 X132.533 Y173.13 E58.44651
G1 X130.867 Y173.164 E58.56622
G1 X84.558 Y173.164 E61.89315
G1 X83.827 Y173.147 E61.94568
G1 X83.251 Y173.103 E61.98718
G1 X82.393 Y172.942 E62.0499
G1 X81.636 Y172.631 E62.10869
G1 X81.272 Y172.438 E62.13829
G1 X80.581 Y171.978 E62.19793
G1 X79.997 Y171.395 E62.25721
G1 X79.742 Y171.085 E62.28605
G1 X79.371 Y170.524 E62.33437
G1 X78.656 Y169.152 E62.44552
G1 X77.347 Y166.704 E62.64495
G1 X75.981 Y164.313 E62.84278
G1 X74.568 Y161.996 E63.03775
G1 X73.068 Y159.685 E63.23568
G1 X71.506 Y157.422 E63.43323
G1 X69.901 Y155.232 E63.62829
G1 X68.229 Y153.081 E63.82402
G1 X66.484 Y150.962 E64.02123
G1 X64.68 Y148.895 E64.21833
G1 X62.817 Y146.876 E64.41569
G1 X60.9 Y144.915 E64.61271
G1 X58.942 Y143.021 E64.80841
G1 X56.938 Y141.189 E65.00348
G1 X54.846 Y139.383 E65.20203
G1 X54.192 Y138.848 E65.26273
G1 X53.531 Y138.286 E65.32506
G1 X52.98 Y137.722 E65.38171
G1 X52.532 Y137.047 E65.43991
G1 X52.344 Y136.693 E65.46871
G1 X52.027 Y135.915 E65.52906
G1 X51.873 Y135.124 E65.58696
G1 X51.604 Y132.429 E65.78153
G1 X51.258 Y129.682 E65.98044
G1 X50.835 Y126.958 E66.17848
G1 X50.349 Y124.316 E66.37147
G1 X49.776 Y121.633 E66.56857
G1 X49.123 Y118.95 E66.76695
G1 X48.407 Y116.332 E66.96194
G1 X47.604 Y113.693 E67.16011
G1 X46.732 Y111.091 E67.35726
G1 X45.8 Y108.554 E67.55144
G1 X44.776 Y105.988 E67.74992
G1 X43.695 Y103.494 E67.9452
G1 X42.522 Y100.981 E68.14444
G1 X41.315 Y98.572 E68.33801
G1 X40.011 Y96.148 E68.53576
G1 X38.636 Y93.755 E68.73403
G1 X37.229 Y91.458 E68.92755
G1 X35.719 Y89.144 E69.12606
G1 X34.163 Y86.903 E69.32206
G1 X32.537 Y84.692 E69.51923
G1 X30.952 Y82.656 E69.7046
G1 X30.672 Y82.231 E69.74116
G1 X30.462 Y81.768 E69.77769
G1 X30.327 Y81.278 E69.8142
G1 X30.261 Y80.674 E69.85785
G1 X30.26 Y52.774 E71.86224
G1 X30.27 Y52.091 E71.91131
G1 X30.318 Y51.584 E71.9479
G1 X30.444 Y51.091 E71.98446
G1 X30.645 Y50.624 E72.02098
G1 X30.918 Y50.194 E72.05757
G1 X31.254 Y49.813 E72.09407
G1 X31.646 Y49.488 E72.13065
M204 S3000
G1 F5400 E69.13065
;MESH:h3xPad_Case_2_SwitchPlate_LightHoles.stl(2)
G0 F2400 X33.914 Y51.464
G0 X33.914 Y52.543
G0 X34.413 Y79.758
G0 X53.831 Y79.759
G0 X53.831 Y74.504
G0 X48.584 Y73.637
G0 X50.338 Y73.542
G0 X50.338 Y59.604
G0 X49.291 Y59.754
G0 X49.42 Y59.167
M204 S2000
;TYPE:WALL-OUTER
G1 F5400 E72.13065
G1 F3000 X49.099 Y59.102 E72.15418
G1 X48.76 Y58.877 E72.18341
G1 X48.542 Y58.538 E72.21237
G1 X48.477 Y58.2 E72.23709
G1 X48.551 Y57.806 E72.2659
G1 X48.764 Y57.483 E72.29369
G1 X49.045 Y57.29 E72.31818
G1 X49.424 Y57.196 E72.34624
G1 X49.8 Y57.253 E72.37356
G1 X49.998 Y57.347 E72.3893
G1 X50.275 Y57.612 E72.41684
G1 X50.376 Y57.791 E72.43161
G1 X50.451 Y58.134 E72.45683
G1 X50.395 Y58.515 E72.4845
G1 X50.184 Y58.864 E72.5138
G1 X49.8 Y59.111 E72.5466
G1 X49.42 Y59.167 E72.57419
M204 S3000
G0 F2400 X49.224 Y59.128
G0 X49.095 Y59.776
G0 X49.923 Y59.76
G0 X50.338 Y59.604
G0 X50.348 Y63.872
G0 X49.572 Y63.249
G0 X49.025 Y63.179
G0 X48.546 Y63.372
G0 X48.184 Y63.738
G0 X47.953 Y64.149
G0 X47.698 Y64.996
G0 X47.572 Y66.018
G0 X47.572 Y67.096
G0 X47.698 Y68.121
G0 X47.953 Y68.966
G0 X48.183 Y69.375
G0 X48.475 Y69.673
G0 X48.89 Y69.92
G0 X49.094 Y69.294
M204 S2000
G1 F3000 X48.869 Y69.213 E72.59137
G1 X48.663 Y69.005 E72.61241
G1 X48.509 Y68.734 E72.6348
G1 X48.285 Y67.986 E72.69089
G1 X48.172 Y67.078 E72.75663
G1 X48.172 Y66.037 E72.83142
G1 X48.283 Y65.142 E72.89621
G1 X48.508 Y64.384 E72.95301
G1 X48.672 Y64.098 E72.9767
G1 X48.881 Y63.897 E72.99753
G1 X49.098 Y63.822 E73.01402
G1 X49.224 Y63.829 E73.02309
G1 X49.464 Y63.937 E73.042
G1 X49.653 Y64.15 E73.06246
G1 X49.912 Y64.739 E73.10868
G1 X50.081 Y65.593 E73.17122
G1 X50.138 Y66.558 E73.24067
G1 X50.078 Y67.549 E73.312
G1 X49.896 Y68.427 E73.37642
G1 X49.653 Y68.966 E73.41889
G1 X49.461 Y69.18 E73.43955
G1 X49.225 Y69.287 E73.45816
G1 X49.094 Y69.294 E73.46759
M204 S3000
G0 F2400 X48.906 Y69.227
G0 X48.7 Y69.859
G0 X49.44 Y69.91
G0 X49.933 Y69.642
G0 X50.279 Y69.218
G0 X50.338 Y73.542
G0 X49.667 Y73.359
G0 X49.213 Y73.421
G0 X48.632 Y73.661
G0 X48.221 Y74.074
G0 X47.919 Y74.996
G0 X48.042 Y75.611
G0 X48.39 Y76.131
G0 X48.858 Y76.444
G0 X49.695 Y76.631
G0 X49.567 Y75.982
M204 S2000
G1 F3000 X49.191 Y75.924 E73.49492
G1 X48.861 Y75.726 E73.52257
G1 X48.61 Y75.372 E73.55374
G1 X48.536 Y74.976 E73.58269
G1 X48.608 Y74.621 E73.60871
G1 X48.705 Y74.44 E73.62346
G1 X48.967 Y74.176 E73.65018
G1 X49.305 Y74.031 E73.67661
G1 X49.671 Y74.02 E73.70291
G1 X50.057 Y74.161 E73.73243
G1 X50.341 Y74.434 E73.76074
G1 X50.496 Y74.795 E73.78896
G1 X50.512 Y75.04 E73.8066
G1 X50.449 Y75.349 E73.82925
G1 X50.205 Y75.714 E73.8608
G1 X49.859 Y75.924 E73.88987
G1 X49.567 Y75.982 E73.91126
M204 S3000
G0 F2400 X49.37 Y75.952
G0 X49.24 Y76.607
G0 X48.39 Y76.131
G0 X48.042 Y75.611
G0 X47.919 Y74.996
G0 X48.034 Y74.422
G0 X48.632 Y73.661
G0 X49.213 Y73.421
G0 X49.837 Y73.421
G0 X50.417 Y73.661
G0 X50.453 Y68.55
G0 X50.138 Y69.348
G0 X49.748 Y69.743
G0 X49.148 Y69.94
G0 X48.544 Y69.743
G0 X48.183 Y69.375
G0 X47.953 Y68.966
G0 X47.698 Y68.121
G0 X47.572 Y67.096
G0 X47.572 Y66.018
G0 X47.698 Y64.996
G0 X47.953 Y64.149
G0 X48.184 Y63.738
G0 X48.546 Y63.372
G0 X49.148 Y63.176
G0 X49.746 Y63.372
G0 X50.136 Y63.766
G0 X50.453 Y64.565
G0 X50.438 Y59.403
G0 X50.08 Y59.665
G0 X49.466 Y59.788
G0 X48.852 Y59.665
G0 X48.331 Y59.318
G0 X47.983 Y58.796
G0 X47.86 Y58.182
G0 X47.983 Y57.567
G0 X48.331 Y57.047
G0 X48.851 Y56.699
G0 X49.466 Y56.576
G0 X50.04 Y56.691
G0 X50.772 Y57.26
G0 X51.072 Y58.182
G0 X50.947 Y58.738
G0 X55.204 Y58.631
G0 X54.81 Y58.241
G0 X54.614 Y57.643
G0 X54.81 Y57.041
G0 X55.176 Y56.679
G0 X55.587 Y56.448
G0 X56.434 Y56.193
G0 X57.456 Y56.067
G0 X58.536 Y56.067
G0 X59.558 Y56.193
G0 X60.405 Y56.448
G0 X60.816 Y56.679
G0 X61.182 Y57.041
G0 X61.378 Y57.643
G0 X61.182 Y58.241
G0 X60.788 Y58.631
G0 X64.837 Y58.741
G0 X64.651 Y58.034
G0 X64.765 Y57.461
G0 X65.113 Y56.941
G0 X65.633 Y56.593
G0 X66.248 Y56.47
G0 X66.863 Y56.593
G0 X67.383 Y56.941
G0 X67.731 Y57.461
G0 X67.854 Y58.076
G0 X67.739 Y58.65
G0 X67.141 Y59.411
G0 X66.56 Y59.651
G0 X66.101 Y59.64
G0 X66.088 Y63.556
G0 X66.836 Y63.176
G0 X67.438 Y63.372
G0 X67.8 Y63.738
G0 X68.031 Y64.149
G0 X68.286 Y64.996
G0 X68.412 Y66.018
G0 X68.412 Y67.096
G0 X68.286 Y68.121
G0 X68.031 Y68.966
G0 X67.801 Y69.375
G0 X67.44 Y69.743
G0 X66.835 Y69.94
G0 X66.262 Y69.751
G0 X66.143 Y73.456
G0 X65.399 Y73.797
M204 S2000
G1 F3000 X65.283 Y73.833 E73.91999
G1 X56.984 Y73.833 E74.5162
G1 X56.984 Y80.431 E74.99022
G1 X81.86 Y80.431 E76.77735
G1 X81.86 Y54.266 E78.6571
G1 X80.065 Y52.369 E78.84472
G1 X33.74 Y52.369 E82.1728
G1 X33.741 Y80.43 E84.18875
G1 X54.503 Y80.431 E85.68033
G1 X54.503 Y73.832 E86.15442
G1 X51.218 Y73.83 E86.39042
G1 X51.067 Y73.741 E86.40301
G1 F3006.3 X51.016 Y73.64 E86.41112
G1 X51.021 Y59.514 E87.42385
G1 X51.057 Y59.427 E87.4306
G1 F3000 X51.209 Y59.327 E87.44367
G1 X56.087 Y59.322 E87.79411
G1 F2623 X56.924 Y59.253 E87.86312
G1 F2392 X58.03 Y59.27 E87.96279
G1 X59.068 Y59.253 E88.05633
G1 F2623 X59.905 Y59.322 E88.12533
G1 F2932.8 X62.636 Y59.32 E88.32603
G1 F2807 X65.367 Y59.317 E88.53572
G1 F2785.3 X65.448 Y59.378 E88.54357
G1 F2909.1 X65.514 Y59.511 E88.55457
G1 F3000 X65.514 Y64.684 E88.92621
G1 F3151 X65.49 Y65.582 E88.98765
G1 F3420.4 X65.476 Y66.582 E89.05067
G1 F3250.6 X65.514 Y68.431 E89.17329
G1 F3000 X65.511 Y73.628 E89.54665
G1 X65.399 Y73.797 E89.56122
M204 S3000
G0 F2400 X65.283 Y73.833
G0 X65.204 Y73.833
G0 X64.889 Y74.447
G0 X64.76 Y75.104
G0 X64.865 Y75.633
G0 X65.465 Y76.397
G0 X65.935 Y76.591
G0 X66.545 Y76.698
G0 X66.545 Y76.035
M204 S2000
G1 F3000 X66.119 Y76.02 E89.59184
G1 X65.77 Y75.856 E89.61954
G1 X65.563 Y75.649 E89.64058
G1 X65.453 Y75.464 E89.65604
G1 X65.37 Y75.106 E89.68244
G1 X65.38 Y74.894 E89.69769
G1 X65.556 Y74.481 E89.72994
G1 X65.775 Y74.262 E89.75219
G1 X66.153 Y74.092 E89.78197
G1 X66.595 Y74.104 E89.81373
G1 X66.898 Y74.232 E89.83736
G1 X67.196 Y74.536 E89.86795
G1 X67.331 Y74.884 E89.89476
G1 X67.33 Y75.252 E89.9212
G1 X67.182 Y75.611 E89.9491
G1 X66.866 Y75.908 E89.98025
G1 X66.545 Y76.035 E90.00505
M204 S3000
G0 F2400 X66.345 Y76.028
G0 X66.345 Y76.698
G0 X67.249 Y76.397
G0 X67.692 Y75.954
G0 X67.932 Y75.374
G0 X67.932 Y74.75
G0 X67.692 Y74.17
G0 X67.249 Y73.727
G0 X66.496 Y73.425
G0 X66.193 Y69.761
