;FLAVOR:Marlin
;TIME:611
;Filament used: 0.782959m
;Layer height: 0.2
;MINX:82.98
;MINY:93.009
;MINZ:0.3
;MAXX:139.02
;MAXY:128.991
;MAXZ:1.5
;TARGET_MACHINE.NAME:Unknown
;Generated with Cura_SteamEngine 5.6.0
M140 S63
M105
M190 S63
M104 S177
M105
M109 S177
M82 ;absolute extrusion mode
G28 ;Home
G1 Z15.0 F6000 ;Move the platform down 15mm
;Prime the extruder
G92 E0
G1 F200 E3
G92 E0
G92 E0
G92 E0
G1 F5400 E-3
;LAYER_COUNT:7
;LAYER:0
M107
M204 S3000
M205 X20 Y20
G0 F2400 X84.149 Y94.042 Z0.3
M204 S2000
;TYPE:SKIRT
G1 F5400 E0
G1 F3000 X84.541 Y93.717 E0.03658
G1 X85.041 Y93.415 E0.07855
G1 X85.653 Y93.173 E0.12583
G1 X86.213 Y93.052 E0.16699
G1 X86.725 Y93.01 E0.20389
G1 X111.553 Y93.009 E1.98758
G1 X113.476 Y93.016 E2.12574
G1 X114.387 Y93.009 E2.19119
G1 X134.646 Y93.009 E3.64663
G1 X135.382 Y93.021 E3.69951
G1 X135.889 Y93.069 E3.7361
G1 X136.528 Y93.231 E3.78346
G1 X136.995 Y93.433 E3.82001
G1 X137.491 Y93.74 E3.86192
G1 X137.986 Y94.176 E3.90931
G1 X138.353 Y94.629 E3.9512
G1 X138.613 Y95.067 E3.98779
G1 X138.833 Y95.607 E4.02968
G1 X138.976 Y96.239 E4.07623
G1 X139.019 Y96.751 E4.11314
G1 X139.02 Y124.581 E6.1125
G1 X139.009 Y125.345 E6.1674
G1 X138.95 Y125.927 E6.20942
G1 X138.801 Y126.492 E6.2514
G1 X138.6 Y126.959 E6.28793
G1 X138.294 Y127.456 E6.32986
G1 X137.859 Y127.951 E6.3772
G1 X137.406 Y128.321 E6.41922
G1 X136.902 Y128.614 E6.4611
G1 X136.43 Y128.802 E6.4976
G1 X135.796 Y128.947 E6.54433
G1 X135.277 Y128.99 E6.58174
G1 X89.285 Y128.991 E9.88589
G1 X88.537 Y128.979 E9.93964
G1 X87.956 Y128.919 E9.9816
G1 X87.391 Y128.769 E10.0236
G1 X86.924 Y128.567 E10.06015
G1 X86.428 Y128.26 E10.10206
G1 X85.958 Y127.851 E10.14682
G1 X84.467 Y126.282 E10.30232
G1 X83.946 Y125.712 E10.35779
G1 X83.59 Y125.249 E10.39975
G1 X83.343 Y124.804 E10.43632
G1 X83.118 Y124.186 E10.48357
G1 X82.996 Y123.565 E10.52903
G1 X82.98 Y122.703 E10.59097
G1 X82.98 Y97.346 E12.41267
G1 X82.992 Y96.644 E12.46311
G1 X83.053 Y96.064 E12.505
G1 X83.203 Y95.499 E12.547
G1 X83.405 Y95.032 E12.58356
G1 X83.759 Y94.476 E12.63091
G1 X84.149 Y94.042 E12.67283
M204 S3000
G0 F2400 X84.455 Y94.412
M204 S2000
G1 F3000 X84.847 Y94.087 E12.70941
G1 X85.285 Y93.828 E12.74597
G1 X85.758 Y93.641 E12.78251
G1 X86.254 Y93.53 E12.81902
G1 X86.725 Y93.49 E12.85298
G1 X111.551 Y93.489 E14.63653
G1 X113.478 Y93.496 E14.77497
G1 X114.391 Y93.489 E14.84056
G1 X134.639 Y93.489 E16.29522
G1 X135.337 Y93.499 E16.34537
G1 X135.844 Y93.547 E16.38195
G1 X136.337 Y93.672 E16.41849
G1 X136.804 Y93.874 E16.45505
G1 X137.234 Y94.146 E16.4916
G1 X137.616 Y94.482 E16.52815
G1 X137.94 Y94.874 E16.56469
G1 X138.2 Y95.312 E16.60128
G1 X138.387 Y95.784 E16.63775
G1 X138.498 Y96.281 E16.67434
G1 X138.539 Y96.751 E16.70823
G1 X138.54 Y124.575 E18.70716
G1 X138.531 Y125.302 E18.75939
G1 X138.485 Y125.809 E18.79597
G1 X138.36 Y126.302 E18.83251
G1 X138.159 Y126.769 E18.86903
G1 X137.888 Y127.2 E18.90561
G1 X137.552 Y127.582 E18.94216
G1 X137.161 Y127.908 E18.97873
G1 X136.724 Y128.168 E19.01526
G1 X136.252 Y128.356 E19.05176
G1 X135.755 Y128.469 E19.08838
G1 X135.277 Y128.51 E19.12284
G1 X89.292 Y128.511 E22.42649
G1 X88.581 Y128.501 E22.47758
G1 X88.075 Y128.454 E22.51409
G1 X87.582 Y128.328 E22.55064
G1 X87.115 Y128.126 E22.5872
G1 X86.685 Y127.854 E22.62375
G1 X86.277 Y127.492 E22.66294
G1 X84.821 Y125.958 E22.81488
G1 X84.324 Y125.416 E22.86771
G1 X84.01 Y125.016 E22.90424
G1 X83.763 Y124.571 E22.94081
G1 X83.589 Y124.093 E22.97735
G1 X83.475 Y123.514 E23.01975
G1 X83.46 Y122.694 E23.07867
G1 X83.46 Y97.353 E24.89921
G1 X83.47 Y96.689 E24.94692
G1 X83.518 Y96.183 E24.98344
G1 X83.644 Y95.69 E25.01999
G1 X83.846 Y95.223 E25.05655
G1 X84.119 Y94.793 E25.09314
G1 X84.455 Y94.412 E25.12964
M204 S3000
G1 F5400 E22.12964
;MESH:h3xPad_Case_2_SwitchPlate_LightHoles.stl(1)
G0 F2400 X87.114 Y96.064
G0 X87.114 Y97.143
G0 X111.145 Y97.642
G0 X111.145 Y102.896
G0 X104.009 Y102.893
G0 X103.198 Y100.878
G0 X101.066 Y101.427
G0 X101.049 Y102.894
G0 X102.657 Y103.944
G0 X102.647 Y103.308
M204 S2000
;TYPE:WALL-OUTER
G1 F5400 E25.12964
G1 F3000 X102.205 Y103.296 E25.1614
G1 X101.902 Y103.168 E25.18503
G1 X101.626 Y102.899 E25.21272
G1 X101.469 Y102.516 E25.24246
G1 X101.47 Y102.148 E25.2689
G1 X101.618 Y101.789 E25.29679
G1 X101.934 Y101.492 E25.32795
G1 X102.255 Y101.365 E25.35275
G1 X102.681 Y101.38 E25.38337
G1 X103.03 Y101.544 E25.41108
G1 X103.237 Y101.751 E25.43211
G1 X103.347 Y101.936 E25.44757
G1 X103.43 Y102.294 E25.47397
G1 X103.402 Y102.574 E25.49419
G1 F2969.1 X103.247 Y102.922 E25.52184
G1 F2796.1 X103.009 Y103.188 E25.54935
G1 F2823.5 X102.647 Y103.308 E25.57846
M204 S3000
G0 F2400 X102.447 Y103.303
G0 X102.447 Y103.974
G0 X102.608 Y107.64
G0 X101.964 Y107.458
G0 X101.36 Y107.66
G0 X101 Y108.023
G0 X100.769 Y108.434
G0 X100.514 Y109.281
G0 X100.388 Y110.303
G0 X100.388 Y111.382
G0 X100.514 Y112.404
G0 X100.769 Y113.251
G0 X101 Y113.662
G0 X101.377 Y114.042
G0 X101.88 Y114.181
G0 X102.058 Y113.566
M204 S2000
G1 F3000 X101.913 Y113.571 E25.58889
G1 X101.684 Y113.495 E25.60622
G1 X101.473 Y113.282 E25.62776
G1 X101.322 Y113.011 E25.65005
G1 X101.101 Y112.27 E25.7056
G1 X100.988 Y111.363 E25.77126
G1 X100.988 Y110.322 E25.84605
G1 X101.099 Y109.427 E25.91084
G1 X101.337 Y108.643 E25.9697
G1 X101.49 Y108.379 E25.99163
G1 X101.707 Y108.176 E26.01297
G1 X101.886 Y108.114 E26.02658
G1 X102.039 Y108.114 E26.03757
G1 X102.278 Y108.221 E26.05639
G1 X102.469 Y108.434 E26.07694
G1 X102.712 Y108.973 E26.11942
G1 F3137.3 X102.873 Y109.849 E26.18061
G1 F3404.3 X102.916 Y110.842 E26.24353
G1 X102.873 Y111.836 E26.30652
G1 F3137.3 X102.712 Y112.712 E26.36771
G1 F3000 X102.469 Y113.25 E26.41012
G1 X102.278 Y113.463 E26.43067
G1 X102.058 Y113.566 E26.44813
M204 S3000
G0 F2400 X101.913 Y113.571
G0 X101.861 Y113.554
G0 X101.685 Y114.19
G0 X102.284 Y114.186
G0 X102.699 Y117.76
G0 X102.24 Y117.749
G0 X101.659 Y117.989
G0 X101.248 Y118.402
G0 X100.946 Y119.324
G0 X101.069 Y119.939
G0 X101.417 Y120.459
G0 X101.937 Y120.807
G0 X102.552 Y120.93
G0 X103.126 Y120.815
G0 X103.887 Y120.217
G0 X104.111 Y119.674
G0 X104.023 Y118.688
G0 X103.45 Y118.082
M204 S2000
G1 F2834.6 X103.348 Y118.027 E26.45694
G1 F2851.5 X103.293 Y117.908 E26.46684
G1 F2975.2 X103.287 Y112.716 E26.84296
G1 F3250.6 X103.324 Y110.818 E26.96883
G1 X103.287 Y108.969 E27.09145
G1 F2932.8 X103.289 Y103.68 E27.48013
G1 F2845.8 X103.399 Y103.562 E27.49234
G1 F2868.5 X107.608 Y103.565 E27.80858
G1 F2956.9 X111.817 Y103.568 E28.11538
G1 F3000 X111.817 Y96.97 E28.58939
G1 X86.94 Y96.969 E30.3766
G1 X86.94 Y123.134 E32.25634
G1 X88.735 Y125.031 E32.44397
G1 X135.06 Y125.031 E35.77204
G1 X135.06 Y96.969 E37.78807
G1 X114.298 Y96.97 E39.27965
G1 X114.297 Y103.568 E39.75367
G1 X117.582 Y103.57 E39.98967
G1 X117.742 Y103.668 E40.00315
G1 X117.785 Y103.808 E40.01367
G1 F3006.3 X117.778 Y117.89 E41.02324
G1 X117.743 Y117.973 E41.0297
G1 F3000 X117.6 Y118.071 E41.04215
G1 X112.713 Y118.078 E41.39324
G1 F2623 X111.876 Y118.147 E41.46225
G1 F2392 X110.77 Y118.13 E41.56191
G1 X109.732 Y118.147 E41.65545
G1 F2623 X108.895 Y118.078 E41.72446
G1 F2956.9 X103.45 Y118.082 E42.12135
M204 S3000
G0 F2400 X103.348 Y118.027
G0 X103.313 Y117.95
G0 X102.657 Y117.718
G0 X102.24 Y117.749
G0 X101.659 Y117.989
G0 X101.248 Y118.402
G0 X100.946 Y119.324
G0 X101.069 Y119.939
G0 X101.417 Y120.459
G0 X101.885 Y120.772
G0 X102.722 Y120.958
G0 X102.594 Y120.31
M204 S2000
G1 F3000 X102.218 Y120.252 E42.14868
G1 X101.85 Y120.023 E42.17982
G1 X101.637 Y119.7 E42.20761
G1 X101.563 Y119.304 E42.23655
G1 X101.627 Y118.972 E42.26084
G1 X101.728 Y118.774 E42.27681
G1 X101.978 Y118.515 E42.30267
G1 X102.313 Y118.366 E42.32901
G1 X102.722 Y118.349 E42.35842
G1 F2874.3 X103.069 Y118.458 E42.3857
G1 F2868.5 X103.347 Y118.736 E42.41524
G1 F2993.8 X103.457 Y118.922 E42.43079
G1 F3000 X103.539 Y119.28 E42.45718
G1 X103.512 Y119.56 E42.47739
G1 X103.379 Y119.873 E42.50182
G1 X103.14 Y120.117 E42.52636
G1 X102.953 Y120.229 E42.54202
G1 X102.594 Y120.31 E42.56846
M204 S3000
G0 F2400 X102.397 Y120.28
G0 X102.267 Y120.935
G0 X103.425 Y120.731
G0 X103.938 Y120.225
G0 X104.2 Y119.418
G0 X104.113 Y118.753
G0 X107.844 Y118.745
G0 X107.451 Y119.461
G0 X107.446 Y120.029
G0 X108.072 Y119.825
M204 S2000
G1 F3000 X108.075 Y119.681 E42.5788
G1 X108.183 Y119.441 E42.59771
G1 X108.396 Y119.252 E42.61817
G1 X108.934 Y119.01 E42.66055
G1 F2623 X109.793 Y118.76 E42.73406
G1 F2392 X110.804 Y118.715 E42.82525
G1 X111.815 Y118.76 E42.91643
G1 F2623 X112.674 Y119.01 E42.98994
G1 F3000 X113.212 Y119.252 E43.03232
G1 X113.484 Y119.535 E43.06052
G1 X113.545 Y119.771 E43.07803
G1 X113.47 Y120.014 E43.0963
G1 X113.23 Y120.256 E43.12079
G1 X112.954 Y120.405 E43.14332
G1 X112.232 Y120.62 E43.19744
G1 X111.325 Y120.733 E43.26311
G1 X110.283 Y120.733 E43.33797
G1 X109.388 Y120.622 E43.40276
G1 X108.604 Y120.384 E43.46162
G1 X108.328 Y120.218 E43.48476
G1 X108.141 Y120.021 E43.50427
G1 X108.072 Y119.825 E43.5192
M204 S3000
G0 F2400 X108.075 Y119.681
G0 X108.097 Y119.63
G0 X107.467 Y119.422
G0 X107.618 Y120.359
G0 X107.984 Y120.721
G0 X108.395 Y120.952
G0 X109.242 Y121.207
G0 X110.264 Y121.333
G0 X111.344 Y121.333
G0 X112.366 Y121.207
G0 X113.213 Y120.952
G0 X113.624 Y120.721
G0 X114.089 Y120.207
G0 X114.204 Y119.81
G0 X113.883 Y118.964
G0 X117.735 Y118.75
G0 X117.767 Y119.712
G0 X118.274 Y120.474
G0 X118.611 Y120.701
G0 X119.523 Y120.854
G0 X119.523 Y120.191
M204 S2000
G1 F3000 X119.096 Y120.176 E43.5499
G1 X118.747 Y120.012 E43.5776
G1 X118.526 Y119.79 E43.6001
G1 X118.376 Y119.456 E43.62641
G1 X118.36 Y119.034 E43.65675
G1 X118.512 Y118.664 E43.68548
G1 X118.788 Y118.391 E43.71337
G1 X119.188 Y118.242 E43.74404
G1 X119.546 Y118.25 E43.76976
G1 X119.892 Y118.398 E43.7968
G1 X120.14 Y118.644 E43.8219
G1 X120.258 Y118.862 E43.8397
G1 X120.323 Y119.198 E43.86429
G1 X120.254 Y119.584 E43.89246
G1 X120.168 Y119.751 E43.90596
G1 X119.845 Y120.064 E43.93827
G1 X119.523 Y120.191 E43.96314
M204 S3000
G0 F2400 X119.323 Y120.184
G0 X119.323 Y120.854
G0 X120.227 Y120.553
G0 X120.638 Y120.14
G0 X120.94 Y119.218
G0 X120.825 Y118.644
G0 X120.227 Y117.883
G0 X119.606 Y117.608
G0 X118.836 Y117.652
G0 X118.453 Y113.531
G0 X119.228 Y114.151
G0 X119.906 Y114.206
G0 X119.702 Y113.579
M204 S2000
G1 F3000 X119.576 Y113.571 E43.97221
G1 X119.336 Y113.463 E43.99111
G1 X119.146 Y113.25 E44.01162
G1 X118.888 Y112.661 E44.05782
G1 X118.722 Y111.834 E44.11841
G1 X118.663 Y110.827 E44.19088
G1 X118.723 Y109.845 E44.26156
G1 X118.904 Y108.973 E44.32554
G1 X119.146 Y108.434 E44.36799
G1 X119.338 Y108.221 E44.38859
G1 X119.577 Y108.114 E44.40741
G1 X119.707 Y108.107 E44.41676
G1 X119.966 Y108.215 E44.43692
G1 X120.125 Y108.379 E44.45333
G1 X120.291 Y108.666 E44.47715
G1 X120.517 Y109.427 E44.53418
G1 X120.63 Y110.352 E44.60113
G1 X120.628 Y111.363 E44.67376
G1 X120.513 Y112.278 E44.74001
G1 X120.292 Y113.016 E44.79536
G1 X120.127 Y113.303 E44.81914
G1 X119.935 Y113.493 E44.83855
G1 X119.702 Y113.579 E44.85639
M204 S3000
G0 F2400 X119.576 Y113.571
G0 X119.509 Y113.541
G0 X119.3 Y114.173
G0 X120.254 Y114.028
G0 X120.616 Y113.662
G0 X120.847 Y113.251
G0 X121.102 Y112.404
G0 X121.228 Y111.382
G0 X121.228 Y110.303
G0 X121.102 Y109.281
G0 X120.847 Y108.434
G0 X120.616 Y108.023
G0 X120.256 Y107.66
G0 X119.652 Y107.458
G0 X118.868 Y107.757
G0 X118.522 Y108.179
G0 X118.463 Y103.858
G0 X119.129 Y104.04
G0 X119.129 Y103.38
M204 S2000
G1 F3000 X118.743 Y103.239 E44.88591
G1 X118.481 Y102.993 E44.91173
G1 X118.304 Y102.605 E44.94237
G1 X118.288 Y102.36 E44.96001
G1 X118.351 Y102.051 E44.98266
G1 X118.594 Y101.687 E45.01411
G1 X118.941 Y101.476 E45.04328
G1 X119.233 Y101.417 E45.06468
G1 X119.609 Y101.476 E45.09203
G1 X119.978 Y101.706 E45.12327
G1 X120.191 Y102.028 E45.151
G1 X120.264 Y102.424 E45.17993
G1 X120.192 Y102.779 E45.20595
G1 X120.096 Y102.959 E45.22061
G1 X119.834 Y103.224 E45.24738
G1 X119.495 Y103.369 E45.27387
G1 X119.129 Y103.38 E45.30018
M204 S3000
G0 F2400 X118.941 Y103.312
G0 X118.685 Y103.929
G0 X118.352 Y108.79
G0 X118.259 Y109.752
M204 S2000
;TYPE:WALL-INNER
G1 F3318 X118.223 Y110.842 E45.37102
G1 X118.259 Y111.933 E45.44192
M204 S3000
G0 F2400 X118.352 Y112.895
G0 X118.442 Y117.883
G0 X119.022 Y117.643
G0 X119.646 Y117.643
G0 X120.227 Y117.883
G0 X120.638 Y118.296
G0 X120.94 Y119.218
G0 X120.825 Y119.792
G0 X120.227 Y120.553
G0 X119.646 Y120.793
G0 X119.022 Y120.793
G0 X118.442 Y120.553
G0 X117.999 Y120.11
G0 X117.759 Y119.53
G0 X117.759 Y118.906
G0 X113.764 Y118.745
G0 X114.11 Y119.326
G0 X114.157 Y120.044
G0 X113.988 Y119.988
M204 S2000
G1 F3000 X113.851 Y120.311 E45.46713
G1 X113.466 Y120.674 E45.50515
G1 X113.092 Y120.865 E45.53532
G1 X112.315 Y121.093 E45.59349
G1 X111.384 Y121.209 E45.66089
G1 X110.224 Y121.209 E45.74423
G1 X109.27 Y121.091 E45.81329
G1 X108.516 Y120.865 E45.86984
G1 X107.991 Y120.56 E45.91346
G1 X107.721 Y120.253 E45.94283
G1 X107.611 Y119.959 E45.96538
G1 X107.62 Y119.528 E45.99635
G1 X107.846 Y119.099 E46.03119
G1 X108.199 Y118.814 E46.06378
G1 X108.783 Y118.558 E46.10959
G1 X103.804 Y118.557 E46.46729
G1 X103.951 Y118.892 E46.49357
G1 X104.01 Y119.185 E46.51505
G1 X104.006 Y119.54 E46.54055
G1 X103.784 Y120.131 E46.58591
G1 X103.478 Y120.458 E46.61808
G1 X103.181 Y120.652 E46.64357
G1 X102.552 Y120.793 E46.68988
G1 X102.124 Y120.723 E46.72103
G1 X101.865 Y120.616 E46.74116
G1 X101.508 Y120.36 E46.77273
G1 X101.191 Y119.878 E46.81417
G1 X101.083 Y119.36 E46.85219
G1 X101.165 Y118.843 E46.88979
G1 X101.372 Y118.448 E46.92183
G1 X101.67 Y118.147 E46.95226
G1 X102.13 Y117.922 E46.98905
G1 X102.405 Y117.868 E47.00918
G1 X102.813 Y117.883 E47.03851
G1 X102.807 Y113.591 E47.34686
G1 X102.618 Y113.803 E47.36726
G1 X102.218 Y114.018 E47.39989
G1 X101.785 Y114.033 E47.43101
G1 X101.488 Y113.936 E47.45346
G1 X101.107 Y113.594 E47.49024
G1 X100.875 Y113.186 E47.52396
G1 X100.628 Y112.353 E47.58638
G1 X100.512 Y111.422 E47.65378
G1 X100.512 Y110.263 E47.73705
G1 X100.633 Y109.308 E47.8062
G1 X100.876 Y108.486 E47.86779
G1 X101.12 Y108.073 E47.90225
G1 X101.492 Y107.747 E47.93778
G1 X101.734 Y107.659 E47.95628
G1 X102.192 Y107.659 E47.98919
G1 X102.618 Y107.881 E48.0237
G1 X102.807 Y108.093 E48.0441
G1 X102.81 Y103.757 E48.35561
G1 X102.297 Y103.794 E48.39256
G1 X102.022 Y103.74 E48.41269
G1 X101.654 Y103.579 E48.44155
G1 X101.28 Y103.233 E48.47815
G1 X101.175 Y103.08 E48.49148
G1 X100.993 Y102.579 E48.52978
G1 X100.998 Y102.062 E48.56692
G1 X101.216 Y101.527 E48.60843
G1 X101.516 Y101.204 E48.6401
G1 X101.75 Y101.048 E48.6603
G1 X102.172 Y100.892 E48.69262
G1 X102.589 Y100.882 E48.72259
G1 X102.865 Y100.936 E48.74279
G1 X103.136 Y101.048 E48.76386
G1 X103.37 Y101.204 E48.78406
G1 X103.577 Y101.411 E48.8051
G1 X103.771 Y101.711 E48.83076
G1 X103.9 Y102.199 E48.86702
G1 X103.897 Y102.554 E48.89253
G1 X103.696 Y103.088 E48.93352
G1 X111.337 Y103.088 E49.48246
G1 X111.337 Y97.45 E49.88751
G1 X87.42 Y97.449 E51.60575
G1 X87.42 Y122.943 E53.43729
G1 X88.941 Y124.551 E53.5963
G1 X134.58 Y124.551 E56.8751
G1 X134.58 Y97.449 E58.82215
G1 X114.778 Y97.45 E60.24477
G1 X114.777 Y103.088 E60.64981
G1 X117.633 Y103.087 E60.85499
G1 F2969.1 X117.898 Y103.173 E60.87522
G1 F2840.2 X118.127 Y103.348 E60.89709
G1 X117.98 Y103.1 E60.91896
G1 F2969.1 X117.837 Y102.717 E60.94864
G1 F3000 X117.818 Y102.265 E60.98114
G1 X117.888 Y101.924 E61.00615
G1 X117.985 Y101.713 E61.02283
G1 X118.295 Y101.311 E61.0593
G1 X118.59 Y101.112 E61.08487
G1 X118.845 Y101.006 E61.10471
G1 X119.275 Y100.934 E61.13603
G1 X119.705 Y101.006 E61.16735
G1 X119.96 Y101.112 E61.18719
G1 X120.32 Y101.369 E61.21897
G1 X120.637 Y101.85 E61.26035
G1 X120.744 Y102.368 E61.29835
G1 X120.669 Y102.859 E61.33404
G1 X120.49 Y103.233 E61.36383
G1 X120.112 Y103.615 E61.40243
G1 X119.641 Y103.827 E61.43954
G1 X119.129 Y103.86 E61.4764
G1 X118.853 Y103.806 E61.49661
G1 X118.513 Y103.661 E61.52316
G1 F2862.8 X118.154 Y103.377 E61.55762
G1 F2857.1 X118.265 Y103.66 E61.58055
G1 F3031.6 X118.259 Y109.752 E62.01365
G1 F3038 X118.432 Y108.853 E62.0786
G1 F3000 X118.708 Y108.238 E62.12703
G1 X118.998 Y107.881 E62.16007
G1 X119.425 Y107.659 E62.19465
G1 X119.811 Y107.639 E62.22242
