;FLAVOR:Marlin
;TIME:3080
;Filament used: 4.95071m
;Layer height: 0.2
;MINX:58.43
;MINY:80.155
;MINZ:0.3
;MAXX:163.591
;MAXY:141.845
;MAXZ:23.1
;TARGET_MACHINE.NAME:Unknown
;Generated with Cura_SteamEngine 5.6.0
M140 S63
M105
M190 S63
M104 S177
M105
M109 S177
M82 ;absolute extrusion mode
G28 ;Home
G1 Z15.0 F6000 ;Move the platform down 15mm
;Prime the extruder
G92 E0
G1 F200 E3
G92 E0
G92 E0
G92 E0
G1 F5400 E-3
;LAYER_COUNT:115
;LAYER:0
M107
M204 S3000
M205 X20 Y20
G0 F2400 X60.516 Y82.581 Z0.3
M204 S2000
;TYPE:SKIRT
G1 F5400 E0
G1 F3000 X61.298 Y82.06 E0.06751
G1 X61.651 Y81.872 E0.09624
G1 X62.532 Y81.511 E0.16464
G1 X63.461 Y81.315 E0.23285
G1 X65.173 Y81.28 E0.35587
G1 X82.526 Y81.28 E1.60254
G1 X85.31 Y81.24 E1.80257
G1 X88.022 Y81.125 E1.99758
G1 X90.745 Y80.933 E2.19369
G1 X93.463 Y80.663 E2.38992
G1 X97.194 Y80.185 E2.66015
G1 X98.648 Y80.155 E2.76463
G1 X127.224 Y80.155 E4.81759
G1 X127.782 Y80.164 E4.85768
G1 X128.868 Y80.243 E4.93591
G1 X130.261 Y80.563 E5.03859
G1 X132.917 Y81.131 E5.23371
G1 X135.597 Y81.624 E5.42948
G1 X138.286 Y82.042 E5.62498
G1 X140.989 Y82.382 E5.8207
G1 X143.722 Y82.648 E6.01797
G1 X146.414 Y82.835 E6.21184
G1 X149.125 Y82.945 E6.40676
G1 X151.747 Y82.98 E6.59515
G1 X159.223 Y82.98 E7.13224
G1 X159.958 Y82.993 E7.18505
G1 X160.54 Y83.054 E7.22709
G1 X161.103 Y83.205 E7.26897
G1 X161.57 Y83.407 E7.30552
G1 X162.066 Y83.716 E7.34751
G1 X162.507 Y84.097 E7.38937
G1 X162.927 Y84.606 E7.43678
G1 X163.186 Y85.044 E7.47334
G1 X163.429 Y85.657 E7.52071
G1 X163.539 Y86.153 E7.55721
G1 X163.59 Y86.725 E7.59847
G1 X163.591 Y105.692 E8.96109
G1 X163.584 Y107.644 E9.10133
G1 X163.591 Y108.526 E9.1647
G1 X163.591 Y134.61 E11.03862
G1 X163.58 Y135.374 E11.09351
G1 X163.521 Y135.956 E11.13554
G1 X163.372 Y136.521 E11.17752
G1 X163.171 Y136.988 E11.21404
G1 X162.865 Y137.485 E11.25597
G1 X162.43 Y137.98 E11.30332
G1 X161.977 Y138.35 E11.34534
G1 X161.473 Y138.643 E11.38722
G1 X161.001 Y138.831 E11.42372
G1 X160.367 Y138.976 E11.47044
G1 X159.848 Y139.019 E11.50786
G1 X151.751 Y139.02 E12.08956
G1 X148.967 Y139.06 E12.28959
G1 X146.255 Y139.175 E12.4846
G1 X143.53 Y139.368 E12.68086
G1 X140.835 Y139.635 E12.87542
G1 X138.125 Y139.982 E13.0717
G1 X135.419 Y140.407 E13.26849
G1 X132.766 Y140.9 E13.46235
G1 X130.251 Y141.439 E13.64713
G1 X129.006 Y141.724 E13.73889
G1 X128.252 Y141.817 E13.79347
G1 X126.852 Y141.845 E13.89407
G1 X98.272 Y141.845 E15.94731
G1 X97.54 Y141.828 E15.99991
G1 X96.669 Y141.754 E16.06271
G1 X96.005 Y141.661 E16.11088
G1 X93.325 Y141.322 E16.30495
G1 X90.556 Y141.051 E16.50483
G1 X87.874 Y140.866 E16.69797
G1 X85.163 Y140.756 E16.89289
G1 X82.529 Y140.72 E17.08214
G1 X64.797 Y140.72 E18.35604
G1 X64.04 Y140.702 E18.41044
G1 X63.412 Y140.651 E18.45571
G1 X62.508 Y140.481 E18.52179
G1 X61.661 Y140.131 E18.58763
G1 X61.254 Y139.912 E18.62084
G1 X60.495 Y139.402 E18.68653
G1 X59.71 Y138.608 E18.76674
G1 X59.21 Y137.852 E18.83186
G1 X59 Y137.452 E18.86432
G1 X58.662 Y136.621 E18.92877
G1 X58.465 Y135.689 E18.9972
G1 X58.43 Y133.961 E19.12137
G1 X58.43 Y87.618 E22.45074
G1 X58.448 Y86.892 E22.50291
G1 X58.499 Y86.263 E22.54825
G1 X58.668 Y85.358 E22.61439
G1 X59 Y84.551 E22.67708
G1 X59.239 Y84.102 E22.71362
G1 X59.727 Y83.371 E22.77677
G1 X60.516 Y82.581 E22.85698
M204 S3000
G0 F2400 X60.822 Y82.954
M204 S2000
G1 F3000 X61.524 Y82.484 E22.91767
G1 X61.877 Y82.296 E22.94641
G1 X62.669 Y81.973 E23.00785
G1 X63.517 Y81.794 E23.07012
G1 X65.183 Y81.76 E23.18983
G1 X82.533 Y81.76 E24.43629
G1 X85.33 Y81.72 E24.63725
G1 X88.042 Y81.605 E24.83226
G1 X90.789 Y81.411 E25.0301
G1 X93.51 Y81.141 E25.22655
G1 X97.204 Y80.665 E25.49412
G1 X98.658 Y80.635 E25.5986
G1 X127.217 Y80.635 E27.65034
G1 X127.75 Y80.643 E27.68863
G1 X128.761 Y80.711 E27.76143
G1 X130.154 Y81.031 E27.86411
G1 X132.83 Y81.603 E28.0607
G1 X135.509 Y82.096 E28.2564
G1 X138.22 Y82.517 E28.4535
G1 X140.943 Y82.86 E28.65067
G1 X143.679 Y83.126 E28.84815
G1 X146.395 Y83.315 E29.04375
G1 X149.106 Y83.425 E29.23867
G1 X151.741 Y83.46 E29.42799
G1 X159.215 Y83.46 E29.96494
G1 X159.913 Y83.471 E30.01509
G1 X160.42 Y83.519 E30.05168
G1 X160.912 Y83.646 E30.08818
G1 X161.379 Y83.848 E30.12474
G1 X161.808 Y84.121 E30.16127
G1 X162.19 Y84.457 E30.19782
G1 X162.514 Y84.85 E30.23441
G1 X162.773 Y85.288 E30.27097
G1 X162.96 Y85.761 E30.30751
G1 X163.07 Y86.257 E30.34401
G1 X163.11 Y86.725 E30.37775
G1 X163.111 Y105.69 E31.74023
G1 X163.104 Y107.642 E31.88047
G1 X163.111 Y108.53 E31.94427
G1 X163.111 Y134.604 E33.81747
G1 X163.102 Y135.331 E33.8697
G1 X163.056 Y135.838 E33.90628
G1 X162.931 Y136.331 E33.94282
G1 X162.73 Y136.798 E33.97934
G1 X162.459 Y137.229 E34.01592
G1 X162.123 Y137.611 E34.05247
G1 X161.732 Y137.937 E34.08904
G1 X161.295 Y138.197 E34.12557
G1 X160.823 Y138.385 E34.16207
G1 X160.326 Y138.498 E34.19869
G1 X159.848 Y138.539 E34.23315
G1 X151.744 Y138.54 E34.81536
G1 X148.947 Y138.58 E35.01632
G1 X146.235 Y138.695 E35.21133
G1 X143.486 Y138.89 E35.40932
G1 X140.788 Y139.157 E35.6041
G1 X138.064 Y139.506 E35.8014
G1 X135.331 Y139.935 E36.00014
G1 X132.678 Y140.428 E36.194
G1 X130.144 Y140.971 E36.38018
G1 X128.899 Y141.256 E36.47194
G1 X128.242 Y141.337 E36.5195
G1 X126.842 Y141.365 E36.6201
G1 X98.283 Y141.365 E38.67183
G1 X97.551 Y141.348 E38.72443
G1 X96.736 Y141.279 E38.78319
G1 X96.065 Y141.185 E38.83187
G1 X93.372 Y140.844 E39.02688
G1 X90.603 Y140.573 E39.22677
G1 X87.893 Y140.386 E39.42192
G1 X85.182 Y140.276 E39.61684
G1 X82.536 Y140.24 E39.80695
G1 X64.808 Y140.24 E41.08057
G1 X64.077 Y140.223 E41.1331
G1 X63.501 Y140.179 E41.1746
G1 X62.643 Y140.018 E41.23732
G1 X61.886 Y139.707 E41.29611
G1 X61.522 Y139.514 E41.32571
G1 X60.804 Y139.031 E41.38788
G1 X60.085 Y138.305 E41.46128
G1 X59.634 Y137.626 E41.51984
G1 X59.445 Y137.271 E41.54874
G1 X59.123 Y136.479 E41.61016
G1 X58.944 Y135.633 E41.67228
G1 X58.91 Y133.951 E41.79315
G1 X58.91 Y87.63 E45.12093
G1 X58.927 Y86.928 E45.17138
G1 X58.971 Y86.351 E45.21296
G1 X59.131 Y85.495 E45.27552
G1 X59.444 Y84.734 E45.33463
G1 X59.638 Y84.369 E45.36433
G1 X60.1 Y83.677 E45.4241
G1 X60.822 Y82.954 E45.49751
M204 S3000
G1 F5400 E42.49751
;MESH:h3xPad_Case_ERIC3_Base.stl
G0 F2400 X62.462 Y84.952
G0 X63.138 Y85.774
G0 X63.332 Y86.182
G0 X70.098 Y93.729
G0 X70.164 Y92.451
G0 X70.256 Y92.028
G0 X70.266 Y92.572
G0 X72.419 Y96.383
G0 X72.432 Y95.834
M204 S2000
;TYPE:WALL-OUTER
G1 F5400 E45.49751
G1 F3000 X71.011 Y95.829 E45.5996
G1 X70.931 Y95.794 E45.60587
G1 X70.828 Y95.636 E45.61942
G1 X70.825 Y92.397 E45.85212
G1 X70.939 Y92.241 E45.866
G1 X71.044 Y92.206 E45.87395
G1 X72.376 Y92.206 E45.96964
G1 X72.519 Y92.252 E45.98044
G1 X72.616 Y92.446 E45.99602
G1 X72.616 Y93.138 E46.04573
G1 X77.652 Y93.138 E46.40753
G1 X77.652 Y89.37 E46.67823
G1 X72.616 Y89.369 E47.04002
G1 X72.616 Y90.061 E47.08974
G1 X72.519 Y90.255 E47.10532
G1 X72.376 Y90.302 E47.11614
G1 X71.044 Y90.3 E47.21183
G1 X70.939 Y90.266 E47.21976
G1 X70.828 Y90.103 E47.23393
G1 X70.825 Y86.913 E47.4631
G1 X70.873 Y86.768 E47.47407
G1 X71.023 Y86.676 E47.48672
G1 X72.376 Y86.673 E47.58392
G1 X72.528 Y86.726 E47.59548
G1 X72.616 Y86.852 E47.60652
G1 X72.616 Y87.636 E47.66285
G1 X83.977 Y87.636 E48.47904
G1 X83.977 Y86.852 E48.53537
G1 X84.065 Y86.726 E48.54641
G1 X84.175 Y86.676 E48.55509
G1 X85.528 Y86.673 E48.65229
G1 X85.721 Y86.768 E48.66775
G1 X85.768 Y86.913 E48.6787
G1 X85.765 Y90.103 E48.90787
G1 X85.712 Y90.217 E48.9169
G1 X85.528 Y90.302 E48.93147
G1 X84.196 Y90.3 E49.02716
G1 X84.018 Y90.196 E49.04197
G1 X83.977 Y90.061 E49.05211
G1 X83.977 Y89.369 E49.10182
G1 X79.424 Y89.369 E49.42892
G1 X79.424 Y93.138 E49.69969
G1 X83.977 Y93.138 E50.02678
G1 X83.977 Y92.446 E50.0765
G1 X84.018 Y92.311 E50.08664
G1 X84.196 Y92.206 E50.10148
G1 X85.528 Y92.206 E50.19718
G1 X85.651 Y92.239 E50.20632
G1 X85.768 Y92.395 E50.22033
G1 X85.764 Y95.643 E50.45368
G1 X85.68 Y95.781 E50.46528
G1 X85.528 Y95.835 E50.47687
G1 X84.217 Y95.834 E50.57106
G1 X84.06 Y95.777 E50.58306
G1 X83.977 Y95.65 E50.59396
G1 X83.977 Y94.871 E50.64992
G1 X72.616 Y94.871 E51.46612
G1 X72.616 Y95.645 E51.52172
G1 X72.572 Y95.734 E51.52885
G1 X72.432 Y95.834 E51.54121
M204 S3000
G0 F2400 X72.232 Y95.834
G0 X72.222 Y96.407
G0 X73.236 Y95.857
G0 X83.297 Y95.544
G0 X83.834 Y96.36
G0 X85.956 Y96.923
G0 X85.956 Y104.107
G0 X85.664 Y104.507
G0 X85.685 Y103.862
M204 S2000
G1 F3000 X85.566 Y103.917 E51.55063
G1 X84.126 Y103.914 E51.65409
G1 X79.751 Y100.433 E52.05575
G1 X79.75 Y101.985 E52.16724
G1 X79.686 Y102.488 E52.20367
G1 X79.585 Y102.841 E52.23005
G1 X79.385 Y103.227 E52.26128
G1 X79.092 Y103.517 E52.2909
G1 X78.684 Y103.7 E52.32302
G1 X78.286 Y103.805 E52.35259
G1 X77.484 Y103.902 E52.41063
G1 X73.634 Y103.903 E52.68722
G1 F2748.1 X72.502 Y103.946 E52.77607
G1 X71.811 Y103.655 E52.83487
G1 F3000 X71.476 Y103.417 E52.86439
G1 X71.185 Y103.047 E52.89821
G1 X71.001 Y102.656 E52.92925
G1 X70.881 Y102.201 E52.96306
G1 X70.827 Y101.799 E52.9922
G1 X70.83 Y99.151 E53.18244
G1 X70.956 Y98.507 E53.22958
G1 X71.183 Y98.024 E53.26792
G1 X71.611 Y97.55 E53.3138
G1 X71.915 Y97.361 E53.33952
G1 X72.268 Y97.228 E53.36662
G1 X72.682 Y97.156 E53.39681
G1 X73.354 Y97.112 E53.44519
G1 X74.728 Y97.111 E53.5439
G1 X74.846 Y97.141 E53.55265
G1 X74.968 Y97.319 E53.56815
G1 X74.966 Y98.509 E53.65364
G1 X74.874 Y98.659 E53.66629
G1 X74.771 Y98.704 E53.67436
G1 X72.501 Y98.707 E53.83744
G1 X72.501 Y102.185 E54.08731
G1 X78.018 Y102.185 E54.48366
G1 X78.018 Y98.467 E54.75077
G1 X78.061 Y98.328 E54.76122
G1 X78.216 Y98.23 E54.7744
G1 X79.597 Y98.227 E54.87361
G1 X83.977 Y101.753 E55.27757
G1 X83.977 Y98.707 E55.4964
G1 X82.867 Y98.707 E55.57614
G1 X82.686 Y98.626 E55.59039
G1 X82.627 Y98.467 E55.60257
G1 X82.627 Y97.301 E55.68634
G1 X82.674 Y97.208 E55.69383
G1 X82.825 Y97.114 E55.70661
G1 X85.528 Y97.111 E55.90079
G1 X85.68 Y97.164 E55.91236
G1 X85.764 Y97.302 E55.92397
G1 X85.765 Y103.723 E56.38526
G1 X85.685 Y103.862 E56.39678
M204 S3000
G0 F2400 X85.566 Y103.917
G0 X85.497 Y103.917
G0 X85.497 Y104.519
G0 X83.649 Y104.38
G0 X80.479 Y101.863
G0 X79.483 Y104.05
G0 X81.523 Y104.639
G0 X81.129 Y107.289
G0 X79.267 Y108.292
G0 X81.602 Y109.985
G0 X81.273 Y112.296
G0 X78.643 Y112.09
G0 X78.488 Y111.287
G0 X76.055 Y110.003
G0 X73.284 Y111.443
G0 X72.873 Y112.508
G0 X73.299 Y113.248
G0 X83.273 Y113.248
G0 X84.09 Y112.302
G0 X85.902 Y112.673
G0 X86.368 Y113.154
G0 X85.765 Y113.153
M204 S2000
G1 F3000 X85.765 Y118.755 E56.79924
G1 X85.703 Y119.248 E56.83494
G1 X85.603 Y119.603 E56.86144
G1 X85.448 Y119.926 E56.88717
G1 X85.196 Y120.201 E56.91397
G1 X84.717 Y120.413 E56.9516
G1 X84 Y120.558 E57.00416
G1 X83.401 Y120.605 E57.04732
G1 X81.641 Y120.604 E57.17376
G1 F2891.6 X80.882 Y120.544 E57.23051
G1 F2845.8 X80.537 Y120.454 E57.25752
G1 F2926.8 X79.984 Y120.194 E57.30251
G1 F2975.2 X79.513 Y119.735 E57.35016
G1 F3000 X78.893 Y118.934 E57.42293
G1 X76.309 Y115.654 E57.72291
G1 X72.616 Y115.653 E57.98822
G1 X72.616 Y116.406 E58.04232
G1 X72.561 Y116.56 E58.05406
G1 X72.419 Y116.643 E58.06588
G1 X70.986 Y116.646 E58.16883
G1 X70.863 Y116.537 E58.18064
G1 X70.828 Y116.448 E58.18751
G1 X70.831 Y113.139 E58.42523
G1 X70.893 Y113.028 E58.43437
G1 X71.044 Y112.957 E58.44635
G1 X72.376 Y112.957 E58.54205
G1 X72.551 Y113.031 E58.5557
G1 X72.616 Y113.197 E58.56851
G1 X72.616 Y113.92 E58.62045
G1 X83.957 Y113.92 E59.43521
G1 X83.957 Y113.197 E59.48715
G1 X84.04 Y113.014 E59.50158
G1 X84.168 Y112.958 E59.51162
G1 X85.566 Y112.959 E59.61206
G1 X85.685 Y113.014 E59.62147
G1 X85.765 Y113.153 E59.633
M204 S3000
G0 F2400 X85.765 Y113.353
G0 X86.368 Y113.354
G0 X85.956 Y112.769
G0 X83.769 Y112.769
G0 X83.273 Y113.248
G0 X73.299 Y113.248
G0 X72.873 Y112.438
G0 X70.637 Y112.176
G0 X70.24 Y111.894
G0 X70.893 Y111.917
M204 S2000
G1 F3000 X70.825 Y111.805 E59.64241
G1 X70.83 Y110.259 E59.75348
G1 X70.912 Y110.119 E59.76513
G1 X74.373 Y108.356 E60.04418
G1 X70.912 Y106.605 E60.32283
G1 X70.828 Y106.455 E60.33519
G1 X70.828 Y104.859 E60.44984
G1 X70.93 Y104.701 E60.46336
G1 X71.016 Y104.661 E60.47017
G1 X71.768 Y104.66 E60.52419
G1 F2758.6 X72.449 Y104.563 E60.57794
G1 X72.617 Y104.898 E60.60722
G1 F3000 X72.616 Y105.613 E60.65858
G1 X76.058 Y107.412 E60.9376
G1 X79.156 Y105.779 E61.1892
G1 X79.156 Y104.958 E61.24818
G1 F3006.3 X79.239 Y104.841 E61.25846
G1 X79.383 Y104.783 E61.26959
G1 F3000 X80.798 Y104.786 E61.37125
G1 X80.947 Y104.945 E61.3869
G1 X80.942 Y106.544 E61.50178
G1 X80.868 Y106.678 E61.51278
G1 X77.757 Y108.346 E61.76637
G1 X80.865 Y109.904 E62.01614
G1 X80.946 Y110.03 E62.0269
G1 X80.948 Y111.655 E62.14365
G1 X80.859 Y111.782 E62.15479
G1 X80.749 Y111.832 E62.16347
G1 X79.396 Y111.835 E62.26067
G1 X79.275 Y111.803 E62.26966
G1 X79.161 Y111.646 E62.2836
G1 X79.156 Y110.885 E62.33827
G1 X76.058 Y109.253 E62.58983
G1 X72.617 Y111.038 E62.86832
G1 X72.612 Y111.795 E62.92271
G1 X72.551 Y111.914 E62.93232
G1 X72.376 Y111.989 E62.94599
G1 X71.044 Y111.988 E63.04169
G1 X70.893 Y111.917 E63.05368
M204 S3000
G0 F2400 X70.825 Y111.805
G0 X70.825 Y111.736
G0 X70.225 Y111.736
G0 X70.541 Y112.507
G0 X70.637 Y116.834
G0 X73.065 Y116.989
G0 X73.311 Y116.321
G0 X75.986 Y116.319
G0 X79.13 Y120.33
G0 X77.439 Y120.964
G0 X77.402 Y122.807
G0 X74.489 Y120.052
G0 X71.618 Y120.569
G0 X71.212 Y120.733
G0 X70.91 Y121.047
G0 X70.684 Y121.639
G0 X70.626 Y122.128
G0 X70.637 Y127.915
G0 X72.804 Y127.915
G0 X73.276 Y127.724
G0 X72.418 Y127.724
M204 S2000
G1 F3000 X70.964 Y127.722 E63.15813
G1 X70.825 Y127.536 E63.17482
G1 X70.826 Y122.126 E63.56348
G1 X70.889 Y121.655 E63.59762
G1 X71.076 Y121.174 E63.63469
G1 X71.32 Y120.91 E63.66052
G1 X71.676 Y120.76 E63.68827
G1 X72.264 Y120.638 E63.73142
G1 X73.617 Y120.632 E63.82862
G1 X74.351 Y120.707 E63.88163
G1 X74.657 Y120.875 E63.90671
G1 X75.032 Y121.202 E63.94245
G1 X75.387 Y121.597 E63.9806
G1 X78.086 Y125.03 E64.29433
G1 X79.156 Y125.03 E64.3712
G1 X79.156 Y122.515 E64.55189
G1 X78.253 Y122.514 E64.61676
G1 X78.116 Y122.454 E64.6275
G1 X78.037 Y122.275 E64.64156
G1 X78.037 Y121.232 E64.71649
G1 X78.107 Y121.126 E64.72562
G1 F2993.8 X78.226 Y121.056 E64.73556
G1 F2885.8 X80.781 Y121.049 E64.92638
G1 F2891.6 X80.946 Y121.272 E64.94706
G1 F3000 X80.945 Y125.194 E65.22882
G1 X80.89 Y125.6 E65.25825
G1 X80.673 Y126.137 E65.29986
G1 X80.391 Y126.428 E65.32898
G1 X79.773 Y126.68 E65.37692
G1 X79.282 Y126.756 E65.41262
G1 X72.616 Y126.764 E65.89152
G1 X72.613 Y127.53 E65.94655
G1 X72.418 Y127.724 E65.96631
M204 S3000
G0 F2400 X72.218 Y127.724
G0 X73.276 Y127.724
G0 X71.008 Y128.745
G0 X70.674 Y129.063
G0 X70.476 Y129.478
G0 X70.53 Y130.342
G0 X70.807 Y130.916
G0 X72.418 Y132.908
G0 X70.637 Y132.897
G0 X70.637 Y135.969
G0 X72.824 Y135.969
G0 X73.214 Y135.69
G0 X72.438 Y135.778
M204 S2000
G1 F3000 X71.065 Y135.781 E66.06495
G1 X70.872 Y135.686 E66.0804
G1 X70.825 Y135.541 E66.09135
G1 X70.829 Y133.281 E66.25372
G1 X70.89 Y133.159 E66.26352
G1 X71.065 Y133.085 E66.27717
G1 X72.782 Y133.084 E66.40052
G1 X70.963 Y130.785 E66.61113
G1 X70.731 Y130.299 E66.64982
G1 X70.637 Y129.819 E66.68496
G1 X70.676 Y129.52 E66.70662
G1 X70.834 Y129.193 E66.73271
G1 X71.092 Y128.939 E66.75872
G1 X71.542 Y128.721 E66.79464
G1 X71.95 Y128.625 E66.82476
G1 X79.179 Y128.624 E67.3441
G1 X79.865 Y128.727 E67.39394
G1 X80.248 Y128.88 E67.42357
G1 X80.503 Y129.098 E67.44767
G1 X80.693 Y129.349 E67.47028
G1 X80.887 Y129.786 E67.50463
G1 X80.946 Y130.211 E67.53546
G1 X80.948 Y133.084 E67.74186
G1 X83.977 Y133.085 E67.95947
G1 X83.977 Y132.233 E68.02068
G1 X84.101 Y132.105 E68.03348
G1 X84.191 Y132.077 E68.04025
G1 X85.553 Y132.077 E68.1381
G1 X85.713 Y132.162 E68.15112
G1 X85.765 Y132.272 E68.15986
G1 X85.768 Y134.648 E68.33056
G1 X85.672 Y134.771 E68.34177
G1 X85.57 Y134.815 E68.34975
G1 X72.636 Y134.818 E69.27895
G1 X72.631 Y135.591 E69.33448
G1 X72.438 Y135.778 E69.35379
M204 S3000
G0 F2400 X72.238 Y135.778
G0 X73.214 Y135.69
G0 X72.959 Y136.029
G0 X92.108 Y136.161
G0 X92.142 Y136.76
M204 S2000
G1 F3000 X92.489 Y136.726 E69.37884
G1 X92.82 Y136.625 E69.4037
G1 X93.13 Y136.459 E69.42896
G1 X93.393 Y136.243 E69.45341
G1 X93.609 Y135.98 E69.47786
G1 X93.775 Y135.67 E69.50313
