;FLAVOR:Marlin
;TIME:1867
;Filament used: 3.19766m
;Layer height: 0.2
;MINX:91.28
;MINY:81.28
;MINZ:0.3
;MAXX:130.72
;MAXY:140.72
;MAXZ:23.1
;TARGET_MACHINE.NAME:Unknown
;Generated with Cura_SteamEngine 5.6.0
M140 S63
M105
M190 S63
M104 S177
M105
M109 S177
M82 ;absolute extrusion mode
G28 ;Home
G1 Z15.0 F6000 ;Move the platform down 15mm
;Prime the extruder
G92 E0
G1 F200 E3
G92 E0
G92 E0
G92 E0
G1 F5400 E-3
;LAYER_COUNT:115
;LAYER:0
M107
M204 S3000
M205 X20 Y20
G0 F2400 X92.79 Y83.155 Z0.3
M204 S2000
;TYPE:SKIRT
G1 F5400 E0
G1 F3000 X93.398 Y82.556 E0.06132
G1 X94.32 Y81.944 E0.14082
G1 X95.364 Y81.517 E0.22185
G1 X96.381 Y81.313 E0.29637
G1 X98.023 Y81.28 E0.41436
G1 X124.353 Y81.28 E2.30596
G1 X125.11 Y81.298 E2.36036
G1 X125.738 Y81.349 E2.40562
G1 X126.642 Y81.519 E2.47171
G1 X127.489 Y81.869 E2.53755
G1 X127.894 Y82.086 E2.57056
G1 X128.624 Y82.572 E2.63356
G1 X129.419 Y83.366 E2.71428
G1 X129.94 Y84.148 E2.78179
G1 X130.128 Y84.501 E2.81052
G1 X130.489 Y85.382 E2.87892
G1 X130.685 Y86.311 E2.94713
G1 X130.72 Y88.003 E3.06871
G1 X130.72 Y134.353 E6.39858
G1 X130.702 Y135.11 E6.45298
G1 X130.651 Y135.738 E6.49825
G1 X130.476 Y136.659 E6.5656
G1 X130.045 Y137.698 E6.64641
G1 X129.524 Y138.473 E6.7135
G1 X129.237 Y138.817 E6.74569
G1 X128.612 Y139.437 E6.80893
G1 X127.684 Y140.053 E6.88895
G1 X126.621 Y140.489 E6.97149
G1 X125.689 Y140.685 E7.03992
G1 X123.977 Y140.72 E7.16293
G1 X97.647 Y140.72 E9.05453
G1 X96.89 Y140.702 E9.10893
G1 X96.262 Y140.651 E9.1542
G1 X95.358 Y140.481 E9.22028
G1 X94.511 Y140.131 E9.28612
G1 X94.104 Y139.912 E9.31932
G1 X93.347 Y139.404 E9.38482
G1 X92.559 Y138.606 E9.46539
G1 X92.06 Y137.852 E9.53035
G1 X91.85 Y137.452 E9.5628
G1 X91.51 Y136.618 E9.62751
G1 X91.315 Y135.683 E9.69612
G1 X91.28 Y133.975 E9.81886
G1 X91.28 Y87.647 E13.14715
G1 X91.298 Y86.892 E13.2014
G1 X91.349 Y86.263 E13.24674
G1 X91.518 Y85.358 E13.31288
G1 X91.85 Y84.551 E13.37557
G1 X92.09 Y84.101 E13.41221
G1 X92.495 Y83.505 E13.46398
G1 X92.79 Y83.155 E13.49686
M204 S3000
G0 F2400 X93.127 Y83.497
M204 S2000
G1 F3000 X93.703 Y82.929 E13.55498
G1 X94.546 Y82.37 E13.62765
G1 X95.5 Y81.98 E13.70169
G1 X96.436 Y81.792 E13.77028
G1 X98.033 Y81.76 E13.88503
G1 X124.342 Y81.76 E15.77512
G1 X125.073 Y81.777 E15.82765
G1 X125.649 Y81.821 E15.86915
G1 X126.507 Y81.982 E15.93187
G1 X127.264 Y82.293 E15.99066
G1 X127.628 Y82.486 E16.02026
G1 X128.319 Y82.946 E16.0799
G1 X129.046 Y83.672 E16.15371
G1 X129.516 Y84.374 E16.21441
G1 X129.704 Y84.727 E16.24314
G1 X130.027 Y85.519 E16.30459
G1 X130.206 Y86.367 E16.36685
G1 X130.24 Y88.013 E16.48513
G1 X130.24 Y134.342 E19.81349
G1 X130.223 Y135.073 E19.86602
G1 X130.179 Y135.649 E19.90752
G1 X130.013 Y136.524 E19.97151
G1 X129.621 Y137.468 E20.04494
G1 X129.154 Y138.167 E20.10533
G1 X128.899 Y138.476 E20.13412
G1 X128.308 Y139.062 E20.19391
G1 X127.456 Y139.628 E20.26739
G1 X126.482 Y140.027 E20.34301
G1 X125.633 Y140.206 E20.40534
G1 X123.967 Y140.24 E20.52506
G1 X97.658 Y140.24 E22.41515
G1 X96.927 Y140.223 E22.46768
G1 X96.351 Y140.179 E22.50918
G1 X95.493 Y140.018 E22.57189
G1 X94.736 Y139.707 E22.63069
G1 X94.372 Y139.514 E22.66029
G1 X93.656 Y139.033 E22.72226
G1 X92.934 Y138.303 E22.79602
G1 X92.484 Y137.626 E22.85442
G1 X92.295 Y137.271 E22.88331
G1 X91.971 Y136.476 E22.94499
G1 X91.794 Y135.629 E23.00715
G1 X91.76 Y133.965 E23.12672
G1 X91.76 Y87.658 E26.45351
G1 X91.777 Y86.928 E26.50597
G1 X91.821 Y86.351 E26.54754
G1 X91.981 Y85.495 E26.6101
G1 X92.294 Y84.734 E26.66922
G1 X92.488 Y84.369 E26.69891
G1 X92.863 Y83.813 E26.74709
G1 X93.127 Y83.497 E26.77667
M204 S3000
G1 F5400 E23.77667
;MESH:h3xPad_Case_3_Base_No_Name.stl
G0 F2400 X95.047 Y85.197
G0 X95.884 Y85.884
G0 X96.08 Y86.236
G0 X102.948 Y93.787
G0 X103.014 Y92.451
G0 X103.106 Y92.028
G0 X103.116 Y92.588
G0 X105.269 Y96.383
G0 X105.282 Y95.834
M204 S2000
;TYPE:WALL-OUTER
G1 F5400 E26.77667
G1 F3000 X103.861 Y95.829 E26.87876
G1 X103.781 Y95.794 E26.88504
G1 X103.678 Y95.636 E26.89858
G1 X103.675 Y92.397 E27.13128
G1 X103.789 Y92.241 E27.14516
G1 X103.894 Y92.206 E27.15311
G1 X105.226 Y92.206 E27.24881
G1 X105.369 Y92.252 E27.2596
G1 X105.466 Y92.446 E27.27518
G1 X105.466 Y93.138 E27.3249
G1 X110.502 Y93.138 E27.68669
G1 X110.502 Y89.37 E27.95739
G1 X105.466 Y89.369 E28.31919
G1 X105.466 Y90.061 E28.3689
G1 X105.369 Y90.255 E28.38448
G1 X105.226 Y90.302 E28.3953
G1 X103.894 Y90.3 E28.49099
G1 X103.789 Y90.266 E28.49892
G1 X103.678 Y90.103 E28.51309
G1 X103.675 Y86.913 E28.74226
G1 X103.723 Y86.768 E28.75324
G1 X103.873 Y86.676 E28.76588
G1 X105.226 Y86.673 E28.86308
G1 X105.378 Y86.726 E28.87465
G1 X105.466 Y86.852 E28.88569
G1 X105.466 Y87.636 E28.94201
G1 X116.827 Y87.636 E29.75821
G1 X116.827 Y86.852 E29.81453
G1 X116.915 Y86.726 E29.82557
G1 X117.025 Y86.676 E29.83425
G1 X118.378 Y86.673 E29.93146
G1 X118.571 Y86.768 E29.94691
G1 X118.618 Y86.913 E29.95786
G1 X118.615 Y90.103 E30.18704
G1 X118.562 Y90.217 E30.19607
G1 X118.378 Y90.302 E30.21063
G1 X117.046 Y90.3 E30.30632
G1 X116.868 Y90.196 E30.32113
G1 X116.827 Y90.061 E30.33127
G1 X116.827 Y89.369 E30.38098
G1 X112.274 Y89.369 E30.70808
G1 X112.274 Y93.138 E30.97885
G1 X116.827 Y93.138 E31.30595
G1 X116.827 Y92.446 E31.35566
G1 X116.868 Y92.311 E31.3658
G1 X117.046 Y92.206 E31.38065
G1 X118.378 Y92.206 E31.47634
G1 X118.501 Y92.239 E31.48549
G1 X118.618 Y92.395 E31.4995
G1 X118.614 Y95.643 E31.73284
G1 X118.53 Y95.781 E31.74445
G1 X118.378 Y95.835 E31.75604
G1 X117.067 Y95.834 E31.85022
G1 X116.91 Y95.777 E31.86222
G1 X116.827 Y95.65 E31.87312
G1 X116.827 Y94.871 E31.92908
G1 X105.466 Y94.871 E32.74528
G1 X105.466 Y95.645 E32.80089
G1 X105.422 Y95.734 E32.80802
G1 X105.282 Y95.834 E32.82038
M204 S3000
G0 F2400 X105.082 Y95.834
G0 X105.072 Y96.407
G0 X106.086 Y95.857
G0 X116.147 Y95.544
G0 X116.684 Y96.36
G0 X118.806 Y96.923
G0 X118.806 Y104.107
G0 X118.514 Y104.507
G0 X118.535 Y103.862
M204 S2000
G1 F3000 X118.416 Y103.917 E32.8298
G1 X116.976 Y103.914 E32.93325
G1 X112.601 Y100.433 E33.33491
G1 X112.6 Y101.985 E33.44641
G1 X112.536 Y102.488 E33.48283
G1 X112.435 Y102.841 E33.50921
G1 X112.235 Y103.227 E33.54044
G1 X111.942 Y103.517 E33.57006
G1 X111.534 Y103.7 E33.60219
G1 X111.136 Y103.805 E33.63176
G1 X110.334 Y103.902 E33.68979
G1 X106.484 Y103.903 E33.96639
G1 F2748.1 X105.352 Y103.946 E34.05523
G1 X104.661 Y103.655 E34.11403
G1 F3000 X104.326 Y103.417 E34.14356
G1 X104.035 Y103.047 E34.17737
G1 X103.851 Y102.656 E34.20842
G1 X103.731 Y102.201 E34.24222
G1 X103.677 Y101.799 E34.27136
G1 X103.68 Y99.151 E34.4616
G1 X103.806 Y98.507 E34.50874
G1 X104.033 Y98.024 E34.54709
G1 X104.461 Y97.55 E34.59297
G1 X104.765 Y97.361 E34.61868
G1 X105.118 Y97.228 E34.64578
G1 X105.532 Y97.156 E34.67597
G1 X106.204 Y97.112 E34.72435
G1 X107.578 Y97.111 E34.82306
G1 X107.696 Y97.141 E34.83181
G1 X107.818 Y97.319 E34.84731
G1 X107.816 Y98.509 E34.93281
G1 X107.724 Y98.659 E34.94545
G1 X107.621 Y98.704 E34.95352
G1 X105.351 Y98.707 E35.1166
G1 X105.351 Y102.185 E35.36647
G1 X110.868 Y102.185 E35.76282
G1 X110.868 Y98.467 E36.02993
G1 X110.911 Y98.328 E36.04038
G1 X111.066 Y98.23 E36.05356
G1 X112.447 Y98.227 E36.15277
G1 X116.827 Y101.753 E36.55673
G1 X116.827 Y98.707 E36.77556
G1 X115.717 Y98.707 E36.85531
G1 X115.536 Y98.626 E36.86955
G1 X115.477 Y98.467 E36.88174
G1 X115.477 Y97.301 E36.96551
G1 X115.524 Y97.208 E36.97299
G1 X115.675 Y97.114 E36.98577
G1 X118.378 Y97.111 E37.17996
G1 X118.53 Y97.164 E37.19152
G1 X118.614 Y97.302 E37.20313
G1 X118.615 Y103.723 E37.66443
G1 X118.535 Y103.862 E37.67595
M204 S3000
G0 F2400 X118.416 Y103.917
G0 X118.347 Y103.917
G0 X118.347 Y104.519
G0 X116.499 Y104.38
G0 X113.329 Y101.863
G0 X112.333 Y104.05
G0 X114.373 Y104.639
G0 X113.979 Y107.289
G0 X112.117 Y108.292
G0 X114.452 Y109.985
G0 X114.123 Y112.296
G0 X111.493 Y112.09
G0 X111.338 Y111.287
G0 X108.905 Y110.003
G0 X106.134 Y111.443
G0 X105.723 Y112.508
G0 X106.149 Y113.248
G0 X116.123 Y113.248
G0 X116.94 Y112.302
G0 X118.753 Y112.673
G0 X119.218 Y113.154
G0 X118.615 Y113.153
M204 S2000
G1 F3000 X118.615 Y118.755 E38.07841
G1 X118.553 Y119.248 E38.1141
G1 X118.453 Y119.603 E38.1406
G1 X118.298 Y119.926 E38.16634
G1 X118.046 Y120.201 E38.19314
G1 X117.553 Y120.418 E38.23183
G1 X116.85 Y120.558 E38.28333
G1 X116.251 Y120.605 E38.32649
G1 X114.491 Y120.604 E38.45294
G1 F2891.6 X113.732 Y120.544 E38.50969
G1 F2845.8 X113.387 Y120.454 E38.53669
G1 F2926.8 X112.834 Y120.194 E38.58169
G1 F2975.2 X112.363 Y119.735 E38.62933
G1 F3000 X111.743 Y118.934 E38.7021
G1 X109.159 Y115.654 E39.00208
G1 X105.466 Y115.653 E39.26739
G1 X105.466 Y116.406 E39.32149
G1 X105.411 Y116.56 E39.33324
G1 X105.269 Y116.643 E39.34505
G1 X103.836 Y116.646 E39.448
G1 X103.713 Y116.537 E39.45981
G1 X103.678 Y116.448 E39.46668
G1 X103.681 Y113.139 E39.7044
G1 X103.743 Y113.028 E39.71354
G1 X103.894 Y112.957 E39.72553
G1 X105.226 Y112.957 E39.82122
G1 X105.401 Y113.031 E39.83487
G1 X105.466 Y113.197 E39.84768
G1 X105.466 Y113.92 E39.89962
G1 X116.807 Y113.92 E40.71438
G1 X116.807 Y113.197 E40.76632
G1 X116.89 Y113.014 E40.78076
G1 X117.018 Y112.958 E40.79079
G1 X118.416 Y112.959 E40.89123
G1 X118.535 Y113.014 E40.90065
G1 X118.615 Y113.153 E40.91217
M204 S3000
G0 F2400 X118.615 Y113.353
G0 X119.218 Y113.354
G0 X118.806 Y112.769
G0 X116.619 Y112.769
G0 X116.123 Y113.248
G0 X106.149 Y113.248
G0 X105.723 Y112.438
G0 X103.487 Y112.176
G0 X103.09 Y111.894
G0 X103.743 Y111.917
M204 S2000
G1 F3000 X103.675 Y111.805 E40.92158
G1 X103.68 Y110.259 E41.03265
G1 X103.762 Y110.119 E41.04431
G1 X107.223 Y108.356 E41.32335
G1 X103.762 Y106.605 E41.60201
G1 X103.678 Y106.455 E41.61436
G1 X103.678 Y104.859 E41.72902
G1 X103.78 Y104.701 E41.74253
G1 X103.866 Y104.661 E41.74934
G1 X104.618 Y104.66 E41.80337
G1 F2758.6 X105.299 Y104.563 E41.85711
G1 X105.467 Y104.898 E41.88639
G1 F3000 X105.466 Y105.613 E41.93776
G1 X108.908 Y107.412 E42.21677
G1 X112.006 Y105.779 E42.46837
G1 X112.006 Y104.958 E42.52735
G1 F3006.3 X112.089 Y104.841 E42.53763
G1 X112.233 Y104.783 E42.54876
G1 F3000 X113.648 Y104.786 E42.65042
G1 X113.797 Y104.945 E42.66607
G1 X113.792 Y106.544 E42.78095
G1 X113.718 Y106.678 E42.79195
G1 X110.607 Y108.346 E43.04555
G1 X113.715 Y109.904 E43.29531
G1 X113.796 Y110.03 E43.30607
G1 X113.798 Y111.655 E43.42282
G1 X113.709 Y111.782 E43.43396
G1 X113.599 Y111.832 E43.44264
G1 X112.246 Y111.835 E43.53984
G1 X112.125 Y111.803 E43.54883
G1 X112.011 Y111.646 E43.56277
G1 X112.006 Y110.885 E43.61745
G1 X108.908 Y109.253 E43.86901
G1 X105.467 Y111.038 E44.1475
G1 X105.462 Y111.795 E44.20188
G1 X105.401 Y111.914 E44.21149
G1 X105.226 Y111.989 E44.22517
G1 X103.894 Y111.988 E44.32086
G1 X103.743 Y111.917 E44.33285
M204 S3000
G0 F2400 X103.675 Y111.805
G0 X103.675 Y111.736
G0 X103.075 Y111.736
G0 X103.391 Y112.507
G0 X103.487 Y116.834
G0 X105.915 Y116.989
G0 X106.161 Y116.321
G0 X108.836 Y116.319
G0 X111.98 Y120.33
G0 X110.289 Y120.964
G0 X110.252 Y122.807
G0 X107.339 Y120.052
G0 X104.468 Y120.569
G0 X104.062 Y120.733
G0 X103.76 Y121.047
G0 X103.534 Y121.639
G0 X103.476 Y122.128
G0 X103.487 Y127.915
G0 X105.654 Y127.915
G0 X106.126 Y127.724
G0 X105.268 Y127.724
M204 S2000
G1 F3000 X103.814 Y127.722 E44.43731
G1 X103.675 Y127.536 E44.45399
G1 X103.676 Y122.126 E44.84265
G1 X103.739 Y121.655 E44.87679
G1 X103.926 Y121.174 E44.91387
G1 X104.17 Y120.91 E44.93969
G1 X104.526 Y120.76 E44.96745
G1 X105.114 Y120.638 E45.01059
G1 X106.467 Y120.632 E45.10779
G1 X107.201 Y120.707 E45.1608
G1 X107.507 Y120.875 E45.18588
G1 X107.882 Y121.202 E45.22162
G1 X108.237 Y121.597 E45.25978
G1 X110.936 Y125.03 E45.5735
G1 X112.006 Y125.03 E45.65038
G1 X112.006 Y122.515 E45.83106
G1 X111.103 Y122.514 E45.89593
G1 X110.966 Y122.454 E45.90668
G1 X110.887 Y122.275 E45.92073
G1 X110.887 Y121.232 E45.99566
G1 X110.957 Y121.126 E46.00479
G1 F2993.8 X111.076 Y121.056 E46.01473
G1 F2885.8 X113.631 Y121.049 E46.20555
G1 F2891.6 X113.796 Y121.272 E46.22623
G1 F3000 X113.795 Y125.194 E46.50799
G1 X113.74 Y125.6 E46.53743
G1 X113.505 Y126.165 E46.58139
G1 X113.241 Y126.428 E46.60816
G1 X112.623 Y126.68 E46.65611
G1 X112.132 Y126.756 E46.6918
G1 X105.466 Y126.764 E47.1707
G1 X105.463 Y127.53 E47.22573
G1 X105.268 Y127.724 E47.24549
M204 S3000
G0 F2400 X105.068 Y127.724
G0 X106.126 Y127.724
G0 X103.858 Y128.745
G0 X103.524 Y129.063
G0 X103.326 Y129.478
G0 X103.38 Y130.342
G0 X103.657 Y130.916
G0 X105.268 Y132.908
G0 X103.487 Y132.897
G0 X103.487 Y135.969
G0 X105.674 Y135.969
G0 X106.064 Y135.69
G0 X105.288 Y135.778
M204 S2000
G1 F3000 X103.915 Y135.781 E47.34413
G1 X103.722 Y135.686 E47.35959
G1 X103.675 Y135.541 E47.37054
G1 X103.679 Y133.281 E47.5329
G1 X103.74 Y133.159 E47.5427
G1 X103.915 Y133.085 E47.55635
G1 X105.632 Y133.084 E47.6797
G1 X103.813 Y130.785 E47.89031
G1 X103.581 Y130.299 E47.929
G1 X103.487 Y129.819 E47.96414
G1 X103.526 Y129.52 E47.9858
G1 X103.684 Y129.193 E48.01189
G1 X103.942 Y128.939 E48.0379
G1 X104.392 Y128.721 E48.07383
G1 X104.8 Y128.625 E48.10394
G1 X112.029 Y128.624 E48.62328
G1 X112.715 Y128.727 E48.67312
G1 X113.098 Y128.88 E48.70275
G1 X113.353 Y129.098 E48.72685
G1 X113.543 Y129.349 E48.74947
G1 X113.737 Y129.786 E48.78382
G1 X113.796 Y130.211 E48.81464
G1 X113.798 Y133.084 E49.02104
G1 X116.827 Y133.085 E49.23865
G1 X116.827 Y132.233 E49.29986
G1 X116.951 Y132.105 E49.31267
G1 X117.041 Y132.077 E49.31944
G1 X118.403 Y132.077 E49.41729
G1 X118.563 Y132.162 E49.4303
G1 X118.615 Y132.272 E49.43904
G1 X118.618 Y134.648 E49.60974
G1 X118.522 Y134.771 E49.62095
G1 X118.42 Y134.815 E49.62893
G1 X105.486 Y134.818 E50.55813
G1 X105.481 Y135.591 E50.61367
G1 X105.288 Y135.778 E50.63297
M204 S3000
G0 F2400 X105.088 Y135.778
G0 X106.064 Y135.69
G0 X105.809 Y136.029
G0 X124.958 Y136.161
G0 X124.992 Y136.76
M204 S2000
G1 F3000 X125.339 Y136.726 E50.65802
G1 X125.67 Y136.625 E50.68288
G1 X125.98 Y136.459 E50.70815
G1 X126.243 Y136.243 E50.7326
G1 X126.459 Y135.98 E50.75705
G1 X126.625 Y135.67 E50.78231
G1 X126.726 Y135.339 E50.80717
G1 X126.76 Y134.992 E50.83222
G1 X126.76 Y87.008 E54.27948
G1 X126.726 Y86.661 E54.30453
G1 X126.625 Y86.33 E54.32939
G1 X126.459 Y86.02 E54.35466
G1 X126.243 Y85.757 E54.37911
G1 X125.98 Y85.541 E54.40356
G1 X125.67 Y85.375 E54.42882
G1 X125.339 Y85.274 E54.45368
G1 X124.992 Y85.24 E54.47873
G1 X97.008 Y85.24 E56.48915
G1 X96.661 Y85.274 E56.5142
G1 X96.33 Y85.375 E56.53906
G1 X96.02 Y85.541 E56.56433
G1 X95.757 Y85.757 E56.58878
G1 X95.541 Y86.02 E56.61323
G1 X95.375 Y86.33 E56.63849
G1 X95.274 Y86.661 E56.66335
G1 X95.24 Y87.008 E56.6884
G1 X95.24 Y134.992 E60.13566
G1 X95.274 Y135.339 E60.16071
G1 X95.375 Y135.67 E60.18557
G1 X95.541 Y135.98 E60.21084
G1 X95.757 Y136.243 E60.23529
G1 X96.02 Y136.459 E60.25974
G1 X96.33 Y136.625 E60.285
G1 X96.661 Y136.726 E60.30986
G1 X97.008 Y136.76 E60.33491
G1 X124.992 Y136.76 E62.34533
M204 S3000
G0 F2400 X125.191 Y136.741
G0 X125.136 Y136.128
G0 X105.838 Y136.094
G0 X106.165 Y135.492
G0 X118.917 Y135.3
G0 X118.806 Y131.888
G0 X116.639 Y131.888
G0 X116.148 Y132.416
G0 X114.47 Y132.412
G0 X113.941 Y129.759
G0 X113.713 Y129.238
G0 X113.187 Y128.693
G0 X112.74 Y128.524
G0 X106.096 Y127.992
G0 X105.345 Y128.17
M204 S2000
;TYPE:WALL-INNER
G1 F3356.6 X104.682 Y128.184 E62.38791
M204 S3000
G0 F2400 X103.891 Y128.308
G0 X103.487 Y127.915
G0 X103.476 Y122.128
G0 X103.534 Y121.639
G0 X103.76 Y121.047
G0 X104.062 Y120.733
G0 X106.533 Y119.974
G0 X108.758 Y121.189
G0 X109.745 Y122.446
G0 X110.189 Y122.838
G0 X110.491 Y120.659
G0 X111.952 Y120.39
G0 X108.836 Y116.319
G0 X105.654 Y115.841
G0 X105.654 Y116.834
G0 X103.487 Y116.834
G0 X103.487 Y112.769
G0 X106.042 Y112.133
G0 X106.134 Y111.443
G0 X109.031 Y109.54
G0 X111.812 Y111
G0 X111.818 Y112.023
G0 X113.985 Y112.023
G0 X113.991 Y109.826
G0 X110.994 Y108.342
G0 X113.991 Y106.75
G0 X113.985 Y104.595
G0 X111.756 Y104.421
G0 X110.413 Y104.497
G0 X110.392 Y104.379
M204 S2000
G1 F3000 X106.468 Y104.383 E62.66982
G1 X105.551 Y104.352 E62.73574
G1 X105.947 Y104.892 E62.78384
G1 X105.946 Y105.322 E62.81474
G1 X108.907 Y106.87 E63.05478
G1 X111.526 Y105.489 E63.26749
G1 X111.526 Y105.023 E63.30096
