;FLAVOR:Marlin
;TIME:3075
;Filament used: 4.94987m
;Layer height: 0.2
;MINX:58.33
;MINY:80.155
;MINZ:0.3
;MAXX:163.641
;MAXY:141.845
;MAXZ:23.1
;TARGET_MACHINE.NAME:Unknown
;Generated with Cura_SteamEngine 5.6.0
M140 S63
M105
M190 S63
M104 S177
M105
M109 S177
M82 ;absolute extrusion mode
G28 ;Home
G1 Z15.0 F6000 ;Move the platform down 15mm
;Prime the extruder
G92 E0
G1 F200 E3
G92 E0
G92 E0
G92 E0
G1 F5400 E-3
;LAYER_COUNT:115
;LAYER:0
M107
M204 S3000
M205 X20 Y20
G0 F2400 X60.416 Y82.581 Z0.3
M204 S2000
;TYPE:SKIRT
G1 F5400 E0
G1 F3000 X61.198 Y82.06 E0.06751
G1 X61.551 Y81.872 E0.09624
G1 X62.432 Y81.511 E0.16464
G1 X63.361 Y81.315 E0.23285
G1 X65.073 Y81.28 E0.35587
G1 X82.476 Y81.28 E1.60613
G1 X85.26 Y81.24 E1.80616
G1 X87.972 Y81.125 E2.00117
G1 X90.695 Y80.933 E2.19728
G1 X93.413 Y80.663 E2.39351
G1 X97.144 Y80.185 E2.66374
G1 X98.598 Y80.155 E2.76822
G1 X127.174 Y80.155 E4.82118
G1 X127.732 Y80.164 E4.86127
G1 X128.818 Y80.243 E4.9395
G1 X130.211 Y80.563 E5.04218
G1 X132.867 Y81.131 E5.23731
G1 X135.547 Y81.624 E5.43307
G1 X138.236 Y82.042 E5.62858
G1 X140.939 Y82.382 E5.8243
G1 X143.672 Y82.648 E6.02157
G1 X146.364 Y82.835 E6.21543
G1 X149.075 Y82.945 E6.41035
G1 X151.697 Y82.98 E6.59874
G1 X159.273 Y82.98 E7.14302
G1 X160.008 Y82.993 E7.19583
G1 X160.59 Y83.054 E7.23787
G1 X161.153 Y83.205 E7.27974
G1 X161.62 Y83.407 E7.3163
G1 X162.116 Y83.716 E7.35828
G1 X162.557 Y84.097 E7.40015
G1 X162.977 Y84.606 E7.44756
G1 X163.236 Y85.044 E7.48412
G1 X163.479 Y85.657 E7.53149
G1 X163.589 Y86.153 E7.56799
G1 X163.64 Y86.725 E7.60925
G1 X163.641 Y105.692 E8.97187
G1 X163.634 Y107.644 E9.11211
G1 X163.641 Y108.526 E9.17547
G1 X163.641 Y134.61 E11.0494
G1 X163.63 Y135.374 E11.10429
G1 X163.571 Y135.956 E11.14632
G1 X163.422 Y136.521 E11.18829
G1 X163.221 Y136.988 E11.22482
G1 X162.915 Y137.485 E11.26675
G1 X162.48 Y137.98 E11.31409
G1 X162.027 Y138.35 E11.35611
G1 X161.523 Y138.643 E11.398
G1 X161.051 Y138.831 E11.4345
G1 X160.417 Y138.976 E11.48122
G1 X159.898 Y139.019 E11.51863
G1 X151.701 Y139.02 E12.10752
G1 X148.917 Y139.06 E12.30755
G1 X146.205 Y139.175 E12.50256
G1 X143.48 Y139.368 E12.69882
G1 X140.785 Y139.635 E12.89338
G1 X138.075 Y139.982 E13.08966
G1 X135.369 Y140.407 E13.28645
G1 X132.716 Y140.9 E13.48031
G1 X130.201 Y141.439 E13.66509
G1 X128.956 Y141.724 E13.75685
G1 X128.202 Y141.817 E13.81143
G1 X126.802 Y141.845 E13.91203
G1 X98.222 Y141.845 E15.96527
G1 X97.49 Y141.828 E16.01787
G1 X96.619 Y141.754 E16.08067
G1 X95.955 Y141.661 E16.12884
G1 X93.275 Y141.322 E16.32291
G1 X90.506 Y141.051 E16.52279
G1 X87.824 Y140.866 E16.71593
G1 X85.113 Y140.756 E16.91085
G1 X82.479 Y140.72 E17.1001
G1 X64.697 Y140.72 E18.3776
G1 X63.94 Y140.702 E18.432
G1 X63.312 Y140.651 E18.47726
G1 X62.408 Y140.481 E18.54334
G1 X61.561 Y140.131 E18.60918
G1 X61.154 Y139.912 E18.64239
G1 X60.395 Y139.402 E18.70808
G1 X59.61 Y138.608 E18.7883
G1 X59.11 Y137.852 E18.85341
G1 X58.9 Y137.452 E18.88587
G1 X58.562 Y136.621 E18.95032
G1 X58.365 Y135.689 E19.01876
G1 X58.33 Y133.961 E19.14292
G1 X58.33 Y87.618 E22.47229
G1 X58.348 Y86.892 E22.52447
G1 X58.399 Y86.263 E22.5698
G1 X58.568 Y85.358 E22.63594
G1 X58.9 Y84.551 E22.69863
G1 X59.139 Y84.102 E22.73518
G1 X59.627 Y83.371 E22.79832
G1 X60.416 Y82.581 E22.87853
M204 S3000
G0 F2400 X60.722 Y82.954
M204 S2000
G1 F3000 X61.424 Y82.484 E22.93923
G1 X61.777 Y82.296 E22.96796
G1 X62.569 Y81.973 E23.02941
G1 X63.417 Y81.794 E23.09167
G1 X65.083 Y81.76 E23.21139
G1 X82.483 Y81.76 E24.46143
G1 X85.28 Y81.72 E24.6624
G1 X87.992 Y81.605 E24.85741
G1 X90.739 Y81.411 E25.05525
G1 X93.46 Y81.141 E25.25169
G1 X97.154 Y80.665 E25.51927
G1 X98.608 Y80.635 E25.62375
G1 X127.167 Y80.635 E27.67548
G1 X127.7 Y80.643 E27.71378
G1 X128.711 Y80.711 E27.78657
G1 X130.104 Y81.031 E27.88926
G1 X132.78 Y81.603 E28.08585
G1 X135.459 Y82.096 E28.28154
G1 X138.17 Y82.517 E28.47864
G1 X140.893 Y82.86 E28.67581
G1 X143.629 Y83.126 E28.8733
G1 X146.345 Y83.315 E29.06889
G1 X149.056 Y83.425 E29.26382
G1 X151.691 Y83.46 E29.45314
G1 X159.265 Y83.46 E29.99727
G1 X159.963 Y83.471 E30.04742
G1 X160.47 Y83.519 E30.08401
G1 X160.962 Y83.646 E30.12051
G1 X161.429 Y83.848 E30.15707
G1 X161.858 Y84.121 E30.1936
G1 X162.24 Y84.457 E30.23015
G1 X162.564 Y84.85 E30.26674
G1 X162.823 Y85.288 E30.30329
G1 X163.01 Y85.761 E30.33983
G1 X163.12 Y86.257 E30.37633
G1 X163.16 Y86.725 E30.41008
G1 X163.161 Y105.69 E31.77256
G1 X163.154 Y107.642 E31.9128
G1 X163.161 Y108.53 E31.97659
G1 X163.161 Y134.604 E33.8498
G1 X163.152 Y135.331 E33.90203
G1 X163.106 Y135.838 E33.93861
G1 X162.981 Y136.331 E33.97514
G1 X162.78 Y136.798 E34.01167
G1 X162.509 Y137.229 E34.04825
G1 X162.173 Y137.611 E34.0848
G1 X161.782 Y137.937 E34.12137
G1 X161.345 Y138.197 E34.1579
G1 X160.873 Y138.385 E34.1944
G1 X160.376 Y138.498 E34.23102
G1 X159.898 Y138.539 E34.26548
G1 X151.694 Y138.54 E34.85487
G1 X148.897 Y138.58 E35.05584
G1 X146.185 Y138.695 E35.25085
G1 X143.436 Y138.89 E35.44884
G1 X140.738 Y139.157 E35.64361
G1 X138.014 Y139.506 E35.84091
G1 X135.281 Y139.935 E36.03966
G1 X132.628 Y140.428 E36.23352
G1 X130.094 Y140.971 E36.4197
G1 X128.849 Y141.256 E36.51145
G1 X128.192 Y141.337 E36.55901
G1 X126.792 Y141.365 E36.65961
G1 X98.233 Y141.365 E38.71134
G1 X97.501 Y141.348 E38.76395
G1 X96.686 Y141.279 E38.82271
G1 X96.015 Y141.185 E38.87138
G1 X93.322 Y140.844 E39.0664
G1 X90.553 Y140.573 E39.26628
G1 X87.843 Y140.386 E39.46143
G1 X85.132 Y140.276 E39.65636
G1 X82.486 Y140.24 E39.84647
G1 X64.708 Y140.24 E41.12367
G1 X63.977 Y140.223 E41.1762
G1 X63.401 Y140.179 E41.2177
G1 X62.543 Y140.018 E41.28042
G1 X61.786 Y139.707 E41.33922
G1 X61.422 Y139.514 E41.36881
G1 X60.704 Y139.031 E41.43098
G1 X59.985 Y138.305 E41.50439
G1 X59.534 Y137.626 E41.56295
G1 X59.345 Y137.271 E41.59184
G1 X59.023 Y136.479 E41.65326
G1 X58.844 Y135.633 E41.71539
G1 X58.81 Y133.951 E41.83625
G1 X58.81 Y87.63 E45.16404
G1 X58.827 Y86.928 E45.21449
G1 X58.871 Y86.351 E45.25606
G1 X59.031 Y85.495 E45.31862
G1 X59.344 Y84.734 E45.37774
G1 X59.538 Y84.369 E45.40743
G1 X60 Y83.677 E45.46721
G1 X60.722 Y82.954 E45.54062
M204 S3000
G1 F5400 E42.54062
;MESH:h3xPad_Case_SAGE3_Base_001.stl
G0 F2400 X62.362 Y84.952
G0 X63.038 Y85.774
G0 X63.232 Y86.182
G0 X69.999 Y93.729
G0 X70.064 Y92.451
G0 X70.156 Y92.028
G0 X70.166 Y92.572
G0 X72.321 Y96.383
G0 X72.333 Y95.832
M204 S2000
;TYPE:WALL-OUTER
G1 F5400 E45.54062
G1 F3000 X70.911 Y95.829 E45.64277
G1 X70.831 Y95.794 E45.64905
G1 X70.728 Y95.636 E45.6626
G1 X70.725 Y92.397 E45.89529
G1 X70.839 Y92.241 E45.90918
G1 X70.944 Y92.206 E45.91713
G1 X72.276 Y92.206 E46.01282
G1 X72.419 Y92.252 E46.02361
G1 X72.516 Y92.446 E46.03919
G1 X72.516 Y93.138 E46.08891
G1 X77.552 Y93.138 E46.4507
G1 X77.552 Y89.37 E46.7214
G1 X72.516 Y89.369 E47.0832
G1 X72.516 Y90.061 E47.13292
G1 X72.419 Y90.255 E47.1485
G1 X72.276 Y90.302 E47.15931
G1 X70.944 Y90.3 E47.25501
G1 X70.839 Y90.266 E47.26293
G1 X70.728 Y90.103 E47.2771
G1 X70.725 Y86.913 E47.50628
G1 X70.773 Y86.768 E47.51725
G1 X70.923 Y86.676 E47.52989
G1 X72.276 Y86.673 E47.62709
G1 X72.428 Y86.726 E47.63866
G1 X72.516 Y86.852 E47.6497
G1 X72.516 Y87.636 E47.70602
G1 X83.877 Y87.636 E48.52222
G1 X83.877 Y86.852 E48.57854
G1 X83.965 Y86.726 E48.58959
G1 X84.075 Y86.676 E48.59827
G1 X85.428 Y86.673 E48.69547
G1 X85.621 Y86.768 E48.71092
G1 X85.668 Y86.913 E48.72187
G1 X85.665 Y90.103 E48.95105
G1 X85.612 Y90.217 E48.96008
G1 X85.428 Y90.302 E48.97464
G1 X84.096 Y90.3 E49.07034
G1 X83.918 Y90.196 E49.08515
G1 X83.877 Y90.061 E49.09528
G1 X83.877 Y89.369 E49.145
G1 X79.324 Y89.369 E49.47209
G1 X79.324 Y93.138 E49.74287
G1 X83.877 Y93.138 E50.06996
G1 X83.877 Y92.446 E50.11968
G1 X83.918 Y92.311 E50.12981
G1 X84.096 Y92.206 E50.14466
G1 X85.428 Y92.206 E50.24035
G1 X85.551 Y92.239 E50.2495
G1 X85.668 Y92.395 E50.26351
G1 X85.664 Y95.643 E50.49685
G1 X85.58 Y95.781 E50.50846
G1 X85.428 Y95.835 E50.52005
G1 X84.117 Y95.834 E50.61423
G1 X83.96 Y95.777 E50.62623
G1 X83.877 Y95.65 E50.63713
G1 X83.877 Y94.871 E50.6931
G1 X72.516 Y94.871 E51.50929
G1 X72.516 Y95.644 E51.56483
G1 X72.472 Y95.735 E51.57209
G1 X72.333 Y95.832 E51.58427
M204 S3000
G0 F2400 X72.133 Y95.832
G0 X72.123 Y96.407
G0 X73.136 Y95.857
G0 X83.197 Y95.544
G0 X83.734 Y96.36
G0 X85.856 Y96.923
G0 X85.856 Y104.107
G0 X85.564 Y104.507
G0 X85.585 Y103.862
M204 S2000
G1 F3000 X85.466 Y103.917 E51.59368
G1 X84.026 Y103.914 E51.69714
G1 X79.651 Y100.433 E52.0988
G1 X79.65 Y101.985 E52.21029
G1 X79.586 Y102.488 E52.24672
G1 X79.485 Y102.841 E52.2731
G1 X79.285 Y103.226 E52.30427
G1 X78.999 Y103.513 E52.33338
G1 F3006.3 X78.544 Y103.713 E52.36901
G1 X78.186 Y103.805 E52.39551
G1 F3000 X77.384 Y103.902 E52.45355
G1 X73.546 Y103.903 E52.72928
G1 F2748.1 X72.402 Y103.947 E52.81906
G1 X71.711 Y103.655 E52.8779
G1 F3000 X71.376 Y103.417 E52.90742
G1 X71.085 Y103.047 E52.94124
G1 X70.901 Y102.656 E52.97228
G1 X70.781 Y102.201 E53.00609
G1 X70.727 Y101.799 E53.03523
G1 X70.73 Y99.151 E53.22546
G1 X70.856 Y98.507 E53.27261
G1 X71.083 Y98.024 E53.31095
G1 X71.511 Y97.55 E53.35683
G1 X71.813 Y97.362 E53.38239
G1 X72.167 Y97.23 E53.40953
G1 X72.547 Y97.159 E53.4373
G1 X73.252 Y97.112 E53.48806
G1 X74.628 Y97.111 E53.58692
G1 X74.746 Y97.141 E53.59566
G1 X74.868 Y97.319 E53.61117
G1 X74.866 Y98.509 E53.69666
G1 X74.774 Y98.659 E53.7093
G1 X74.671 Y98.704 E53.71738
G1 X72.401 Y98.707 E53.88046
G1 X72.401 Y102.185 E54.13032
G1 X77.918 Y102.185 E54.52667
G1 X77.918 Y98.467 E54.79378
G1 X77.961 Y98.328 E54.80424
G1 X78.116 Y98.23 E54.81741
G1 X79.497 Y98.227 E54.91662
G1 X83.877 Y101.753 E55.32058
G1 X83.877 Y98.707 E55.53941
G1 X82.767 Y98.707 E55.61916
G1 X82.586 Y98.626 E55.63341
G1 X82.527 Y98.467 E55.64559
G1 X82.527 Y97.301 E55.72936
G1 X82.574 Y97.208 E55.73684
G1 X82.725 Y97.114 E55.74962
G1 X85.428 Y97.111 E55.94381
G1 X85.58 Y97.164 E55.95537
G1 X85.664 Y97.302 E55.96698
G1 X85.665 Y103.723 E56.42828
G1 X85.585 Y103.862 E56.4398
M204 S3000
G0 F2400 X85.466 Y103.917
G0 X85.397 Y103.917
G0 X85.397 Y104.519
G0 X83.549 Y104.38
G0 X80.379 Y101.863
G0 X79.384 Y104.046
G0 X81.423 Y104.639
G0 X81.029 Y107.289
G0 X79.167 Y108.292
G0 X81.502 Y109.985
G0 X81.173 Y112.296
G0 X78.543 Y112.09
G0 X78.388 Y111.287
G0 X75.955 Y110.003
G0 X73.184 Y111.443
G0 X72.773 Y112.508
G0 X73.199 Y113.248
G0 X83.173 Y113.248
G0 X83.99 Y112.302
G0 X85.802 Y112.673
G0 X86.268 Y113.154
G0 X85.665 Y113.153
M204 S2000
G1 F3000 X85.665 Y118.755 E56.84226
G1 X85.603 Y119.248 E56.87796
G1 X85.503 Y119.603 E56.90445
G1 X85.348 Y119.926 E56.93019
G1 X85.096 Y120.201 E56.95699
G1 X84.603 Y120.418 E56.99568
G1 X83.9 Y120.558 E57.04718
G1 X83.393 Y120.598 E57.08372
G1 X81.284 Y120.603 E57.23523
G1 F2807 X80.443 Y120.481 E57.30048
G1 F2722.1 X79.891 Y120.198 E57.3496
G1 F2903.2 X79.472 Y119.812 E57.39189
G1 F3000 X78.792 Y118.933 E57.47173
G1 X76.209 Y115.654 E57.77161
G1 X72.516 Y115.653 E58.03692
G1 X72.516 Y116.406 E58.09102
G1 X72.461 Y116.56 E58.10277
G1 X72.319 Y116.643 E58.11458
G1 X70.941 Y116.645 E58.21358
G1 X70.779 Y116.559 E58.22676
G1 X70.728 Y116.448 E58.23553
G1 X70.731 Y113.139 E58.47326
G1 X70.793 Y113.028 E58.48239
G1 X70.944 Y112.957 E58.49438
G1 X72.276 Y112.957 E58.59007
G1 X72.451 Y113.031 E58.60372
G1 X72.516 Y113.197 E58.61653
G1 X72.516 Y113.92 E58.66847
G1 X83.857 Y113.92 E59.48323
G1 X83.857 Y113.197 E59.53517
G1 X83.94 Y113.014 E59.54961
G1 X84.068 Y112.958 E59.55965
G1 X85.466 Y112.959 E59.66008
G1 X85.585 Y113.014 E59.6695
G1 X85.665 Y113.153 E59.68102
M204 S3000
G0 F2400 X85.665 Y113.353
G0 X86.268 Y113.354
G0 X85.856 Y112.769
G0 X83.669 Y112.769
G0 X83.173 Y113.248
G0 X73.199 Y113.248
G0 X72.773 Y112.438
G0 X70.537 Y112.176
G0 X70.14 Y111.894
G0 X70.793 Y111.917
M204 S2000
G1 F3000 X70.725 Y111.805 E59.69043
G1 X70.73 Y110.259 E59.8015
G1 X70.812 Y110.119 E59.81316
G1 X74.273 Y108.356 E60.0922
G1 X70.812 Y106.605 E60.37086
G1 X70.728 Y106.455 E60.38321
G1 X70.728 Y104.859 E60.49787
G1 X70.83 Y104.701 E60.51138
G1 X70.916 Y104.661 E60.51819
G1 X71.669 Y104.66 E60.57229
G1 F2758.6 X72.349 Y104.563 E60.62596
G1 X72.517 Y104.901 E60.65545
G1 F3000 X72.516 Y105.613 E60.7066
G1 X75.958 Y107.412 E60.98562
G1 X79.056 Y105.779 E61.23721
G1 X79.056 Y104.958 E61.29619
G1 X79.215 Y104.783 E61.31318
G1 X80.698 Y104.786 E61.41972
G1 X80.847 Y104.945 E61.43537
G1 X80.842 Y106.544 E61.55025
G1 X80.768 Y106.678 E61.56125
G1 X77.657 Y108.346 E61.81484
G1 X80.765 Y109.904 E62.06461
G1 X80.846 Y110.03 E62.07537
G1 X80.848 Y111.655 E62.19212
G1 X80.759 Y111.782 E62.20326
G1 X80.649 Y111.832 E62.21194
G1 X79.296 Y111.835 E62.30914
G1 X79.175 Y111.803 E62.31813
G1 X79.061 Y111.646 E62.33207
G1 X79.056 Y110.885 E62.38675
G1 X75.958 Y109.253 E62.63831
G1 X72.517 Y111.038 E62.9168
G1 X72.512 Y111.795 E62.97118
G1 X72.451 Y111.914 E62.98079
G1 X72.276 Y111.989 E62.99447
G1 X70.944 Y111.988 E63.09016
G1 X70.793 Y111.917 E63.10215
M204 S3000
G0 F2400 X70.725 Y111.805
G0 X70.725 Y111.736
G0 X70.125 Y111.736
G0 X70.441 Y112.507
G0 X70.537 Y116.834
G0 X72.965 Y116.989
G0 X73.211 Y116.321
G0 X75.886 Y116.319
G0 X79.028 Y120.329
G0 X77.339 Y120.964
G0 X77.302 Y122.807
G0 X74.389 Y120.052
G0 X71.515 Y120.569
G0 X71.096 Y120.746
G0 X70.81 Y121.049
G0 X70.584 Y121.639
G0 X70.526 Y122.128
G0 X70.537 Y127.915
G0 X72.704 Y127.915
G0 X73.176 Y127.724
G0 X72.318 Y127.724
M204 S2000
G1 F3000 X70.922 Y127.724 E63.20244
G1 X70.795 Y127.657 E63.21275
G1 X70.725 Y127.54 E63.22255
G1 X70.726 Y122.126 E63.6115
G1 X70.789 Y121.656 E63.64557
G1 X70.975 Y121.176 E63.68255
G1 X71.21 Y120.92 E63.70752
G1 X71.598 Y120.755 E63.73781
G1 X72.164 Y120.638 E63.77933
G1 X73.517 Y120.632 E63.87653
G1 X74.251 Y120.707 E63.92954
G1 X74.557 Y120.875 E63.95462
G1 X74.932 Y121.202 E63.99036
G1 X75.287 Y121.597 E64.02852
G1 X77.986 Y125.03 E64.34225
G1 X79.056 Y125.03 E64.41912
G1 X79.056 Y122.515 E64.5998
G1 X78.153 Y122.514 E64.66467
G1 X78.016 Y122.454 E64.67542
G1 X77.937 Y122.275 E64.68947
G1 X77.937 Y121.232 E64.7644
G1 X78.007 Y121.126 E64.77353
G1 X78.124 Y121.057 E64.78329
G1 X79.744 Y121.056 E64.89967
G1 F2807 X80.394 Y121.023 E64.94964
G1 F2691.6 X80.655 Y121.039 E64.97058
G1 F2868.5 X80.847 Y121.215 E64.99015
G1 F3000 X80.845 Y125.194 E65.27601
G1 X80.79 Y125.598 E65.3053
G1 X80.553 Y126.166 E65.34952
G1 X80.32 Y126.412 E65.37386
G1 X79.692 Y126.678 E65.42286
G1 X79.159 Y126.758 E65.46158
G1 X72.516 Y126.764 E65.93882
G1 X72.513 Y127.53 E65.99386
G1 X72.318 Y127.724 E66.01362
M204 S3000
G0 F2400 X72.118 Y127.724
G0 X73.176 Y127.724
G0 X70.918 Y128.739
G0 X70.574 Y129.062
G0 X70.376 Y129.478
G0 X70.43 Y130.342
G0 X70.707 Y130.916
G0 X72.318 Y132.908
G0 X70.537 Y132.897
G0 X70.537 Y135.969
G0 X72.724 Y135.969
G0 X73.114 Y135.69
G0 X72.338 Y135.778
M204 S2000
G1 F3000 X70.965 Y135.781 E66.11226
G1 X70.772 Y135.686 E66.12771
G1 X70.725 Y135.541 E66.13866
G1 X70.729 Y133.281 E66.30102
G1 X70.79 Y133.159 E66.31082
G1 X70.965 Y133.085 E66.32447
G1 X72.682 Y133.084 E66.44783
G1 X70.863 Y130.785 E66.65844
G1 X70.631 Y130.299 E66.69713
G1 X70.537 Y129.819 E66.73227
G1 X70.572 Y129.533 E66.75297
G1 X70.731 Y129.195 E66.7798
G1 X71.068 Y128.888 E66.81255
G1 X71.442 Y128.722 E66.84195
G1 X71.85 Y128.625 E66.87208
G1 X78.965 Y128.626 E67.38323
G1 X79.738 Y128.716 E67.43914
G1 X80.131 Y128.868 E67.46941
G1 X80.405 Y129.099 E67.49516
G1 X80.593 Y129.349 E67.51763
G1 X80.787 Y129.786 E67.55198
G1 X80.846 Y130.211 E67.58281
G1 X80.848 Y133.084 E67.78921
G1 X83.877 Y133.085 E68.00682
G1 X83.877 Y132.233 E68.06803
G1 X84.001 Y132.105 E68.08083
G1 X84.091 Y132.077 E68.0876
G1 X85.453 Y132.077 E68.18545
G1 X85.613 Y132.162 E68.19847
G1 X85.665 Y132.272 E68.20721
G1 X85.668 Y134.648 E68.3779
G1 X85.572 Y134.771 E68.38911
G1 X85.47 Y134.815 E68.39709
G1 X72.536 Y134.818 E69.3263
G1 X72.531 Y135.591 E69.38183
G1 X72.338 Y135.778 E69.40114
M204 S3000
G0 F2400 X72.138 Y135.778
G0 X73.114 Y135.69
G0 X72.859 Y136.029
G0 X92.008 Y136.161
G0 X92.042 Y136.76
M204 S2000
G1 F3000 X92.389 Y136.726 E69.42619
G1 X92.72 Y136.625 E69.45105
G1 X93.03 Y136.459 E69.47631
G1 X93.293 Y136.243 E69.50076
G1 X93.509 Y135.98 E69.52521
