;FLAVOR:Marlin
;TIME:651
;Filament used: 1.15062m
;Layer height: 0.2
;MINX:90.155
;MINY:80.155
;MINZ:0.3
;MAXX:131.845
;MAXY:141.845
;MAXZ:3.5
;TARGET_MACHINE.NAME:Unknown
;Generated with Cura_SteamEngine 5.6.0
M140 S63
M105
M190 S63
M104 S177
M105
M109 S177
M82 ;absolute extrusion mode
G28 ;Home
G1 Z15.0 F6000 ;Move the platform down 15mm
;Prime the extruder
G92 E0
G1 F200 E3
G92 E0
G92 E0
G92 E0
G1 F5400 E-3
;LAYER_COUNT:17
;LAYER:0
M107
M204 S3000
M205 X20 Y20
G0 F2400 X91.665 Y82.03 Z0.3
M204 S2000
;TYPE:SKIRT
G1 F5400 E0
G1 F3000 X92.273 Y81.431 E0.06132
G1 X93.195 Y80.819 E0.14082
G1 X94.239 Y80.392 E0.22185
G1 X95.256 Y80.188 E0.29637
G1 X96.898 Y80.155 E0.41436
G1 X125.478 Y80.155 E2.4676
G1 X126.235 Y80.173 E2.522
G1 X126.863 Y80.224 E2.56727
G1 X127.767 Y80.394 E2.63335
G1 X128.614 Y80.744 E2.69919
G1 X129.019 Y80.961 E2.7322
G1 X129.749 Y81.447 E2.7952
G1 X130.544 Y82.241 E2.87592
G1 X131.065 Y83.023 E2.94343
G1 X131.253 Y83.376 E2.97216
G1 X131.614 Y84.257 E3.04056
G1 X131.81 Y85.186 E3.10877
G1 X131.845 Y86.878 E3.23036
G1 X131.845 Y135.478 E6.72187
G1 X131.827 Y136.235 E6.77627
G1 X131.776 Y136.863 E6.82154
G1 X131.601 Y137.784 E6.88889
G1 X131.17 Y138.823 E6.9697
G1 X130.649 Y139.598 E7.03679
G1 X130.362 Y139.942 E7.06897
G1 X129.737 Y140.562 E7.13222
G1 X128.809 Y141.178 E7.21224
G1 X127.746 Y141.614 E7.29478
G1 X126.814 Y141.81 E7.3632
G1 X125.102 Y141.845 E7.48622
G1 X96.522 Y141.845 E9.53946
G1 X95.765 Y141.827 E9.59386
G1 X95.137 Y141.776 E9.63913
G1 X94.233 Y141.606 E9.70521
G1 X93.386 Y141.256 E9.77105
G1 X92.979 Y141.037 E9.80426
G1 X92.222 Y140.529 E9.86975
G1 X91.434 Y139.731 E9.95032
G1 X90.935 Y138.977 E10.01528
G1 X90.725 Y138.577 E10.04774
G1 X90.385 Y137.743 E10.11244
G1 X90.19 Y136.808 E10.18106
G1 X90.155 Y135.1 E10.30379
G1 X90.155 Y86.522 E13.79372
G1 X90.173 Y85.767 E13.84798
G1 X90.224 Y85.138 E13.89332
G1 X90.393 Y84.233 E13.95946
G1 X90.725 Y83.426 E14.02215
G1 X90.965 Y82.976 E14.05879
G1 X91.37 Y82.38 E14.11056
G1 X91.665 Y82.03 E14.14344
M204 S3000
G0 F2400 X92.002 Y82.372
M204 S2000
G1 F3000 X92.578 Y81.804 E14.20156
G1 X93.421 Y81.245 E14.27423
G1 X94.375 Y80.855 E14.34827
G1 X95.311 Y80.667 E14.41686
G1 X96.908 Y80.635 E14.53161
G1 X125.467 Y80.635 E16.58334
G1 X126.198 Y80.652 E16.63587
G1 X126.774 Y80.696 E16.67738
G1 X127.632 Y80.857 E16.74009
G1 X128.389 Y81.168 E16.79889
G1 X128.753 Y81.361 E16.82849
G1 X129.444 Y81.821 E16.88812
G1 X130.171 Y82.547 E16.96193
G1 X130.641 Y83.249 E17.02263
G1 X130.829 Y83.602 E17.05136
G1 X131.152 Y84.394 E17.11281
G1 X131.331 Y85.242 E17.17507
G1 X131.365 Y86.888 E17.29335
G1 X131.365 Y135.467 E20.78336
G1 X131.348 Y136.198 E20.83589
G1 X131.304 Y136.774 E20.87739
G1 X131.138 Y137.649 E20.94137
G1 X130.746 Y138.593 E21.01481
G1 X130.279 Y139.292 E21.0752
G1 X130.024 Y139.601 E21.10398
G1 X129.433 Y140.187 E21.16377
G1 X128.581 Y140.753 E21.23726
G1 X127.607 Y141.152 E21.31288
G1 X126.758 Y141.331 E21.37521
G1 X125.092 Y141.365 E21.49492
G1 X96.533 Y141.365 E23.54666
G1 X95.802 Y141.348 E23.59919
G1 X95.226 Y141.304 E23.64069
G1 X94.368 Y141.143 E23.7034
G1 X93.611 Y140.832 E23.7622
G1 X93.247 Y140.639 E23.7918
G1 X92.531 Y140.158 E23.85377
G1 X91.809 Y139.428 E23.92753
G1 X91.359 Y138.751 E23.98593
G1 X91.17 Y138.396 E24.01482
G1 X90.846 Y137.601 E24.0765
G1 X90.669 Y136.754 E24.13866
G1 X90.635 Y135.09 E24.25823
G1 X90.635 Y86.533 E27.74666
G1 X90.652 Y85.803 E27.79912
G1 X90.696 Y85.226 E27.84069
G1 X90.856 Y84.37 E27.90325
G1 X91.169 Y83.609 E27.96237
G1 X91.363 Y83.244 E27.99207
G1 X91.738 Y82.688 E28.04025
G1 X92.002 Y82.372 E28.06983
M204 S3000
G1 F5400 E25.06983
;MESH:h3xPad_Case_1_Lid.stl
G0 F2400 X100.451 Y103.318
G0 X100.529 Y118.373
G0 X100.578 Y118.887
G0 X100.741 Y119.421
G0 X101.004 Y119.913
G0 X101.358 Y120.343
G0 X101.788 Y120.697
G0 X102.878 Y121.128
G0 X102.935 Y120.532
M204 S2000
;TYPE:WALL-OUTER
G1 F5400 E28.06983
G1 F3000 X102.511 Y120.403 E28.10167
G1 X102.145 Y120.21 E28.13139
G1 X101.77 Y119.9 E28.16635
G1 X101.491 Y119.556 E28.19817
G1 X101.308 Y119.211 E28.22622
G1 X101.168 Y118.761 E28.26008
G1 X101.129 Y118.362 E28.28888
G1 X101.129 Y103.383 E29.365
G1 X101.175 Y102.955 E29.39593
G1 X101.308 Y102.534 E29.42765
G1 X101.519 Y102.148 E29.45925
G1 X101.802 Y101.813 E29.49076
G1 X102.107 Y101.561 E29.51918
G1 X102.487 Y101.354 E29.55027
G1 X102.935 Y101.213 E29.58401
G1 X103.344 Y101.172 E29.61354
G1 X118.511 Y101.173 E30.70316
G1 X118.908 Y101.213 E30.73183
G1 X119.356 Y101.354 E30.76557
G1 X119.736 Y101.561 E30.79666
G1 X120.074 Y101.846 E30.82842
G1 X120.353 Y102.191 E30.8603
G1 X120.533 Y102.531 E30.88794
G1 X120.668 Y102.955 E30.9199
G1 X120.714 Y103.384 E30.9509
G1 X120.714 Y118.361 E32.02688
G1 X120.675 Y118.761 E32.05575
G1 X120.533 Y119.214 E32.08986
G1 X120.326 Y119.594 E32.12094
G1 X120.042 Y119.931 E32.1526
G1 X119.698 Y120.21 E32.18443
G1 X119.332 Y120.403 E32.21415
G1 X118.907 Y120.532 E32.24606
G1 X118.5 Y120.573 E32.27545
G1 X103.339 Y120.572 E33.36464
G1 X102.935 Y120.532 E33.39381
M204 S3000
G0 F2400 X102.744 Y120.474
G1 F5400 E30.39381
G0 F2400 X102.57 Y121.046
G0 X103.184 Y121.148
G0 X118.557 Y121.251
G0 X118.557 Y137.185
G0 X126.093 Y137.284
G0 X126.117 Y137.885
M204 S2000
G1 F5400 E33.39381
G1 F3000 X126.464 Y137.851 E33.41886
G1 X126.795 Y137.75 E33.44372
G1 X127.105 Y137.584 E33.46898
G1 X127.368 Y137.368 E33.49343
G1 X127.584 Y137.105 E33.51788
G1 X127.75 Y136.795 E33.54314
G1 X127.851 Y136.464 E33.56801
G1 X127.885 Y136.117 E33.59306
G1 X127.885 Y85.883 E37.20196
G1 X127.851 Y85.536 E37.22701
G1 X127.75 Y85.205 E37.25187
G1 X127.584 Y84.895 E37.27713
G1 X127.368 Y84.632 E37.30158
G1 X127.105 Y84.416 E37.32603
G1 X126.795 Y84.25 E37.3513
G1 X126.464 Y84.149 E37.37616
G1 X126.117 Y84.115 E37.40121
G1 X95.883 Y84.115 E39.57328
G1 X95.536 Y84.149 E39.59832
G1 X95.205 Y84.25 E39.62319
G1 X94.895 Y84.416 E39.64845
G1 X94.632 Y84.632 E39.6729
G1 X94.416 Y84.895 E39.69735
G1 X94.25 Y85.205 E39.72261
G1 X94.149 Y85.536 E39.74747
G1 X94.115 Y85.883 E39.77252
G1 X94.115 Y136.117 E43.38143
G1 X94.149 Y136.464 E43.40648
G1 X94.25 Y136.795 E43.43134
G1 X94.416 Y137.105 E43.4566
G1 X94.632 Y137.368 E43.48105
G1 X94.895 Y137.584 E43.5055
G1 X95.205 Y137.75 E43.53077
G1 X95.536 Y137.851 E43.55563
G1 X95.883 Y137.885 E43.58068
G1 X126.117 Y137.885 E45.75274
M204 S3000
G0 F2400 X126.316 Y137.866
G0 X126.094 Y137.405
M204 S2000
;TYPE:WALL-INNER
G1 F3000 X126.37 Y137.378 E45.77267
G1 X126.61 Y137.305 E45.79069
G1 X127.027 Y137.027 E45.82669
G1 X127.304 Y136.61 E45.86266
G1 X127.378 Y136.37 E45.8807
G1 X127.405 Y136.094 E45.90063
G1 X127.405 Y85.906 E49.50623
G1 X127.378 Y85.63 E49.52615
G1 X127.305 Y85.39 E49.54417
G1 X127.027 Y84.973 E49.58018
G1 X126.61 Y84.696 E49.61614
G1 X126.37 Y84.622 E49.63418
G1 X126.094 Y84.595 E49.65411
G1 X95.906 Y84.595 E51.82287
G1 X95.63 Y84.622 E51.84279
G1 X95.39 Y84.695 E51.86082
G1 X94.973 Y84.973 E51.89682
G1 X94.696 Y85.39 E51.93279
G1 X94.622 Y85.63 E51.95083
G1 X94.595 Y85.906 E51.97075
G1 X94.595 Y136.094 E55.57635
G1 X94.622 Y136.37 E55.59628
G1 X94.695 Y136.61 E55.6143
G1 X94.973 Y137.027 E55.6503
G1 X95.39 Y137.304 E55.68627
G1 X95.63 Y137.378 E55.70431
G1 X95.906 Y137.405 E55.72423
G1 X126.094 Y137.405 E57.893
M204 S3000
G1 F5400 E54.893
G0 F2400 X126.093 Y137.284
G0 X119.009 Y137.185
G0 X118.557 Y121.251
G0 X119.009 Y121.122
G0 X118.999 Y121.003
M204 S2000
G1 F5400 E57.893
G1 F3000 X118.54 Y121.051 E57.92615
G1 X103.315 Y121.052 E59.01995
G1 X102.843 Y121.003 E59.05404
G1 X102.329 Y120.847 E59.09263
G1 X101.798 Y120.552 E59.13627
G1 X101.4 Y120.206 E59.17415
G1 X101.067 Y119.781 E59.21294
G1 X100.832 Y119.309 E59.25082
G1 X100.695 Y118.844 E59.28565
G1 X100.651 Y118.408 E59.31713
G1 X100.651 Y103.337 E60.39986
G1 X100.716 Y102.815 E60.43765
G1 X100.884 Y102.309 E60.47595
G1 X101.149 Y101.842 E60.51453
G1 X101.496 Y101.443 E60.55252
G1 X101.923 Y101.11 E60.59142
G1 X102.387 Y100.878 E60.62869
G1 X102.843 Y100.742 E60.66288
G1 X103.306 Y100.694 E60.69632
G1 X118.557 Y100.695 E61.79198
G1 X119 Y100.742 E61.82398
G1 X119.518 Y100.901 E61.86291
G1 X120.042 Y101.191 E61.90594
G1 X120.444 Y101.54 E61.94418
G1 X120.777 Y101.967 E61.98308
G1 X121.009 Y102.431 E62.02035
G1 X121.155 Y102.956 E62.0595
G1 X121.192 Y103.338 E62.08707
G1 X121.192 Y118.407 E63.16966
G1 X121.148 Y118.844 E63.20121
G1 X121.009 Y119.314 E63.23642
G1 X120.743 Y119.846 E63.27915
G1 X120.348 Y120.301 E63.32244
G1 X119.923 Y120.634 E63.36123
G1 X119.514 Y120.847 E63.39436
G1 X118.999 Y121.003 E63.43302
M204 S3000
G0 F2400 X119.088 Y121.455
M204 S2000
;TYPE:SKIN
G1 F3000 X118.58 Y121.51 E63.46973
G1 X103.244 Y121.508 E64.5715
G1 X102.755 Y121.455 E64.60683
G1 X102.127 Y121.261 E64.65405
G1 X101.497 Y120.9 E64.70622
G1 X101.07 Y120.526 E64.747
G1 X100.68 Y120.03 E64.79233
G1 X100.392 Y119.444 E64.83923
G1 X100.241 Y118.921 E64.87834
G1 X100.192 Y118.434 E64.91351
G1 X100.193 Y103.283 E66.00198
G1 X100.277 Y102.669 E66.0465
G1 X100.482 Y102.083 E66.09111
G1 X100.796 Y101.545 E66.13586
G1 X101.175 Y101.114 E66.17709
G1 X101.714 Y100.698 E66.22601
G1 X102.219 Y100.451 E66.26639
G1 X102.752 Y100.289 E66.30641
G1 X103.265 Y100.235 E66.34347
G1 X118.605 Y100.237 E67.44553
G1 X119.088 Y100.29 E67.48044
G1 X119.676 Y100.469 E67.52459
G1 X120.342 Y100.84 E67.57936
G1 X120.804 Y101.253 E67.62388
G1 X121.188 Y101.757 E67.6694
G1 X121.451 Y102.298 E67.71262
G1 X121.566 Y102.673 E67.7408
G1 X121.65 Y103.281 E67.78489
G1 X121.65 Y118.456 E68.87509
G1 X121.602 Y118.921 E68.90868
G1 X121.434 Y119.483 E68.95082
G1 X121.129 Y120.105 E69.00059
G1 X120.639 Y120.66 E69.05377
G1 X120.171 Y121.021 E69.09624
G1 X119.709 Y121.263 E69.1337
G1 X119.088 Y121.455 E69.1804
M204 S3000
G1 F5400 E66.1804
G0 F2400 X119.024 Y121.12
G0 X119.589 Y121.033
G0 X119.589 Y137.185
G0 X126.062 Y137.285
G0 X126.062 Y136.945
M204 S2000
G1 F5400 E69.1804
G1 F3000 X126.432 Y136.874 E69.20747
G1 X126.696 Y136.696 E69.23034
G1 X126.874 Y136.432 E69.25322
G1 X126.945 Y136.062 E69.28028
G1 X126.945 Y85.938 E72.88129
G1 X126.874 Y85.566 E72.9085
G1 X126.698 Y85.302 E72.93129
G1 X126.434 Y85.126 E72.95408
G1 X126.062 Y85.055 E72.98129
G1 X95.938 Y85.055 E75.14546
G1 X95.566 Y85.126 E75.17266
G1 X95.302 Y85.302 E75.19546
G1 X95.126 Y85.566 E75.21825
G1 X95.055 Y85.938 E75.24546
G1 X95.055 Y136.062 E78.84646
G1 X95.126 Y136.432 E78.87353
G1 X95.304 Y136.696 E78.89641
G1 X95.568 Y136.874 E78.91928
G1 X95.938 Y136.945 E78.94635
G1 X126.062 Y136.945 E81.11051
M204 S3000
G0 F2400 X126.062 Y137.285
G0 X126.541 Y137.138
G0 X126.898 Y136.898
G0 X127.138 Y136.541
G0 X127.285 Y85.984
G0 X126.463 Y85.984
M204 S2000
G1 F3000 X126.42 Y85.751 E81.12753
G1 X126.247 Y85.579 E81.14506
G1 X126.014 Y85.535 E81.16209
G1 X125.585 Y85.535 E81.19291
M204 S3000
G0 F2400 X125.585 Y84.715
G0 X126.541 Y84.862
G0 X126.899 Y85.101
G0 X127.285 Y86.414
G0 X126.464 Y86.414
M204 S2000
G1 F3000 X125.585 Y85.535 E81.28222
G1 X124.906 Y85.535 E81.331
G1 X126.464 Y87.092 E81.48924
G1 X126.464 Y87.771 E81.53802
G1 X124.228 Y85.535 E81.7652
G1 X123.549 Y85.535 E81.81398
G1 X126.464 Y88.45 E82.11015
G1 X126.464 Y89.129 E82.15893
G1 X122.87 Y85.535 E82.52408
G1 X122.191 Y85.535 E82.57286
G1 X126.464 Y89.808 E83.00699
G1 X126.464 Y90.487 E83.05577
G1 X121.512 Y85.535 E83.55889
G1 X120.833 Y85.535 E83.60768
G1 X126.464 Y91.165 E84.17973
G1 X126.464 Y91.844 E84.22851
G1 X120.155 Y85.535 E84.86951
G1 X119.476 Y85.535 E84.91829
G1 X126.464 Y92.523 E85.62827
G1 X126.464 Y93.202 E85.67705
G1 X118.797 Y85.535 E86.45601
G1 X118.118 Y85.535 E86.50479
G1 X126.464 Y93.881 E87.35274
G1 X126.464 Y94.559 E87.40145
G1 X117.439 Y85.535 E88.31834
G1 X116.761 Y85.535 E88.36705
G1 X126.464 Y95.238 E89.35287
G1 X126.464 Y95.917 E89.40165
G1 X116.082 Y85.535 E90.45646
G1 X115.403 Y85.535 E90.50524
G1 X126.464 Y96.596 E91.62904
G1 X126.464 Y97.275 E91.67782
G1 X114.724 Y85.535 E92.8706
G1 X114.045 Y85.535 E92.91938
G1 X126.464 Y97.954 E94.18115
G1 X126.464 Y98.632 E94.22986
G1 X113.366 Y85.535 E95.56056
G1 X112.688 Y85.535 E95.60927
G1 X126.464 Y99.311 E97.00891
G1 X126.464 Y99.99 E97.05769
G1 X112.009 Y85.535 E98.52631
G1 X111.33 Y85.535 E98.57509
G1 X126.464 Y100.669 E100.1127
G1 X126.464 Y101.348 E100.16148
G1 X110.651 Y85.535 E101.76808
G1 X109.972 Y85.535 E101.81686
G1 X126.464 Y102.027 E103.49245
G1 X126.464 Y102.705 E103.54116
G1 X109.293 Y85.535 E105.28567
G1 X108.615 Y85.535 E105.33438
G1 X126.464 Y103.384 E107.14784
G1 X126.464 Y104.063 E107.19662
G1 X107.936 Y85.535 E109.07906
G1 X107.257 Y85.535 E109.12784
G1 X126.464 Y104.742 E111.07927
G1 X126.464 Y105.421 E111.12805
G1 X106.578 Y85.535 E113.14846
G1 X105.899 Y85.535 E113.19724
G1 X126.464 Y106.099 E115.28659
G1 X126.464 Y106.778 E115.33537
M204 S3000
G1 F5400 E112.33537
G0 F2400 X127.285 Y106.778
G0 X127.185 Y100.79
G0 X120.172 Y101.038
G0 X119.564 Y100.79
G0 X119.887 Y100.031
M204 S2000
G1 F5400 E115.33537
G1 F3000 X120.599 Y100.428 E115.39394
G1 X121.144 Y100.908 E115.44611
G1 X121.584 Y101.479 E115.4979
G1 X121.874 Y102.066 E115.54494
G1 X121.931 Y102.245 E115.55843
M204 S3000
G1 F5400 E112.55843
G0 F2400 X121.151 Y102.484
G0 X121.391 Y106.778
G0 X127.185 Y106.778
G0 X126.464 Y106.778
M204 S2000
G1 F5400 E115.55843
G1 F3000 X121.931 Y102.245 E116.01898
M204 S3000
G0 F2400 X121.151 Y102.485
G0 X120.84 Y101.833
G0 X120.485 Y101.402
G0 X120.136 Y101.114
G0 X119.402 Y100.74
G0 X119.643 Y99.957
M204 S2000
G1 F3000 X105.221 Y85.535 E117.48425
G1 X104.542 Y85.535 E117.53304
G1 X118.779 Y99.772 E118.97951
G1 X118.644 Y99.757 E118.98927
G1 X118.085 Y99.757 E119.02943
G1 X103.863 Y85.535 E120.47438
G1 X103.184 Y85.535 E120.52316
G1 X117.406 Y99.757 E121.96811
G1 X116.727 Y99.757 E122.01689
G1 X102.505 Y85.535 E123.46185
G1 X101.826 Y85.535 E123.51063
G1 X116.048 Y99.757 E124.95558
G1 X115.37 Y99.757 E125.00429
G1 X101.148 Y85.535 E126.44924
G1 X100.469 Y85.535 E126.49802
G1 X114.691 Y99.757 E127.94297
G1 X114.012 Y99.757 E127.99175
G1 X99.79 Y85.535 E129.43671
G1 X99.111 Y85.535 E129.48549
G1 X113.332 Y99.756 E130.93034
G1 X112.654 Y99.756 E130.97905
G1 X98.432 Y85.535 E132.42395
G1 X97.753 Y85.535 E132.47273
G1 X111.975 Y99.756 E133.91763
G1 X111.296 Y99.756 E133.96641
G1 X97.075 Y85.535 E135.41126
G1 X96.396 Y85.535 E135.46004
G1 X110.617 Y99.756 E136.90489
G1 X109.938 Y99.756 E136.95367
G1 X95.759 Y85.577 E138.39425
G1 X95.578 Y85.752 E138.41234
G1 X95.534 Y86.03 E138.43256
G1 X109.26 Y99.756 E139.82712
G1 X108.581 Y99.756 E139.8759
G1 X95.534 Y86.709 E141.20147
G1 X95.534 Y87.388 E141.25025
G1 X107.901 Y99.755 E142.50674
G1 X107.222 Y99.755 E142.55552
G1 X95.534 Y88.067 E143.74302
G1 X95.534 Y88.746 E143.7918
G1 X106.544 Y99.755 E144.91036
G1 X105.865 Y99.755 E144.95914
G1 X95.534 Y89.424 E146.00877
G1 X95.534 Y90.103 E146.05755
G1 X105.186 Y99.755 E147.03819
G1 X104.507 Y99.755 E147.08697
G1 X95.534 Y90.782 E147.99863
G1 X95.534 Y91.461 E148.04741
G1 X103.828 Y99.755 E148.89008
G1 X103.231 Y99.755 E148.93297
G1 X103.157 Y99.763 E148.93831
G1 X95.534 Y92.14 E149.71281
G1 X95.534 Y92.819 E149.76159
G1 X102.561 Y99.846 E150.47553
G1 X102.041 Y100.005 E150.5146
G1 X95.534 Y93.497 E151.17576
G1 X95.534 Y94.176 E151.22454
G1 X101.583 Y100.226 E151.83916
G1 X101.177 Y100.498 E151.87427
G1 X95.534 Y94.855 E152.4476
G1 X95.534 Y95.534 E152.49638
G1 X100.806 Y100.806 E153.03202
G1 X100.489 Y101.167 E153.06653
G1 X95.534 Y96.213 E153.56991
G1 X95.534 Y96.892 E153.61869
G1 X100.218 Y101.576 E154.09458
G1 X99.989 Y102.026 E154.13085
G1 X95.534 Y97.57 E154.58353
G1 X95.534 Y98.249 E154.63231
G1 X99.816 Y102.531 E155.06736
G1 X99.798 Y102.58 E155.07111
G1 X99.729 Y103.123 E155.11044
G1 X95.534 Y98.928 E155.53665
G1 X95.534 Y99.607 E155.58543
G1 X99.714 Y103.787 E156.01012
G1 X99.714 Y104.466 E156.0589
G1 X95.534 Y100.286 E156.48358
G1 X95.534 Y100.964 E156.53229
G1 X99.714 Y105.145 E156.95703
G1 X99.714 Y105.824 E157.00581
G1 X95.534 Y101.643 E157.43055
G1 X95.534 Y102.322 E157.47933
G1 X99.714 Y106.503 E157.90407
G1 X99.714 Y107.181 E157.95278
G1 X95.534 Y103.001 E158.37746
G1 X95.534 Y103.68 E158.42624
G1 X99.714 Y107.86 E158.85093
