;FLAVOR:Marlin
;TIME:423
;Filament used: 0.795899m
;Layer height: 0.2
;MINX:82.98
;MINY:93.01
;MINZ:0.3
;MAXX:139.02
;MAXY:128.992
;MAXZ:1.5
;TARGET_MACHINE.NAME:Unknown
;Generated with Cura_SteamEngine 5.6.0
M140 S63
M105
M190 S63
M104 S177
M105
M109 S177
M82 ;absolute extrusion mode
G28 ;Home
G1 Z15.0 F6000 ;Move the platform down 15mm
;Prime the extruder
G92 E0
G1 F200 E3
G92 E0
G92 E0
G92 E0
G1 F5400 E-3
;LAYER_COUNT:7
;LAYER:0
M107
M204 S3000
M205 X20 Y20
G0 F2400 X84.149 Y94.043 Z0.3
M204 S2000
;TYPE:SKIRT
G1 F5400 E0
G1 F3000 X84.541 Y93.718 E0.03658
G1 X85.041 Y93.416 E0.07855
G1 X85.653 Y93.174 E0.12583
G1 X86.213 Y93.053 E0.16699
G1 X86.725 Y93.011 E0.20389
G1 X111.553 Y93.01 E1.98758
G1 X113.476 Y93.017 E2.12574
G1 X114.387 Y93.01 E2.19119
G1 X134.646 Y93.01 E3.64663
G1 X135.382 Y93.022 E3.69951
G1 X135.889 Y93.07 E3.7361
G1 X136.528 Y93.232 E3.78346
G1 X136.995 Y93.434 E3.82001
G1 X137.491 Y93.741 E3.86192
G1 X137.986 Y94.177 E3.90931
G1 X138.353 Y94.63 E3.9512
G1 X138.613 Y95.068 E3.98779
G1 X138.833 Y95.608 E4.02968
G1 X138.976 Y96.24 E4.07623
G1 X139.019 Y96.752 E4.11314
G1 X139.02 Y124.582 E6.1125
G1 X139.009 Y125.346 E6.1674
G1 X138.95 Y125.928 E6.20942
G1 X138.801 Y126.493 E6.2514
G1 X138.6 Y126.96 E6.28793
G1 X138.294 Y127.457 E6.32986
G1 X137.859 Y127.952 E6.3772
G1 X137.406 Y128.322 E6.41922
G1 X136.902 Y128.615 E6.4611
G1 X136.43 Y128.803 E6.4976
G1 X135.796 Y128.948 E6.54433
G1 X135.277 Y128.991 E6.58174
G1 X89.285 Y128.992 E9.88589
G1 X88.537 Y128.98 E9.93964
G1 X87.956 Y128.92 E9.9816
G1 X87.391 Y128.77 E10.0236
G1 X86.924 Y128.568 E10.06015
G1 X86.428 Y128.261 E10.10206
G1 X85.958 Y127.852 E10.14682
G1 X84.467 Y126.283 E10.30232
G1 X83.946 Y125.713 E10.35779
G1 X83.59 Y125.25 E10.39975
G1 X83.343 Y124.805 E10.43632
G1 X83.118 Y124.187 E10.48357
G1 X82.996 Y123.566 E10.52903
G1 X82.98 Y122.704 E10.59097
G1 X82.98 Y97.347 E12.41267
G1 X82.992 Y96.645 E12.46311
G1 X83.053 Y96.065 E12.505
G1 X83.203 Y95.5 E12.547
G1 X83.405 Y95.033 E12.58356
G1 X83.759 Y94.477 E12.63091
G1 X84.149 Y94.043 E12.67283
M204 S3000
G0 F2400 X84.455 Y94.413
M204 S2000
G1 F3000 X84.847 Y94.088 E12.70941
G1 X85.285 Y93.829 E12.74597
G1 X85.758 Y93.642 E12.78251
G1 X86.254 Y93.531 E12.81902
G1 X86.725 Y93.491 E12.85298
G1 X111.551 Y93.49 E14.63653
G1 X113.478 Y93.497 E14.77497
G1 X114.391 Y93.49 E14.84056
G1 X134.639 Y93.49 E16.29522
G1 X135.337 Y93.5 E16.34537
G1 X135.844 Y93.548 E16.38195
G1 X136.337 Y93.673 E16.41849
G1 X136.804 Y93.875 E16.45505
G1 X137.234 Y94.147 E16.4916
G1 X137.616 Y94.483 E16.52815
G1 X137.94 Y94.875 E16.56469
G1 X138.2 Y95.313 E16.60128
G1 X138.387 Y95.785 E16.63775
G1 X138.498 Y96.282 E16.67434
G1 X138.539 Y96.752 E16.70823
G1 X138.54 Y124.576 E18.70716
G1 X138.531 Y125.303 E18.75939
G1 X138.485 Y125.81 E18.79597
G1 X138.36 Y126.303 E18.83251
G1 X138.159 Y126.77 E18.86903
G1 X137.888 Y127.201 E18.90561
G1 X137.552 Y127.583 E18.94216
G1 X137.161 Y127.909 E18.97873
G1 X136.724 Y128.169 E19.01526
G1 X136.252 Y128.357 E19.05176
G1 X135.755 Y128.47 E19.08838
G1 X135.277 Y128.511 E19.12284
G1 X89.292 Y128.512 E22.42649
G1 X88.581 Y128.502 E22.47758
G1 X88.075 Y128.455 E22.51409
G1 X87.582 Y128.329 E22.55064
G1 X87.115 Y128.127 E22.5872
G1 X86.685 Y127.855 E22.62375
G1 X86.277 Y127.493 E22.66294
G1 X84.821 Y125.959 E22.81488
G1 X84.324 Y125.417 E22.86771
G1 X84.01 Y125.017 E22.90424
G1 X83.763 Y124.572 E22.94081
G1 X83.589 Y124.094 E22.97735
G1 X83.475 Y123.515 E23.01975
G1 X83.46 Y122.695 E23.07867
G1 X83.46 Y97.354 E24.89921
G1 X83.47 Y96.69 E24.94692
G1 X83.518 Y96.184 E24.98344
G1 X83.644 Y95.691 E25.01999
G1 X83.846 Y95.224 E25.05655
G1 X84.119 Y94.794 E25.09314
G1 X84.455 Y94.413 E25.12964
M204 S3000
G1 F5400 E22.12964
;MESH:h3xPad_Case_2_SwitchPlate_Solid.stl
G0 F2400 X87.114 Y96.065
G0 X87.114 Y97.144
G0 X111.145 Y97.643
G0 X111.145 Y102.897
G0 X102.858 Y103.205
G0 X103.099 Y118.266
G0 X117.597 Y118.678
G0 X117.597 Y118.073
M204 S2000
;TYPE:WALL-OUTER
G1 F5400 E25.12964
G1 F3000 X103.474 Y118.073 E26.14426
G1 X103.348 Y117.999 E26.15476
G1 X103.288 Y117.867 E26.16517
G1 X103.288 Y103.78 E27.17721
G1 X103.348 Y103.648 E27.18763
G1 X103.474 Y103.574 E27.19812
G1 X111.817 Y103.569 E27.7975
G1 X111.817 Y96.971 E28.27151
G1 X86.941 Y96.971 E30.05865
G1 X86.94 Y123.135 E31.93832
G1 X88.735 Y125.032 E32.12595
G1 X135.06 Y125.032 E35.45402
G1 X135.06 Y96.97 E37.47005
G1 X114.298 Y96.971 E38.96163
G1 X114.297 Y103.569 E39.43565
G1 X117.6 Y103.575 E39.67294
G1 X117.749 Y103.683 E39.68616
G1 X117.783 Y103.781 E39.69361
G1 X117.783 Y117.867 E40.70558
G1 X117.723 Y117.999 E40.71599
G1 X117.597 Y118.073 E40.72649
M204 S3000
G0 F2400 X117.397 Y118.073
G0 X118.079 Y118.321
M204 S2000
;TYPE:WALL-INNER
G1 F3000 X117.849 Y118.491 E40.74704
G1 X117.637 Y118.558 E40.76301
G1 X103.418 Y118.558 E41.78453
G1 X103.222 Y118.491 E41.79941
G1 X102.992 Y118.321 E41.81996
G1 X102.862 Y118.115 E41.83746
G1 X102.811 Y117.923 E41.85173
G1 X102.811 Y103.724 E42.87182
G1 X102.862 Y103.531 E42.88616
G1 X102.992 Y103.326 E42.9036
G1 X103.222 Y103.156 E42.92414
G1 X103.434 Y103.089 E42.94012
G1 X111.337 Y103.089 E43.50788
G1 X111.337 Y97.451 E43.91293
G1 X87.421 Y97.451 E45.6311
G1 X87.42 Y122.944 E47.46256
G1 X88.941 Y124.552 E47.62158
G1 X134.58 Y124.552 E50.90037
G1 X134.58 Y97.45 E52.84743
G1 X114.778 Y97.451 E54.27004
G1 X114.777 Y103.089 E54.67509
G1 X117.659 Y103.089 E54.88214
G1 X117.857 Y103.16 E54.89725
G1 X118.082 Y103.33 E54.91751
G1 X118.21 Y103.534 E54.93481
G1 X118.26 Y103.725 E54.94899
G1 X118.26 Y117.923 E55.969
G1 X118.209 Y118.115 E55.98328
G1 X118.079 Y118.321 E56.00078
M204 S3000
G0 F2400 X118.419 Y118.631
M204 S2000
;TYPE:SKIN
G1 F3000 X118.014 Y118.92 E56.03652
G1 X117.704 Y119.015 E56.05981
G1 X103.34 Y119.018 E57.09175
G1 X102.988 Y118.884 E57.11881
G1 X102.652 Y118.633 E57.14894
G1 X102.424 Y118.257 E57.18053
G1 X102.354 Y117.982 E57.20092
G1 X102.348 Y103.701 E58.22689
G1 X102.434 Y103.358 E58.2523
G1 X102.652 Y103.016 E58.28143
G1 X102.986 Y102.764 E58.31149
G1 X103.367 Y102.632 E58.34046
G1 X110.877 Y102.629 E58.87999
G1 X110.877 Y97.911 E59.21894
G1 X87.881 Y97.911 E60.87102
G1 X87.88 Y122.761 E62.65629
G1 X89.14 Y124.092 E62.78796
G1 X134.12 Y124.092 E66.01941
G1 X134.12 Y97.91 E67.90037
G1 X115.238 Y97.911 E69.25689
G1 X115.237 Y102.629 E69.59584
G1 X117.615 Y102.635 E69.76668
G1 X118.099 Y102.768 E69.80274
G1 X118.392 Y102.991 E69.8292
G1 X118.637 Y103.361 E69.86108
G1 X118.717 Y103.666 E69.88373
G1 X118.723 Y117.946 E70.90963
G1 X118.637 Y118.289 E70.93504
G1 X118.419 Y118.631 E70.96417
M204 S3000
G0 F2400 X118.311 Y118.174
G0 X117.936 Y102.997
G0 X114.969 Y102.897
G0 X114.97 Y97.643
G0 X133.638 Y97.57
G0 X133.638 Y98.389
M204 S2000
G1 F3000 X133.01 Y98.39 E71.00929
G1 X133.638 Y99.018 E71.07309
M204 S3000
G0 F2400 X133.01 Y98.39
M204 S2000
G1 F3000 X132.331 Y98.39 E71.12188
G1 X133.638 Y99.697 E71.25467
G1 X133.638 Y100.376 E71.30345
G1 X131.652 Y98.39 E71.50522
G1 X130.973 Y98.39 E71.554
G1 X133.638 Y101.055 E71.82477
G1 X133.638 Y101.734 E71.87355
G1 X130.295 Y98.39 E72.21325
G1 X129.616 Y98.39 E72.26203
G1 X133.638 Y102.413 E72.67071
G1 X133.638 Y103.091 E72.71942
G1 X128.937 Y98.39 E73.19704
G1 X128.258 Y98.39 E73.24582
G1 X133.638 Y103.77 E73.79243
G1 X133.638 Y104.449 E73.84121
G1 X127.579 Y98.39 E74.4568
G1 X126.9 Y98.39 E74.50558
G1 X133.638 Y105.128 E75.19016
G1 X133.638 Y105.807 E75.23894
G1 X126.222 Y98.39 E75.99246
G1 X125.543 Y98.39 E76.04124
G1 X133.638 Y106.486 E76.86374
G1 X133.638 Y107.164 E76.91245
G1 X124.864 Y98.39 E77.80389
G1 X124.185 Y98.39 E77.85267
G1 X133.638 Y107.843 E78.81309
G1 X133.638 Y108.522 E78.86187
G1 X123.506 Y98.39 E79.89128
G1 X122.827 Y98.39 E79.94006
G1 X133.638 Y109.201 E81.03845
G1 X133.638 Y109.88 E81.08724
G1 X122.149 Y98.39 E82.25457
G1 X121.47 Y98.39 E82.30335
G1 X133.638 Y110.558 E83.53961
G1 X133.638 Y111.237 E83.58839
G1 X120.791 Y98.39 E84.89365
G1 X120.112 Y98.39 E84.94243
G1 X133.638 Y111.916 E86.31667
G1 X133.638 Y112.595 E86.36545
G1 X119.433 Y98.39 E87.80867
G1 X118.755 Y98.39 E87.85738
G1 X133.638 Y113.274 E89.36954
G1 X133.638 Y113.953 E89.41832
G1 X118.076 Y98.39 E90.99947
G1 X117.397 Y98.39 E91.04825
G1 X133.638 Y114.631 E92.69833
G1 X133.638 Y115.31 E92.74711
G1 X116.718 Y98.39 E94.46618
G1 X116.039 Y98.39 E94.51496
G1 X133.638 Y115.989 E96.30301
G1 X133.638 Y116.668 E96.35179
G1 X115.716 Y98.746 E98.17267
G1 X115.716 Y99.424 E98.22137
G1 X133.638 Y117.347 E100.0423
G1 X133.638 Y118.026 E100.09108
M204 S3000
G0 F2400 X134.46 Y118.026
G0 X134.388 Y97.642
G0 X114.97 Y97.643
G0 X114.969 Y102.897
G0 X117.91 Y102.959
G0 X118.137 Y102.263
M204 S2000
G1 F3000 X118.37 Y102.371 E100.10953
G1 X118.784 Y102.7 E100.14752
G1 X119.08 Y103.171 E100.18748
G1 X119.185 Y103.572 E100.21726
M204 S3000
G0 F2400 X118.378 Y103.709
G0 X117.621 Y102.985
G0 X117.806 Y102.193
M204 S2000
G1 F3000 X115.716 Y100.103 E100.42961
M204 S3000
G0 F2400 X114.898 Y100.102
G0 X114.97 Y97.643
G0 X134.388 Y97.642
G0 X134.46 Y118.026
G0 X133.638 Y118.026
M204 S2000
G1 F3000 X119.185 Y103.572 E101.89808
G1 X119.194 Y103.605 E101.90054
G1 X119.194 Y104.26 E101.94759
M204 S3000
G0 F2400 X118.378 Y104.26
G0 X117.972 Y103.381
G0 X114.969 Y102.897
G0 X114.898 Y100.102
G0 X115.716 Y100.103
M204 S2000
G1 F3000 X115.716 Y100.782 E101.99637
G1 X117.082 Y102.148 E102.13516
G1 X116.403 Y102.148 E102.18394
G1 X115.716 Y101.461 E102.25374
G1 X115.716 Y102.14 E102.30252
G1 X115.716 Y102.148
G1 X115.725 Y102.148 E102.30316
M204 S3000
G0 F2400 X115.725 Y102.969
G0 X117.972 Y103.381
G0 X118.378 Y104.26
G0 X119.194 Y104.26
M204 S2000
G1 F3000 X133.638 Y118.704 E103.77067
G1 X133.638 Y119.383 E103.81945
G1 X119.194 Y104.939 E105.28696
G1 X119.195 Y105.619 E105.33581
G1 X133.638 Y120.062 E106.80322
G1 X133.638 Y120.741 E106.852
G1 X119.195 Y106.297 E108.31945
G1 X119.195 Y106.976 E108.36824
G1 X133.638 Y121.42 E109.83569
G1 X133.638 Y122.098 E109.8844
G1 X119.196 Y107.656 E111.3517
G1 X119.196 Y108.335 E111.40049
G1 X133.638 Y122.777 E112.86779
G1 X133.638 Y123.456 E112.91657
G1 X119.196 Y109.014 E114.38387
G1 X119.196 Y109.693 E114.43265
G1 X133.114 Y123.611 E115.84672
G1 X132.436 Y123.611 E115.89543
G1 X119.196 Y110.372 E117.24056
G1 X119.197 Y111.051 E117.28934
G1 X131.757 Y123.611 E118.56543
G1 X131.078 Y123.611 E118.61421
G1 X119.197 Y111.73 E119.82132
G1 X119.197 Y112.409 E119.8701
G1 X130.399 Y123.611 E121.00822
G1 X129.72 Y123.611 E121.057
G1 X119.198 Y113.089 E122.12604
G1 X119.198 Y113.767 E122.17474
G1 X129.042 Y123.611 E123.17489
G1 X128.363 Y123.611 E123.22367
G1 X119.199 Y114.447 E124.15473
G1 X119.199 Y115.126 E124.20351
G1 X127.684 Y123.611 E125.06559
G1 X127.005 Y123.611 E125.11437
G1 X119.199 Y115.804 E125.90751
G1 X119.199 Y116.484 E125.95636
G1 X126.326 Y123.611 E126.68046
G1 X125.647 Y123.611 E126.72924
G1 X119.199 Y117.163 E127.38436
G1 X119.199 Y117.842 E127.43314
G1 X124.969 Y123.611 E128.01932
G1 X124.29 Y123.611 E128.0681
G1 X119.095 Y118.416 E128.59591
G1 X118.846 Y118.846 E128.63161
G1 X123.611 Y123.611 E129.11573
G1 X122.932 Y123.611 E129.16451
G1 X118.494 Y119.173 E129.61541
G1 X118.344 Y119.288 E129.62899
G1 X118.04 Y119.398 E129.65222
G1 X122.253 Y123.611 E130.08026
G1 X121.574 Y123.611 E130.12904
G1 X117.461 Y119.497 E130.54697
G1 X116.782 Y119.497 E130.59575
G1 X120.896 Y123.611 E131.01373
G1 X120.217 Y123.611 E131.06251
G1 X116.103 Y119.497 E131.48049
G1 X115.424 Y119.497 E131.52927
G1 X119.538 Y123.611 E131.94725
G1 X118.859 Y123.611 E131.99603
G1 X114.745 Y119.497 E132.41402
G1 X114.066 Y119.497 E132.4628
G1 X118.18 Y123.611 E132.88078
G1 X117.502 Y123.611 E132.92949
G1 X113.388 Y119.497 E133.34747
G1 X112.709 Y119.497 E133.39625
G1 X116.823 Y123.611 E133.81423
G1 X116.144 Y123.611 E133.86301
G1 X112.03 Y119.497 E134.28099
G1 X111.351 Y119.497 E134.32977
G1 X115.465 Y123.611 E134.74775
G1 X114.786 Y123.611 E134.79653
G1 X110.672 Y119.497 E135.21452
G1 X109.993 Y119.497 E135.2633
G1 X114.107 Y123.611 E135.68128
G1 X113.429 Y123.611 E135.72999
G1 X109.315 Y119.497 E136.14797
G1 X108.636 Y119.497 E136.19675
G1 X112.75 Y123.611 E136.61473
G1 X112.071 Y123.611 E136.66351
G1 X107.957 Y119.497 E137.08149
G1 X107.278 Y119.497 E137.13027
G1 X111.392 Y123.611 E137.54825
G1 X110.713 Y123.611 E137.59704
G1 X106.599 Y119.497 E138.01502
G1 X105.921 Y119.497 E138.06373
G1 X110.035 Y123.611 E138.48171
G1 X109.356 Y123.611 E138.53049
G1 X105.242 Y119.497 E138.94847
G1 X104.563 Y119.497 E138.99725
G1 X108.677 Y123.611 E139.41523
G1 X107.998 Y123.611 E139.46401
G1 X103.884 Y119.497 E139.88199
G1 X103.245 Y119.497 E139.9279
G1 X103.179 Y119.471 E139.933
M204 S3000
G0 F2400 X103.402 Y118.678
G0 X103.099 Y118.266
G0 X103.099 Y103.381
G0 X111.145 Y102.897
G0 X111.145 Y97.643
G0 X110.396 Y97.571
G0 X110.396 Y98.391
M204 S2000
G1 F3000 X109.931 Y98.391 E139.9664
M204 S3000
G0 F2400 X110.396 Y98.856
M204 S2000
G1 F3000 X109.931 Y98.391 E140.01365
G1 X109.252 Y98.391 E140.06243
G1 X110.396 Y99.535 E140.17866
G1 X110.396 Y100.214 E140.22744
G1 X108.573 Y98.391 E140.41266
G1 X107.894 Y98.391 E140.46144
G1 X110.396 Y100.892 E140.71559
G1 X110.396 Y101.571 E140.76437
G1 X107.215 Y98.391 E141.08751
G1 X106.536 Y98.391 E141.13629
G1 X110.294 Y102.148 E141.51805
G1 X109.615 Y102.148 E141.56683
G1 X105.858 Y98.391 E141.94854
G1 X105.179 Y98.391 E141.99732
G1 X108.936 Y102.148 E142.37903
G1 X108.258 Y102.148 E142.42774
G1 X104.5 Y98.391 E142.8095
G1 X103.821 Y98.391 E142.85828
G1 X107.579 Y102.148 E143.24004
G1 X106.9 Y102.148 E143.28882
G1 X103.142 Y98.391 E143.67058
G1 X102.464 Y98.391 E143.71929
G1 X106.221 Y102.148 E144.101
G1 X105.542 Y102.148 E144.14978
G1 X101.785 Y98.391 E144.53149
G1 X101.106 Y98.391 E144.58027
G1 X104.863 Y102.148 E144.96199
G1 X104.185 Y102.148 E145.01069
G1 X100.427 Y98.391 E145.39246
G1 X99.748 Y98.391 E145.44124
G1 X103.506 Y102.148 E145.823
G1 X103.306 Y102.149 E145.83737
G1 X102.954 Y102.275 E145.86423
G1 X99.069 Y98.391 E146.25889
G1 X98.391 Y98.391 E146.3076
G1 X102.517 Y102.517 E146.7268
G1 X102.295 Y102.688 E146.74693
G1 X102.184 Y102.863 E146.76182
G1 X97.712 Y98.391 E147.21617
G1 X97.033 Y98.391 E147.26495
G1 X101.954 Y103.311 E147.76488
G1 X101.87 Y103.642 E147.78941
G1 X101.87 Y103.907 E147.80845
G1 X96.354 Y98.391 E148.36887
G1 X95.675 Y98.391 E148.41765
G1 X101.87 Y104.586 E149.04706
G1 X101.87 Y105.264 E149.09577
G1 X94.996 Y98.391 E149.79412
G1 X94.318 Y98.391 E149.84283
G1 X101.871 Y105.944 E150.61021
G1 X101.871 Y106.623 E150.65899
G1 X93.639 Y98.391 E151.49536
G1 X92.96 Y98.391 E151.54414
G1 X101.872 Y107.302 E152.44955
G1 X101.872 Y107.981 E152.49833
G1 X92.281 Y98.391 E153.47272
G1 X91.602 Y98.391 E153.5215
G1 X101.872 Y108.66 E154.56488
G1 X101.872 Y109.339 E154.61366
G1 X90.924 Y98.391 E155.72597
G1 X90.245 Y98.391 E155.77475
G1 X101.872 Y110.018 E156.95606
G1 X101.872 Y110.697 E157.00484
G1 X89.566 Y98.391 E158.25512
G1 X88.887 Y98.391 E158.3039
G1 X101.873 Y111.377 E159.62328
G1 X101.873 Y112.055 E159.67199
G1 X88.36 Y98.542 E161.0449
G1 X88.36 Y99.221 E161.09369
G1 X101.874 Y112.735 E162.4667
G1 X101.874 Y113.414 E162.51549
G1 X88.36 Y99.9 E163.88851
G1 X88.36 Y100.578 E163.93721
G1 X101.874 Y114.093 E165.31028
G1 X101.874 Y114.772 E165.35906
G1 X88.36 Y101.257 E166.73213
G1 X88.36 Y101.936 E166.78092
G1 X101.874 Y115.451 E168.15399
G1 X101.874 Y116.13 E168.20277
G1 X88.36 Y102.615 E169.57584
G1 X88.36 Y103.294 E169.62462
G1 X101.875 Y116.809 E170.99774
G1 X101.875 Y117.488 E171.04652
G1 X88.36 Y103.972 E172.41969
G1 X88.36 Y104.651 E172.46847
G1 X101.921 Y118.213 E173.84632
M204 S3000
G0 F2400 X102.711 Y118.009
G0 X103.402 Y118.678
G0 X103.179 Y119.471
M204 S2000
G1 F3000 X107.319 Y123.611 E174.26694
G1 X106.64 Y123.611 E174.31572
M204 S3000
G0 F2400 X106.64 Y124.432
G0 X89.021 Y124.368
G0 X87.603 Y122.87
G0 X87.613 Y97.643
G0 X111.145 Y97.643
G0 X111.145 Y102.897
G0 X102.858 Y103.205
G0 X102.858 Y118.442
G0 X102.725 Y119.287
M204 S2000
G1 F3000 X102.295 Y118.958 E174.35462
G1 X101.991 Y118.479 E174.39538
G1 X101.921 Y118.213 E174.41514
M204 S3000
G0 F2400 X102.711 Y118.009
G0 X102.858 Y103.205
G0 X111.145 Y102.897
