;FLAVOR:Marlin
;TIME:1432
;Filament used: 2.88647m
;Layer height: 0.2
;MINX:74.908
;MINY:81.656
;MINZ:0.3
;MAXX:147.094
;MAXY:140.344
;MAXZ:12.9
;TARGET_MACHINE.NAME:Unknown
;Generated with Cura_SteamEngine 5.6.0
M140 S65
M105
M190 S65
M104 S183
M105
M109 S183
M82 ;absolute extrusion mode
G28 ;Home
G1 Z15.0 F6000 ;Move the platform down 15mm
;Prime the extruder
G92 E0
G1 F200 E3
G92 E0
G92 E0
G92 E0
G1 F5400 E-3
;LAYER_COUNT:64
;LAYER:0
M107
M204 S3000
M205 X20 Y20
G0 F2400 X75.898 Y82.686 Z0.3
M204 S2000
;TYPE:SKIRT
G1 F5400 E0
G1 F3000 X76.29 Y82.361 E0.03658
G1 X76.727 Y82.101 E0.07311
G1 X77.2 Y81.914 E0.10965
G1 X77.696 Y81.802 E0.14618
G1 X78.17 Y81.761 E0.18037
G1 X107.085 Y81.76 E2.25767
G1 X109.913 Y81.72 E2.46086
G1 X111.976 Y81.656 E2.60914
G1 X143.193 Y81.656 E4.85183
G1 X143.891 Y81.666 E4.90198
G1 X144.398 Y81.714 E4.93857
G1 X144.891 Y81.839 E4.97511
G1 X145.358 Y82.041 E5.01166
G1 X145.788 Y82.313 E5.04822
G1 X146.17 Y82.649 E5.08477
G1 X146.494 Y83.041 E5.1213
G1 X146.754 Y83.479 E5.15789
G1 X146.941 Y83.951 E5.19437
G1 X147.052 Y84.448 E5.23095
G1 X147.093 Y84.913 E5.26449
G1 X147.094 Y136.413 E8.96435
G1 X147.084 Y137.14 E9.01658
G1 X147.037 Y137.646 E9.05309
G1 X146.911 Y138.139 E9.08965
G1 X146.71 Y138.606 E9.12617
G1 X146.438 Y139.036 E9.16273
G1 X146.102 Y139.418 E9.19927
G1 X145.711 Y139.743 E9.2358
G1 X145.273 Y140.003 E9.27239
G1 X144.8 Y140.191 E9.30896
G1 X144.304 Y140.302 E9.34548
G1 X143.831 Y140.343 E9.37959
G1 X112.307 Y140.344 E11.64433
G1 X111.557 Y140.333 E11.69822
G1 X108.657 Y140.25 E11.90664
G1 X107.288 Y140.24 E12.005
G1 X78.804 Y140.24 E14.05134
G1 X78.106 Y140.229 E14.10149
G1 X77.599 Y140.181 E14.13808
G1 X77.107 Y140.054 E14.17458
G1 X76.64 Y139.852 E14.21114
G1 X76.211 Y139.579 E14.24767
G1 X75.829 Y139.243 E14.28422
G1 X75.505 Y138.85 E14.32081
G1 X75.246 Y138.412 E14.35737
G1 X75.059 Y137.939 E14.39391
G1 X74.949 Y137.443 E14.43041
G1 X74.909 Y136.971 E14.46444
G1 X74.908 Y85.628 E18.15302
G1 X74.917 Y84.965 E18.20065
G1 X74.964 Y84.458 E18.23723
G1 X75.09 Y83.965 E18.27379
G1 X75.291 Y83.498 E18.31031
G1 X75.563 Y83.068 E18.34687
G1 X75.898 Y82.686 E18.38337
M204 S3000
G1 F5400 E15.38337
;MESH:macroPad_CaseBase.stl
G0 F2400 X79.088 Y84.335
G0 X79.088 Y85.94
G0 X109.236 Y85.912
G0 X109.278 Y136.13
G0 X109.908 Y136.76
M204 S2000
;TYPE:WALL-OUTER
G1 F5400 E18.38337
G1 F3000 X109.908 Y85.24 E22.08466
G1 X78.388 Y85.24 E24.34912
G1 X78.388 Y136.76 E28.05042
G1 X109.908 Y136.76 E30.31487
M204 S3000
G0 F2400 X109.908 Y136.56
G0 X109.428 Y136.28
M204 S2000
;TYPE:WALL-INNER
G1 F3000 X109.428 Y85.72 E33.9472
G1 X78.868 Y85.72 E36.14269
G1 X78.868 Y136.28 E39.77501
G1 X109.428 Y136.28 E41.9705
M204 S3000
G0 F2400 X108.968 Y135.82
M204 S2000
;TYPE:SKIN
G1 F3000 X108.968 Y86.18 E45.53673
G1 X79.328 Y86.18 E47.66613
G1 X79.328 Y135.82 E51.23236
G1 X108.968 Y135.82 E53.36175
M204 S3000
G0 F2400 X109.308 Y135.82
G0 X109.236 Y85.912
G0 X108.487 Y85.84
G0 X108.487 Y86.66
M204 S2000
G1 F3000 X108.382 Y86.66 E53.36929
G1 X108.487 Y86.765 E53.37996
G1 X108.487 Y87.444 E53.42874
G1 X107.703 Y86.66 E53.5084
G1 X107.024 Y86.66 E53.55718
G1 X108.487 Y88.123 E53.70582
G1 X108.487 Y88.802 E53.7546
G1 X106.346 Y86.66 E53.97217
G1 X105.667 Y86.66 E54.02096
G1 X108.487 Y89.48 E54.30747
G1 X108.487 Y90.159 E54.35625
G1 X104.988 Y86.66 E54.71174
G1 X104.309 Y86.66 E54.76053
G1 X108.487 Y90.838 E55.18501
G1 X108.487 Y91.517 E55.23379
G1 X103.63 Y86.66 E55.72726
G1 X102.951 Y86.66 E55.77604
G1 X108.487 Y92.196 E56.3385
G1 X108.487 Y92.874 E56.38721
G1 X102.273 Y86.66 E57.01855
G1 X101.594 Y86.66 E57.06733
G1 X108.487 Y93.553 E57.76765
G1 X108.487 Y94.232 E57.81644
G1 X100.915 Y86.66 E58.58575
G1 X100.236 Y86.66 E58.63453
G1 X108.487 Y94.911 E59.47283
G1 X108.487 Y95.59 E59.52161
G1 X99.557 Y86.66 E60.4289
G1 X98.878 Y86.66 E60.47768
G1 X108.487 Y96.269 E61.45395
G1 X108.487 Y96.947 E61.50266
G1 X98.2 Y86.66 E62.54781
G1 X97.521 Y86.66 E62.5966
G1 X108.487 Y97.626 E63.71074
G1 X108.487 Y98.305 E63.75952
G1 X96.842 Y86.66 E64.94265
G1 X96.163 Y86.66 E64.99143
G1 X108.487 Y98.984 E66.24354
G1 X108.487 Y99.663 E66.29233
G1 X95.484 Y86.66 E67.61343
G1 X94.806 Y86.66 E67.66214
G1 X108.487 Y100.341 E69.05212
G1 X108.487 Y101.02 E69.1009
G1 X94.127 Y86.66 E70.55988
G1 X93.448 Y86.66 E70.60866
G1 X108.487 Y101.699 E72.13662
G1 X108.487 Y102.378 E72.1854
G1 X92.769 Y86.66 E73.78234
G1 X92.09 Y86.66 E73.83112
G1 X108.487 Y103.057 E75.49705
G1 X108.487 Y103.736 E75.54583
G1 X91.411 Y86.66 E77.28075
G1 X90.733 Y86.66 E77.32946
G1 X108.487 Y104.414 E79.13326
G1 X108.487 Y105.093 E79.18204
G1 X90.054 Y86.66 E81.05483
G1 X89.375 Y86.66 E81.10361
G1 X108.487 Y105.772 E83.04539
G1 X108.487 Y106.451 E83.09417
G1 X88.696 Y86.66 E85.10493
G1 X88.017 Y86.66 E85.15371
G1 X108.487 Y107.13 E87.23346
G1 X108.487 Y107.809 E87.28224
G1 X87.339 Y86.66 E89.43092
G1 X86.66 Y86.66 E89.4797
G1 X108.487 Y108.487 E91.69732
G1 X108.487 Y109.166 E91.7461
G1 X85.981 Y86.66 E94.03271
G1 X85.302 Y86.66 E94.08149
G1 X108.487 Y109.845 E96.43708
G1 X108.487 Y110.524 E96.48586
G1 X84.623 Y86.66 E98.91044
G1 X83.944 Y86.66 E98.95922
G1 X108.487 Y111.203 E101.45278
G1 X108.487 Y111.881 E101.50149
G1 X83.266 Y86.66 E104.06394
G1 X82.587 Y86.66 E104.11272
G1 X108.487 Y112.56 E106.74415
G1 X108.487 Y113.239 E106.79293
G1 X81.908 Y86.66 E109.49335
G1 X81.229 Y86.66 E109.54213
G1 X108.487 Y113.918 E112.31154
G1 X108.487 Y114.597 E112.36032
G1 X80.55 Y86.66 E115.19871
G1 X79.871 Y86.66 E115.24749
G1 X108.487 Y115.276 E118.15487
G1 X108.487 Y115.954 E118.20358
G1 X79.807 Y87.274 E121.11746
G1 X79.807 Y87.953 E121.16624
G1 X108.487 Y116.633 E124.08013
G1 X108.487 Y117.312 E124.12891
G1 X79.807 Y88.632 E127.04279
G1 X79.807 Y89.311 E127.09157
G1 X108.487 Y117.991 E130.00545
G1 X108.487 Y118.67 E130.05423
G1 X79.807 Y89.989 E132.96816
G1 X79.807 Y90.668 E133.01694
G1 X108.487 Y119.349 E135.93088
G1 X108.487 Y120.027 E135.97959
G1 X79.807 Y91.347 E138.89347
G1 X79.807 Y92.026 E138.94225
G1 X108.487 Y120.706 E141.85613
G1 X108.487 Y121.385 E141.90491
G1 X79.807 Y92.705 E144.81879
G1 X79.807 Y93.384 E144.86757
G1 X108.487 Y122.064 E147.78145
G1 X108.487 Y122.743 E147.83023
G1 X79.807 Y94.062 E150.74417
G1 X79.807 Y94.741 E150.79295
G1 X108.487 Y123.421 E153.70683
G1 X108.487 Y124.1 E153.75561
G1 X79.807 Y95.42 E156.66949
G1 X79.807 Y96.099 E156.71827
G1 X108.487 Y124.779 E159.63215
G1 X108.487 Y125.458 E159.68093
G1 X79.807 Y96.778 E162.59482
G1 X79.807 Y97.456 E162.64352
G1 X108.487 Y126.137 E165.55746
G1 X108.487 Y126.816 E165.60624
G1 X79.807 Y98.135 E168.52017
G1 X79.807 Y98.814 E168.56895
G1 X108.487 Y127.494 E171.48283
G1 X108.487 Y128.173 E171.53161
G1 X79.807 Y99.493 E174.44549
G1 X79.807 Y100.172 E174.49428
G1 X108.487 Y128.852 E177.40816
G1 X108.487 Y129.531 E177.45694
G1 X79.807 Y100.851 E180.37082
G1 X79.807 Y101.529 E180.41953
G1 X108.487 Y130.21 E183.33346
G1 X108.487 Y130.889 E183.38224
G1 X79.807 Y102.208 E186.29617
G1 X79.807 Y102.887 E186.34495
G1 X108.487 Y131.567 E189.25884
G1 X108.487 Y132.246 E189.30762
G1 X79.807 Y103.566 E192.2215
G1 X79.807 Y104.245 E192.27028
G1 X108.487 Y132.925 E195.18416
G1 X108.487 Y133.604 E195.23294
G1 X79.807 Y104.924 E198.14682
G1 X79.807 Y105.602 E198.19553
G1 X108.487 Y134.283 E201.10946
G1 X108.487 Y134.961 E201.15817
G1 X79.807 Y106.281 E204.07205
G1 X79.807 Y106.96 E204.12083
G1 X108.186 Y135.339 E207.00413
G1 X107.507 Y135.339 E207.05292
G1 X79.807 Y107.639 E209.86723
G1 X79.807 Y108.318 E209.91601
G1 X106.828 Y135.339 E212.66134
G1 X106.15 Y135.339 E212.71005
G1 X79.807 Y108.996 E215.38649
G1 X79.807 Y109.675 E215.43527
G1 X105.471 Y135.339 E218.04273
G1 X104.792 Y135.339 E218.09151
G1 X79.807 Y110.354 E220.62998
G1 X79.807 Y111.033 E220.67876
G1 X104.113 Y135.339 E223.14824
G1 X103.434 Y135.339 E223.19702
G1 X79.807 Y111.712 E225.59752
G1 X79.807 Y112.391 E225.6463
G1 X102.756 Y135.339 E227.97786
G1 X102.077 Y135.339 E228.02665
G1 X79.807 Y113.069 E230.28927
G1 X79.807 Y113.748 E230.33805
G1 X101.398 Y135.339 E232.53169
G1 X100.719 Y135.339 E232.58047
G1 X79.807 Y114.427 E234.70513
G1 X79.807 Y115.106 E234.75391
G1 X100.04 Y135.339 E236.80958
G1 X99.361 Y135.339 E236.85836
G1 X79.807 Y115.785 E238.84504
G1 X79.807 Y116.464 E238.89382
G1 X98.683 Y135.339 E240.81157
G1 X98.004 Y135.339 E240.86035
G1 X79.807 Y117.142 E242.70916
G1 X79.807 Y117.821 E242.75794
G1 X97.325 Y135.339 E244.53776
G1 X96.646 Y135.339 E244.58655
G1 X79.807 Y118.5 E246.29738
G1 X79.807 Y119.179 E246.34616
G1 X95.967 Y135.339 E247.98802
G1 X95.289 Y135.339 E248.03673
G1 X79.807 Y119.858 E249.60964
G1 X79.807 Y120.536 E249.65835
G1 X94.61 Y135.339 E251.16233
G1 X93.931 Y135.339 E251.21111
G1 X79.807 Y121.215 E252.64611
G1 X79.807 Y121.894 E252.69489
G1 X93.252 Y135.339 E254.0609
G1 X92.573 Y135.339 E254.10968
G1 X79.807 Y122.573 E255.4067
G1 X79.807 Y123.252 E255.45548
G1 X91.894 Y135.339 E256.68352
G1 X91.216 Y135.339 E256.73223
G1 X79.807 Y123.931 E257.89133
G1 X79.807 Y124.609 E257.94004
G1 X90.537 Y135.339 E259.0302
G1 X89.858 Y135.339 E259.07898
G1 X79.807 Y125.288 E260.10016
G1 X79.807 Y125.967 E260.14894
G1 X89.179 Y135.339 E261.10114
G1 X88.5 Y135.339 E261.14992
G1 X79.807 Y126.646 E262.03313
G1 X79.807 Y127.325 E262.08191
G1 X87.821 Y135.339 E262.89613
G1 X87.143 Y135.339 E262.94484
G1 X79.807 Y128.004 E263.69012
G1 X79.807 Y128.682 E263.73883
G1 X86.464 Y135.339 E264.41518
G1 X85.785 Y135.339 E264.46396
G1 X79.807 Y129.361 E265.07132
G1 X79.807 Y130.04 E265.1201
G1 X85.106 Y135.339 E265.65848
G1 X84.427 Y135.339 E265.70726
G1 X79.807 Y130.719 E266.17665
G1 X79.807 Y131.398 E266.22543
G1 X83.749 Y135.339 E266.62589
G1 X83.07 Y135.339 E266.67467
G1 X79.807 Y132.076 E267.00619
G1 X79.807 Y132.755 E267.05497
G1 X82.391 Y135.339 E267.3175
G1 X81.712 Y135.339 E267.36628
G1 X79.807 Y133.434 E267.55983
G1 X79.807 Y134.113 E267.60861
G1 X81.033 Y135.339 E267.73317
G1 X80.354 Y135.339 E267.78195
M204 S3000
G0 F2400 X79.807 Y134.792
M204 S2000
G1 F3000 X80.354 Y135.339 E267.83753
G1 X79.807 Y135.339 E267.87683
M204 S3000
G1 F5400 E264.87683
;MESH:macroPad_CaseLid.stl
G0 F2400 X78.988 Y135.339
G0 X79.06 Y136.088
G0 X109.236 Y136.088
G0 X109.728 Y118.556
G0 X119.979 Y118.043
G0 X134.891 Y118.556
G0 X134.891 Y117.956
M204 S2000
;TYPE:WALL-OUTER
G1 F5400 E267.87683
G1 F3000 X120.794 Y117.956 E268.88958
G1 X120.684 Y117.901 E268.89842
G1 X120.605 Y117.762 E268.9099
G1 X120.605 Y103.647 E269.92395
G1 X120.658 Y103.536 E269.93279
G1 X120.794 Y103.455 E269.94416
G1 X134.866 Y103.452 E270.95512
G1 X135.028 Y103.536 E270.96823
G1 X135.08 Y103.647 E270.97704
G1 X135.08 Y117.764 E271.99123
G1 X135.028 Y117.875 E272.00003
G1 X134.891 Y117.956 E272.01147
M204 S3000
G0 F2400 X134.691 Y117.956
G1 F5400 E269.01147
G0 F2400 X134.691 Y118.556
G0 X135.232 Y118.554
G0 X142.914 Y118.554
G0 X142.984 Y136.234
G0 X143.614 Y136.864
M204 S2000
G1 F5400 E272.01147
G1 F3000 X143.614 Y85.136 E275.72771
G1 X111.887 Y85.137 E278.00703
G1 X111.886 Y136.864 E281.7232
G1 X143.614 Y136.864 E284.0026
M204 S3000
G0 F2400 X143.614 Y136.664
G0 X143.134 Y136.384
M204 S2000
;TYPE:WALL-INNER
G1 F3000 X143.134 Y85.616 E287.64987
G1 X112.367 Y85.617 E289.86023
G1 X112.366 Y136.384 E293.50742
G1 X143.134 Y136.384 E295.71786
M204 S3000
G1 F5400 E292.71786
G0 F2400 X142.984 Y136.234
G0 X120.595 Y136.164
G0 X120.756 Y118.637
G0 X120.368 Y118.263
M204 S2000
G1 F5400 E295.71786
G1 F3000 X120.221 Y118.086 E295.73439
G1 X120.122 Y117.809 E295.75552
G1 X120.122 Y103.6 E296.77632
G1 X120.221 Y103.325 E296.79732
G1 X120.368 Y103.148 E296.81385
G1 X120.537 Y103.038 E296.82833
G1 X120.773 Y102.974 E296.8459
G1 X134.912 Y102.974 E297.86167
G1 X135.233 Y103.085 E297.88607
G1 X135.396 Y103.228 E297.90165
G1 X135.518 Y103.437 E297.91904
G1 X135.564 Y103.691 E297.93758
G1 X135.564 Y117.806 E298.95163
G1 X135.518 Y117.974 E298.96414
G1 X135.396 Y118.183 E298.98153
G1 X135.149 Y118.373 E299.00392
G1 X134.912 Y118.437 E299.02155
G1 X120.773 Y118.437 E300.03733
G1 X120.537 Y118.373 E300.05489
G1 X120.368 Y118.263 E300.06938
M204 S3000
G0 F2400 X120.201 Y118.713
M204 S2000
;TYPE:SKIN
G1 F3000 X119.935 Y118.476 E300.09498
G1 X119.754 Y118.174 E300.12027
G1 X119.665 Y117.881 E300.14227
G1 X119.665 Y103.531 E301.1732
G1 X119.823 Y103.092 E301.20672
G1 X120.067 Y102.797 E301.23422
G1 X120.469 Y102.571 E301.26735
G1 X120.729 Y102.516 E301.28645
G1 X134.957 Y102.516 E302.30861
G1 X135.209 Y102.567 E302.32708
G1 X135.487 Y102.698 E302.34916
G1 X135.75 Y102.933 E302.3745
G1 X135.946 Y103.27 E302.40251
G1 X136.024 Y103.697 E302.43369
G1 X136.021 Y117.873 E303.45212
G1 X135.863 Y118.318 E303.48605
G1 X135.593 Y118.631 E303.51575
G1 X135.304 Y118.803 E303.53991
G1 X134.966 Y118.895 E303.56507
G1 X120.704 Y118.892 E304.58968
G1 X120.475 Y118.844 E304.60649
G1 X120.201 Y118.713 E304.62831
M204 S3000
G1 F5400 E301.62831
G0 F2400 X120.481 Y118.471
G0 X134.932 Y118.637
G0 X142.914 Y118.637
G0 X143.014 Y135.924
G0 X142.674 Y135.924
M204 S2000
G1 F5400 E304.62831
G1 F3000 X142.674 Y86.077 E308.20941
G1 X112.827 Y86.077 E310.35368
G1 X112.826 Y135.924 E313.93478
G1 X142.674 Y135.924 E316.07912
M204 S3000
G0 F2400 X143.014 Y135.924
G0 X142.942 Y85.808
G0 X142.193 Y85.736
G0 X142.193 Y86.556
M204 S2000
G1 F3000 X141.541 Y86.556 E316.12596
G1 X142.193 Y87.208 E316.1922
M204 S3000
G0 F2400 X141.541 Y86.556
M204 S2000
G1 F3000 X140.862 Y86.556 E316.24098
G1 X142.193 Y87.887 E316.37621
G1 X142.193 Y88.566 E316.42499
G1 X140.183 Y86.556 E316.62921
G1 X139.505 Y86.556 E316.67792
G1 X142.193 Y89.245 E316.95107
G1 X142.193 Y89.924 E316.99985
G1 X138.826 Y86.556 E317.34199
G1 X138.147 Y86.556 E317.39077
G1 X142.193 Y90.603 E317.80189
G1 X142.193 Y91.281 E317.8506
G1 X137.468 Y86.556 E318.33066
G1 X136.789 Y86.556 E318.37944
G1 X142.193 Y91.96 E318.92848
G1 X142.193 Y92.639 E318.97726
G1 X136.11 Y86.556 E319.5953
G1 X135.432 Y86.556 E319.644
G1 X142.193 Y93.318 E320.33097
G1 X142.193 Y93.997 E320.37975
G1 X134.753 Y86.556 E321.1357
G1 X134.074 Y86.556 E321.18449
G1 X142.193 Y94.675 E322.00937
G1 X142.193 Y95.354 E322.05815
G1 X133.395 Y86.556 E322.95203
G1 X132.716 Y86.556 E323.00081
G1 X142.193 Y96.033 E323.96367
G1 X142.193 Y96.712 E324.01245
G1 X132.038 Y86.556 E325.04425
G1 X131.359 Y86.556 E325.09303
G1 X142.193 Y97.391 E326.19381
G1 X142.193 Y98.07 E326.24259
G1 X130.68 Y86.556 E327.41236
G1 X130.001 Y86.556 E327.46114
G1 X142.193 Y98.748 E328.69985
G1 X142.193 Y99.427 E328.74863
G1 X129.322 Y86.556 E330.05632
G1 X128.643 Y86.556 E330.1051
G1 X142.193 Y100.106 E331.48178
G1 X142.193 Y100.785 E331.53056
G1 X127.965 Y86.556 E332.97617
G1 X127.286 Y86.556 E333.02495
G1 X142.193 Y101.464 E334.53955
G1 X142.193 Y102.142 E334.58826
G1 X126.607 Y86.556 E336.17179
G1 X125.928 Y86.556 E336.22057
G1 X142.193 Y102.821 E337.87309
G1 X142.193 Y103.5 E337.92187
G1 X125.249 Y86.556 E339.64338
G1 X124.571 Y86.556 E339.69209
G1 X142.193 Y104.179 E341.48253
G1 X142.193 Y104.858 E341.53131
G1 X123.892 Y86.556 E343.39074
G1 X123.213 Y86.556 E343.43952
G1 X142.193 Y105.537 E345.36793
G1 X142.193 Y106.215 E345.41664
G1 X122.534 Y86.556 E347.41399
G1 X121.855 Y86.556 E347.46277
G1 X142.193 Y106.894 E349.52911
G1 X142.193 Y107.573 E349.57789
G1 X121.176 Y86.556 E351.71321
G1 X120.498 Y86.556 E351.76192
G1 X142.193 Y108.252 E353.96618
G1 X142.193 Y108.931 E354.01496
M204 S3000
G1 F5400 E351.01496
G0 F2400 X143.014 Y108.931
G0 X142.914 Y102.94
G0 X135.765 Y103.696
G0 X135.204 Y102.94
G0 X135.751 Y102.295
M204 S2000
G1 F5400 E354.01496
G1 F3000 X136.122 Y102.626 E354.05068
G1 X136.399 Y103.101 E354.09018
G1 X136.407 Y103.144 E354.09333
M204 S3000
G1 F5400 E351.09333
G0 F2400 X135.629 Y103.401
G0 X135.764 Y108.931
G0 X142.914 Y108.931
G0 X142.193 Y108.931
M204 S2000
G1 F5400 E354.09333
G1 F3000 X136.407 Y103.144 E354.68123
M204 S3000
G0 F2400 X135.629 Y103.401
G0 X135.093 Y102.89
G0 X135.383 Y102.121
M204 S2000
G1 F3000 X119.819 Y86.556 E356.26258
G1 X119.14 Y86.556 E356.31136
G1 X134.62 Y102.036 E357.88413
G1 X133.941 Y102.036 E357.93291
G1 X118.461 Y86.556 E359.50567
G1 X117.782 Y86.556 E359.55445
