;FLAVOR:Marlin
;TIME:2947
;Filament used: 5.34958m
;Layer height: 0.2
;MINX:58.405
;MINY:80.18
;MINZ:0.3
;MAXX:163.616
;MAXY:141.87
;MAXZ:25.1
;TARGET_MACHINE.NAME:Unknown
;Generated with Cura_SteamEngine 5.6.0
M140 S63
M105
M190 S63
M104 S177
M105
M109 S177
M82 ;absolute extrusion mode
G28 ;Home
G1 Z15.0 F6000 ;Move the platform down 15mm
;Prime the extruder
G92 E0
G1 F200 E3
G92 E0
G92 E0
G92 E0
G1 F5400 E-3
;LAYER_COUNT:125
;LAYER:0
M107
M204 S3000
M205 X20 Y20
G0 F2400 X60.491 Y82.556 Z0.3
M204 S2000
;TYPE:SKIRT
G1 F5400 E0
G1 F3000 X61.273 Y82.035 E0.06751
G1 X61.626 Y81.847 E0.09624
G1 X62.507 Y81.486 E0.16464
G1 X63.436 Y81.29 E0.23285
G1 X65.148 Y81.255 E0.35587
G1 X82.856 Y81.255 E1.62805
G1 X85.64 Y81.215 E1.82807
G1 X88.352 Y81.1 E2.02308
G1 X91.075 Y80.908 E2.2192
G1 X93.774 Y80.64 E2.41405
G1 X97.157 Y80.21 E2.65905
G1 X98.623 Y80.18 E2.76439
G1 X127.199 Y80.18 E4.81734
G1 X127.757 Y80.189 E4.85744
G1 X128.845 Y80.268 E4.93581
G1 X130.018 Y80.539 E5.0223
G1 X132.672 Y81.106 E5.21727
G1 X135.356 Y81.6 E5.41333
G1 X138.056 Y82.018 E5.60961
G1 X140.718 Y82.355 E5.80238
G1 X143.478 Y82.624 E6.00161
G1 X146.166 Y82.809 E6.19517
G1 X148.883 Y82.92 E6.39053
G1 X151.503 Y82.955 E6.57877
G1 X159.248 Y82.955 E7.13519
G1 X159.983 Y82.968 E7.188
G1 X160.565 Y83.029 E7.23004
G1 X161.128 Y83.18 E7.27192
G1 X161.595 Y83.382 E7.30847
G1 X162.091 Y83.691 E7.35046
G1 X162.532 Y84.072 E7.39232
G1 X162.952 Y84.581 E7.43973
G1 X163.211 Y85.019 E7.47629
G1 X163.454 Y85.632 E7.52366
G1 X163.564 Y86.128 E7.56016
G1 X163.615 Y86.7 E7.60142
G1 X163.616 Y105.667 E8.96404
G1 X163.609 Y107.619 E9.10428
G1 X163.616 Y108.501 E9.16765
G1 X163.616 Y134.585 E11.04157
G1 X163.605 Y135.349 E11.09646
G1 X163.546 Y135.931 E11.13849
G1 X163.397 Y136.496 E11.18047
G1 X163.196 Y136.963 E11.21699
G1 X162.89 Y137.46 E11.25892
G1 X162.455 Y137.955 E11.30627
G1 X162.002 Y138.325 E11.34829
G1 X161.498 Y138.618 E11.39017
G1 X161.026 Y138.806 E11.42667
G1 X160.392 Y138.951 E11.47339
G1 X159.873 Y138.994 E11.51081
G1 X151.942 Y138.995 E12.08059
G1 X149.158 Y139.035 E12.28061
G1 X146.446 Y139.15 E12.47562
G1 X143.721 Y139.343 E12.67188
G1 X141.026 Y139.61 E12.86645
G1 X138.316 Y139.957 E13.06273
G1 X135.61 Y140.382 E13.25951
G1 X132.957 Y140.875 E13.45337
G1 X130.445 Y141.414 E13.63795
G1 X128.779 Y141.788 E13.76061
G1 X128.109 Y141.844 E13.80892
G1 X126.827 Y141.87 E13.90104
G1 X98.247 Y141.87 E15.95428
G1 X97.492 Y141.852 E16.00853
G1 X96.859 Y141.803 E16.05415
G1 X95.662 Y141.641 E16.14093
G1 X92.914 Y141.294 E16.33991
G1 X90.169 Y141.026 E16.53806
G1 X87.492 Y140.841 E16.73084
G1 X84.774 Y140.73 E16.92627
G1 X82.15 Y140.695 E17.1148
G1 X64.772 Y140.695 E18.36326
G1 X64.015 Y140.677 E18.41766
G1 X63.387 Y140.626 E18.46293
G1 X62.483 Y140.456 E18.52901
G1 X61.636 Y140.106 E18.59485
G1 X61.229 Y139.887 E18.62806
G1 X60.47 Y139.377 E18.69375
G1 X59.685 Y138.583 E18.77397
G1 X59.185 Y137.827 E18.83908
G1 X58.975 Y137.427 E18.87154
G1 X58.637 Y136.596 E18.93599
G1 X58.44 Y135.664 E19.00443
G1 X58.405 Y133.936 E19.12859
G1 X58.405 Y87.593 E22.45796
G1 X58.423 Y86.867 E22.51014
G1 X58.474 Y86.238 E22.55547
G1 X58.643 Y85.333 E22.62161
G1 X58.975 Y84.526 E22.6843
G1 X59.214 Y84.077 E22.72085
G1 X59.702 Y83.346 E22.78399
G1 X60.491 Y82.556 E22.8642
M204 S3000
G0 F2400 X60.797 Y82.929
M204 S2000
G1 F3000 X61.499 Y82.459 E22.9249
G1 X61.852 Y82.271 E22.95363
G1 X62.644 Y81.948 E23.01508
G1 X63.492 Y81.769 E23.07734
G1 X65.158 Y81.735 E23.19705
G1 X82.863 Y81.735 E24.46902
G1 X85.66 Y81.695 E24.66998
G1 X88.372 Y81.58 E24.86499
G1 X91.119 Y81.386 E25.06283
G1 X93.821 Y81.118 E25.2579
G1 X97.167 Y80.69 E25.50024
G1 X98.633 Y80.66 E25.60558
G1 X127.192 Y80.66 E27.65731
G1 X127.725 Y80.668 E27.69561
G1 X128.737 Y80.736 E27.76848
G1 X129.91 Y81.006 E27.85495
G1 X132.585 Y81.578 E28.05147
G1 X135.269 Y82.072 E28.24754
G1 X137.996 Y82.494 E28.44578
G1 X140.672 Y82.833 E28.63957
G1 X143.436 Y83.102 E28.83908
G1 X146.146 Y83.289 E29.03423
G1 X148.863 Y83.4 E29.22959
G1 X151.497 Y83.435 E29.41884
G1 X159.24 Y83.435 E29.97511
G1 X159.938 Y83.446 E30.02526
G1 X160.445 Y83.494 E30.06185
G1 X160.937 Y83.621 E30.09835
G1 X161.404 Y83.823 E30.13491
G1 X161.833 Y84.096 E30.17144
G1 X162.215 Y84.432 E30.20799
G1 X162.539 Y84.825 E30.24458
G1 X162.798 Y85.263 E30.28113
G1 X162.985 Y85.736 E30.31767
G1 X163.095 Y86.232 E30.35417
G1 X163.135 Y86.7 E30.38792
G1 X163.136 Y105.665 E31.7504
G1 X163.129 Y107.617 E31.89064
G1 X163.136 Y108.505 E31.95443
G1 X163.136 Y134.579 E33.82764
G1 X163.127 Y135.306 E33.87987
G1 X163.081 Y135.813 E33.91645
G1 X162.956 Y136.306 E33.95299
G1 X162.755 Y136.773 E33.98951
G1 X162.484 Y137.204 E34.02609
G1 X162.148 Y137.586 E34.06264
G1 X161.757 Y137.912 E34.09921
G1 X161.32 Y138.172 E34.13574
G1 X160.848 Y138.36 E34.17224
G1 X160.351 Y138.473 E34.20886
G1 X159.873 Y138.514 E34.24332
G1 X151.935 Y138.515 E34.8136
G1 X149.138 Y138.555 E35.01457
G1 X146.426 Y138.67 E35.20958
G1 X143.677 Y138.865 E35.40757
G1 X140.979 Y139.132 E35.60234
G1 X138.255 Y139.481 E35.79964
G1 X135.522 Y139.91 E35.99839
G1 X132.869 Y140.403 E36.19225
G1 X130.339 Y140.946 E36.37815
G1 X128.739 Y141.31 E36.49603
G1 X128.099 Y141.364 E36.54217
G1 X126.817 Y141.39 E36.63429
G1 X98.258 Y141.39 E38.68603
G1 X97.528 Y141.373 E38.73848
G1 X96.923 Y141.327 E38.78207
G1 X95.726 Y141.165 E38.86885
G1 X92.961 Y140.816 E39.06907
G1 X90.216 Y140.548 E39.26722
G1 X87.512 Y140.361 E39.46194
G1 X84.794 Y140.25 E39.65737
G1 X82.156 Y140.215 E39.8469
G1 X64.783 Y140.215 E41.09501
G1 X64.052 Y140.198 E41.14754
G1 X63.476 Y140.154 E41.18905
G1 X62.618 Y139.993 E41.25176
G1 X61.861 Y139.682 E41.31056
G1 X61.497 Y139.489 E41.34016
G1 X60.779 Y139.006 E41.40232
G1 X60.06 Y138.28 E41.47573
G1 X59.609 Y137.601 E41.53429
G1 X59.42 Y137.246 E41.56318
G1 X59.098 Y136.454 E41.62461
G1 X58.919 Y135.608 E41.68673
G1 X58.885 Y133.926 E41.80759
G1 X58.885 Y87.605 E45.13538
G1 X58.902 Y86.903 E45.18583
G1 X58.946 Y86.326 E45.2274
G1 X59.106 Y85.47 E45.28996
G1 X59.419 Y84.709 E45.34908
G1 X59.613 Y84.344 E45.37877
G1 X60.075 Y83.652 E45.43855
G1 X60.797 Y82.929 E45.51196
M204 S3000
G1 F5400 E42.51196
;MESH:macroPad_Case_v2_3_Base_001.stl
G0 F2400 X74.825 Y84.31
G0 X74.825 Y90.987
G0 X74.427 Y92.656
G0 X76.136 Y95.632
G0 X79.576 Y95.684
G0 X79.931 Y96.298
M204 S2000
;TYPE:WALL-OUTER
G1 F5400 E45.51196
G1 F3000 X82.023 Y92.656 E45.8137
G1 X79.932 Y89.015 E46.11534
G1 X75.75 Y89.015 E46.41578
G1 X73.659 Y92.656 E46.71743
G1 X75.751 Y96.298 E47.01917
G1 X79.931 Y96.298 E47.31947
M204 S3000
G0 F2400 X80.03 Y96.125
G0 X79.653 Y95.818
M204 S2000
;TYPE:WALL-INNER
G1 F3000 X81.469 Y92.656 E47.58143
G1 X79.654 Y89.495 E47.8433
G1 X76.028 Y89.495 E48.10379
G1 X74.213 Y92.656 E48.36566
G1 X76.029 Y95.818 E48.62762
G1 X79.653 Y95.818 E48.88798
M204 S3000
G0 F2400 X79.387 Y95.358
M204 S2000
;TYPE:SKIN
G1 F3000 X80.938 Y92.656 E49.1118
G1 X79.388 Y89.956 E49.33547
G1 X76.294 Y89.956 E49.55774
G1 X74.744 Y92.656 E49.78141
G1 X76.295 Y95.358 E50.00523
G1 X79.387 Y95.358 E50.22737
M204 S3000
G0 F2400 X79.387 Y95.698
G0 X81.255 Y92.656
G0 X79.547 Y89.681
G0 X79.11 Y89.615
G0 X79.11 Y90.435
M204 S2000
G1 F3000 X78.895 Y90.435 E50.24281
G1 X79.401 Y90.941 E50.29422
M204 S3000
G0 F2400 X78.895 Y90.435
M204 S2000
G1 F3000 X78.216 Y90.435 E50.343
G1 X80.316 Y92.535 E50.55636
G1 X80.385 Y92.655 E50.56631
G1 X80.156 Y93.054 E50.59936
G1 X77.537 Y90.435 E50.86545
G1 X76.858 Y90.435 E50.91423
G1 X79.908 Y93.485 E51.22411
G1 X79.661 Y93.916 E51.2598
G1 X76.428 Y90.683 E51.58827
G1 X76.18 Y91.114 E51.62399
G1 X79.413 Y94.347 E51.95246
G1 X79.166 Y94.779 E51.98821
G1 X75.933 Y91.546 E52.31669
G1 X75.685 Y91.977 E52.35241
G1 X78.585 Y94.877 E52.64705
G1 X77.906 Y94.877 E52.69583
G1 X75.437 Y92.408 E52.94668
G1 X75.296 Y92.655 E52.96711
G1 X75.689 Y93.338 E53.02372
G1 X77.228 Y94.877 E53.18009
G1 X76.573 Y94.877 E53.22714
M204 S3000
G1 F5400 E50.22714
G0 F2400 X75.861 Y95.283
G0 X76.109 Y95.597
G0 X79.828 Y96.122
G0 X79.828 Y97.432
G0 X80.406 Y97.932
G0 X80.406 Y97.269
M204 S2000
;TYPE:WALL-OUTER
G1 F5400 E53.22714
G1 F3000 X75.318 Y97.272 E53.59267
G1 X75.19 Y97.236 E53.60223
G1 X75.109 Y97.152 E53.61061
G1 X72.568 Y92.74 E53.97639
G1 X72.572 Y92.563 E53.98911
G1 X75.11 Y88.16 E54.35421
G1 X75.276 Y88.043 E54.3688
G1 X80.364 Y88.04 E54.73434
G1 X80.492 Y88.076 E54.74389
G1 X80.572 Y88.16 E54.75222
G1 X83.115 Y92.577 E55.11838
G1 X83.112 Y92.743 E55.13031
G1 X80.573 Y97.152 E55.49583
G1 X80.406 Y97.269 E55.51048
M204 S3000
G0 F2400 X80.206 Y97.269
G0 X80.206 Y97.932
G0 X74.622 Y98.406
G0 X69.749 Y98.39
G0 X69.197 Y98.55
G0 X68.866 Y99.116
G0 X68.868 Y100.373
G0 X69.19 Y100.816
G0 X69.662 Y100.383
M204 S2000
G1 F3000 X69.512 Y100.287 E55.52327
G1 X69.47 Y100.196 E55.53047
G1 X69.469 Y99.223 E55.60037
G1 X69.511 Y99.132 E55.60757
G1 X69.61 Y99.054 E55.61663
G1 X69.817 Y98.994 E55.63211
G1 X86.019 Y98.994 E56.79609
G1 X86.114 Y99.032 E56.80344
G1 X86.214 Y99.181 E56.81634
G1 X86.211 Y100.187 E56.88861
G1 X86.114 Y100.341 E56.90168
G1 X85.974 Y100.385 E56.91223
G1 X69.662 Y100.383 E58.08411
M204 S3000
G0 F2400 X69.512 Y100.287
G0 X69.503 Y100.267
G0 X69.062 Y100.671
G0 X73.023 Y101.176
G0 X72.089 Y102.23
G0 X72.547 Y105.487
G0 X72.547 Y108.398
G0 X74.306 Y108.398
G0 X81.607 Y107.77
G0 X81.607 Y108.398
G0 X83.366 Y108.398
G0 X83.731 Y108.229
G0 X82.938 Y108.257
M204 S2000
G1 F2513.1 X82.035 Y108.257 E58.16156
G1 F2732.4 X81.805 Y108.041 E58.18644
G1 F3000 X81.795 Y107.582 E58.21943
G1 X74.118 Y107.582 E58.77096
G1 X74.108 Y108.041 E58.80394
G1 F2656.8 X73.988 Y108.252 E58.82363
G1 F2372.3 X73.878 Y108.275 E58.83384
G1 F2642.2 X73.468 Y108.211 E58.86769
G1 F3000 X72.868 Y108.204 E58.9108
G1 X72.738 Y108.012 E58.92746
G1 X72.739 Y105.869 E59.08141
G1 X72.818 Y105.733 E59.09271
G1 X72.954 Y105.675 E59.10333
G1 X73.878 Y105.675 E59.16972
G1 X74.021 Y105.721 E59.18051
G1 X74.118 Y105.915 E59.19609
G1 X74.118 Y106.284 E59.2226
G1 X77.437 Y106.284 E59.46104
G1 X77.437 Y103.991 E59.62578
G1 X74.118 Y103.991 E59.86422
G1 X74.118 Y104.359 E59.89066
G1 X74.021 Y104.553 E59.90624
G1 X73.878 Y104.599 E59.91703
G1 X72.954 Y104.599 E59.98341
G1 X72.818 Y104.541 E59.99404
G1 X72.735 Y104.379 E60.00711
G1 X72.735 Y102.235 E60.16114
G1 X72.831 Y102.112 E60.17235
G1 X72.933 Y102.068 E60.18033
G1 X73.878 Y102.065 E60.24822
G1 X74.079 Y102.173 E60.26461
G1 X74.118 Y102.305 E60.2745
G1 X74.118 Y102.693 E60.30238
G1 X81.795 Y102.693 E60.85391
G1 X81.795 Y102.305 E60.88178
G1 X81.834 Y102.173 E60.89167
G1 X81.993 Y102.068 E60.90536
G1 X82.938 Y102.065 E60.97325
G1 X83.082 Y102.112 E60.98413
G1 X83.178 Y102.235 E60.99534
G1 X83.179 Y104.404 E61.15117
G1 X83.098 Y104.539 E61.16248
G1 X82.938 Y104.599 E61.17475
G1 X82.014 Y104.599 E61.24114
G1 X81.836 Y104.494 E61.25598
G1 X81.795 Y104.359 E61.26612
G1 X81.795 Y103.991 E61.29256
G1 X78.808 Y103.992 E61.50715
G1 X78.808 Y106.284 E61.67181
G1 X81.795 Y106.284 E61.8864
G1 X81.795 Y105.915 E61.91291
G1 X81.836 Y105.78 E61.92305
G1 X82.014 Y105.675 E61.93789
G1 X82.938 Y105.675 E62.00428
G1 X83.098 Y105.735 E62.01655
G1 X83.179 Y105.915 E62.03073
G1 X83.174 Y108.019 E62.18189
G1 X83.124 Y108.123 E62.19018
G1 F2737.6 X82.938 Y108.257 E62.20823
M204 S3000
G0 F2400 X82.738 Y108.257
G0 X82.738 Y108.47
G0 X83.366 Y108.689
G0 X83.366 Y113.674
G0 X82.98 Y114.079
G0 X82.988 Y113.486
M204 S2000
G1 F3000 X81.953 Y113.485 E62.28258
G1 X79.034 Y111.286 E62.54514
G1 X79.029 Y112.181 E62.60944
G1 X78.96 Y112.59 E62.63924
G1 X78.865 Y112.839 E62.65838
G1 F2701.7 X78.546 Y113.27 E62.70116
G1 F2474.2 X78.271 Y113.383 E62.72706
G1 F2722.1 X77.663 Y113.439 E62.7754
G1 F3000 X77.478 Y113.47 E62.78887
G1 X74.545 Y113.474 E62.99959
G1 X73.614 Y113.372 E63.06687
G1 X73.249 Y113.169 E63.09688
G1 X72.982 Y112.862 E63.12611
G1 X72.863 Y112.613 E63.14593
G1 X72.738 Y112.032 E63.18863
G1 X72.746 Y110.206 E63.31981
G1 X72.891 Y109.692 E63.35818
G1 X73.16 Y109.31 E63.39175
G1 X73.478 Y109.076 E63.42011
G1 F2642.2 X73.949 Y108.877 E63.46182
G1 F2372.3 X74.168 Y108.827 E63.48223
G1 F2656.8 X74.729 Y108.88 E63.52794
G1 F3000 X75.497 Y108.876 E63.58311
G1 X75.665 Y108.941 E63.59606
G1 X75.734 Y109.063 E63.60613
G1 X75.736 Y109.887 E63.66532
G1 X75.656 Y110.027 E63.67691
G1 X75.541 Y110.082 E63.68607
G1 X74.038 Y110.085 E63.79404
G1 X74.038 Y112.189 E63.9452
G1 X77.69 Y112.189 E64.20757
G1 X77.69 Y109.845 E64.37596
G1 X77.729 Y109.712 E64.38592
G1 X77.888 Y109.608 E64.39957
G1 X78.794 Y109.605 E64.46466
G1 X78.94 Y109.654 E64.47572
G1 X81.795 Y111.834 E64.73379
G1 X81.795 Y110.085 E64.85944
G1 X81.105 Y110.085 E64.90901
G1 X80.959 Y110.036 E64.92007
G1 X80.865 Y109.845 E64.93537
G1 X80.865 Y109.069 E64.99112
G1 X80.943 Y108.939 E65.00201
G1 X81.063 Y108.88 E65.01162
G1 F2732.4 X82.035 Y108.83 E65.08839
G1 F2513.1 X82.938 Y108.831 E65.16583
G1 F2737.6 X83.124 Y108.964 E65.18383
G1 F3000 X83.179 Y109.117 E65.19551
G1 X83.179 Y113.294 E65.49559
G1 X83.092 Y113.431 E65.50725
G1 X82.988 Y113.486 E65.5157
M204 S3000
G0 F2400 X82.788 Y113.486
G0 X82.788 Y114.086
G0 X80.463 Y113.371
G0 X80.051 Y115.347
G0 X78.172 Y116.286
G0 X80.05 Y117.16
G0 X80.045 Y118.841
G0 X78.285 Y118.841
G0 X76.413 Y117.194
G0 X74.306 Y118.941
G0 X72.547 Y118.941
G0 X72.169 Y118.73
G0 X72.954 Y118.749
M204 S2000
G1 F3018.9 X72.778 Y118.651 E65.53009
G1 F3000 X72.735 Y118.534 E65.53904
G1 X72.736 Y117.545 E65.61009
G1 X72.808 Y117.387 E65.62257
G1 X75.063 Y116.3 E65.80241
G1 X72.87 Y115.249 E65.97712
G1 X72.767 Y115.153 E65.98723
G1 X72.736 Y115.06 E65.99428
G1 X72.735 Y113.98 E66.07187
G1 X72.861 Y113.832 E66.08583
G1 X72.975 Y113.804 E66.09426
G1 F3171.8 X73.93 Y113.834 E66.15919
G1 X74.112 Y113.987 E66.17534
G1 F3000 X74.118 Y114.455 E66.20897
G1 X76.413 Y115.59 E66.39291
G1 X78.473 Y114.562 E66.55831
G1 X78.473 Y114.124 E66.58977
G1 F2722.1 X78.549 Y113.886 E66.60955
G1 F2474.2 X78.687 Y113.831 E66.62249
G1 F2637.4 X78.952 Y113.872 E66.64441
G1 F2926.8 X79.652 Y113.886 E66.69596
G1 F3000 X79.804 Y113.972 E66.70851
G1 X79.857 Y114.124 E66.72008
G1 X79.855 Y115.12 E66.79163
G1 X79.77 Y115.274 E66.80427
G1 X77.77 Y116.291 E66.96546
G1 X79.77 Y117.242 E67.12456
G1 X79.857 Y117.412 E67.13828
G1 X79.857 Y118.464 E67.21386
G1 X79.777 Y118.593 E67.22476
G1 X79.659 Y118.65 E67.23418
G1 X78.713 Y118.653 E67.30214
G1 X78.547 Y118.588 E67.31495
G1 X78.478 Y118.467 E67.32495
G1 X78.473 Y118.006 E67.35808
G1 X76.413 Y116.976 E67.52354
G1 X74.118 Y118.104 E67.70725
G1 X74.113 Y118.563 E67.74023
G1 X74.053 Y118.679 E67.74961
G1 F3025.2 X73.878 Y118.75 E67.76307
G1 F3044.4 X72.954 Y118.749 E67.82848
M204 S3000
G0 F2400 X72.779 Y118.652
G0 X72.149 Y118.637
G0 X72.545 Y122.345
G0 X74.566 Y122.137
G0 X76.243 Y121.809
G0 X77.912 Y123.845
G0 X76.968 Y124.997
G0 X74.814 Y123.571
G0 X72.409 Y124.234
G0 X72.395 Y130.237
G0 X72.777 Y132.154
G0 X72.547 Y134.469
G0 X72.904 Y134.861
G0 X72.884 Y134.281
M204 S2000
G1 F3000 X72.735 Y134.091 E67.84583
G1 X72.737 Y132.557 E67.95604
G1 X72.805 Y132.424 E67.96677
G1 X72.975 Y132.355 E67.97995
G1 X73.986 Y132.354 E68.05258
G1 X72.85 Y130.997 E68.17972
G1 X72.655 Y130.597 E68.21169
G1 X72.603 Y130.261 E68.23612
G1 X72.665 Y130.005 E68.25504
G1 X72.856 Y129.74 E68.27851
G1 F3006.3 X73.267 Y129.518 E68.312
G1 F3090.1 X73.593 Y129.461 E68.33508
G1 F3083.5 X74.631 Y129.445 E68.40764
G1 F3000 X78.486 Y129.444 E68.68459
G1 X78.94 Y129.487 E68.71735
G1 X79.319 Y129.61 E68.74598
G1 X79.59 Y129.846 E68.7718
G1 X79.729 Y130.055 E68.78983
G1 X79.854 Y130.454 E68.81987
G1 X79.858 Y132.354 E68.95637
G1 X81.795 Y132.355 E69.09552
G1 X81.825 Y131.818 E69.13416
G1 X81.989 Y131.7 E69.14868
G1 X82.981 Y131.699 E69.21995
G1 X83.136 Y131.799 E69.2332
G1 X83.177 Y131.911 E69.24177
G1 X83.178 Y133.462 E69.35319
G1 X83.13 Y133.557 E69.36084
G1 X82.98 Y133.649 E69.37348
G1 X74.131 Y133.652 E70.00921
G1 X74.131 Y134.041 E70.03716
G1 X74.074 Y134.197 E70.04909
G1 X73.933 Y134.278 E70.06077
G1 X72.884 Y134.281 E70.13613
M204 S3000
G0 F2400 X72.761 Y134.124
G1 F5400 E67.13613
G0 F2400 X72.147 Y134.114
G0 X72.547 Y134.469
G0 X74.319 Y134.469
G0 X74.33 Y134.054
G0 X83.366 Y133.84
