;FLAVOR:Marlin
;TIME:2840
;Filament used: 5.41584m
;Layer height: 0.2
;MINX:58.477
;MINY:80.155
;MINZ:0.3
;MAXX:163.618
;MAXY:141.845
;MAXZ:25.1
;TARGET_MACHINE.NAME:Unknown
;Generated with Cura_SteamEngine 5.6.0
M140 S65
M105
M190 S65
M104 S183
M105
M109 S183
M82 ;absolute extrusion mode
G28 ;Home
G1 Z15.0 F6000 ;Move the platform down 15mm
;Prime the extruder
G92 E0
G1 F200 E3
G92 E0
G92 E0
G92 E0
G1 F5400 E-3
;LAYER_COUNT:125
;LAYER:0
M107
M204 S3000
M205 X20 Y20
G0 F2400 X60.094 Y81.949 Z0.3
M204 S2000
;TYPE:SKIRT
G1 F5400 E0
G1 F3000 X60.531 Y81.69 E0.03649
G1 X61.143 Y81.447 E0.0838
G1 X61.704 Y81.325 E0.12505
G1 X62.219 Y81.282 E0.16217
G1 X80.657 Y81.281 E1.48679
G1 X83.441 Y81.241 E1.68682
G1 X86.153 Y81.126 E1.88183
G1 X88.878 Y80.933 E2.07809
G1 X91.563 Y80.667 E2.27193
G1 X94.402 Y80.302 E2.47757
G1 X95.463 Y80.156 E2.55451
G1 X129.222 Y80.155 E4.97982
G1 X129.974 Y80.168 E5.03386
G1 X130.702 Y80.259 E5.08656
G1 X133.251 Y80.844 E5.27445
G1 X135.971 Y81.39 E5.47376
G1 X138.6 Y81.841 E5.66539
G1 X141.335 Y82.231 E5.86386
G1 X144.033 Y82.538 E6.05894
G1 X146.719 Y82.767 E6.25261
G1 X149.448 Y82.922 E6.44898
G1 X152.208 Y83.001 E6.64735
G1 X153.588 Y83.011 E6.74649
G1 X159.25 Y83.011 E7.15326
G1 X159.985 Y83.024 E7.20607
G1 X160.567 Y83.085 E7.24812
G1 X161.13 Y83.236 E7.28999
G1 X161.597 Y83.438 E7.32655
G1 X162.093 Y83.747 E7.36853
G1 X162.534 Y84.128 E7.4104
G1 X162.954 Y84.637 E7.45781
G1 X163.213 Y85.075 E7.49436
G1 X163.456 Y85.688 E7.54174
G1 X163.566 Y86.184 E7.57824
G1 X163.617 Y86.756 E7.61949
G1 X163.618 Y105.722 E8.98205
G1 X163.611 Y107.674 E9.12228
G1 X163.618 Y108.556 E9.18565
G1 X163.618 Y134.641 E11.05964
G1 X163.607 Y135.405 E11.11454
G1 X163.548 Y135.987 E11.15656
G1 X163.399 Y136.552 E11.19854
G1 X163.198 Y137.019 E11.23507
G1 X162.892 Y137.516 E11.277
G1 X162.457 Y138.011 E11.32434
G1 X162.004 Y138.381 E11.36636
G1 X161.5 Y138.674 E11.40824
G1 X161.028 Y138.862 E11.44474
G1 X160.394 Y139.007 E11.49147
G1 X159.875 Y139.05 E11.52888
G1 X153.379 Y139.051 E11.99557
G1 X150.595 Y139.091 E12.19559
G1 X147.883 Y139.206 E12.3906
G1 X145.158 Y139.399 E12.58686
G1 X142.463 Y139.666 E12.78143
G1 X139.753 Y140.013 E12.97771
G1 X137.047 Y140.438 E13.17449
G1 X134.39 Y140.932 E13.36865
G1 X131.619 Y141.53 E13.57231
G1 X130.702 Y141.741 E13.63991
G1 X129.887 Y141.844 E13.69892
G1 X96.276 Y141.845 E16.1136
G1 X95.305 Y141.826 E16.18337
G1 X92.989 Y141.505 E16.35135
G1 X90.259 Y141.194 E16.54875
G1 X87.575 Y140.965 E16.74227
G1 X84.848 Y140.81 E16.9385
G1 X82.086 Y140.731 E17.13701
G1 X80.703 Y140.721 E17.23637
G1 X62.851 Y140.721 E18.51889
G1 X62.115 Y140.709 E18.57177
G1 X61.608 Y140.661 E18.60836
G1 X60.969 Y140.499 E18.65572
G1 X60.502 Y140.297 E18.69227
G1 X60.006 Y139.99 E18.73418
G1 X59.511 Y139.554 E18.78157
G1 X59.144 Y139.101 E18.82345
G1 X58.884 Y138.663 E18.86005
G1 X58.664 Y138.123 E18.90194
G1 X58.521 Y137.49 E18.94856
G1 X58.478 Y136.975 E18.98569
G1 X58.477 Y85.629 E22.67448
G1 X58.488 Y84.922 E22.72528
G1 X58.548 Y84.341 E22.76724
G1 X58.698 Y83.777 E22.80917
G1 X58.899 Y83.31 E22.84569
G1 X59.205 Y82.813 E22.88762
G1 X59.641 Y82.317 E22.93507
G1 X60.094 Y81.949 E22.977
M204 S3000
G0 F2400 X60.339 Y82.362
M204 S2000
G1 F3000 X60.776 Y82.103 E23.01349
G1 X61.249 Y81.915 E23.05006
G1 X61.745 Y81.803 E23.08659
G1 X62.219 Y81.762 E23.12077
G1 X80.664 Y81.761 E24.44589
G1 X83.461 Y81.721 E24.64686
G1 X86.173 Y81.606 E24.84187
G1 X88.922 Y81.411 E25.03986
G1 X91.61 Y81.145 E25.23391
G1 X94.463 Y80.778 E25.44056
G1 X95.463 Y80.636 E25.51313
G1 X129.215 Y80.635 E27.93793
G1 X129.916 Y80.645 E27.9883
G1 X130.595 Y80.727 E28.03744
G1 X133.157 Y81.315 E28.22628
G1 X135.877 Y81.861 E28.42559
G1 X138.524 Y82.315 E28.61853
G1 X141.281 Y82.708 E28.8186
G1 X143.979 Y83.015 E29.01368
G1 X146.685 Y83.246 E29.20879
G1 X149.434 Y83.402 E29.4066
G1 X152.194 Y83.481 E29.60497
G1 X153.585 Y83.491 E29.7049
G1 X159.242 Y83.491 E30.11131
G1 X159.94 Y83.502 E30.16146
G1 X160.447 Y83.55 E30.19805
G1 X160.939 Y83.677 E30.23456
G1 X161.406 Y83.879 E30.27111
G1 X161.835 Y84.152 E30.30764
G1 X162.217 Y84.488 E30.34419
G1 X162.541 Y84.881 E30.38078
G1 X162.8 Y85.319 E30.41734
G1 X162.987 Y85.792 E30.45388
G1 X163.097 Y86.288 E30.49038
G1 X163.137 Y86.756 E30.52412
G1 X163.138 Y105.72 E31.88653
G1 X163.131 Y107.672 E32.02677
G1 X163.138 Y108.56 E32.09057
G1 X163.138 Y134.635 E33.96384
G1 X163.129 Y135.362 E34.01608
G1 X163.083 Y135.869 E34.05265
G1 X162.958 Y136.362 E34.08919
G1 X162.757 Y136.829 E34.12571
G1 X162.486 Y137.26 E34.16229
G1 X162.15 Y137.642 E34.19884
G1 X161.759 Y137.968 E34.23541
G1 X161.322 Y138.228 E34.27194
G1 X160.85 Y138.416 E34.30844
G1 X160.353 Y138.529 E34.34506
G1 X159.875 Y138.57 E34.37953
G1 X153.372 Y138.571 E34.84672
G1 X150.575 Y138.611 E35.04768
G1 X147.863 Y138.726 E35.24269
G1 X145.114 Y138.921 E35.44068
G1 X142.416 Y139.188 E35.63545
G1 X139.692 Y139.537 E35.83275
G1 X136.959 Y139.966 E36.0315
G1 X134.302 Y140.46 E36.22565
G1 X131.511 Y141.062 E36.43078
G1 X130.594 Y141.273 E36.49838
G1 X129.887 Y141.364 E36.54959
G1 X96.283 Y141.365 E38.96376
G1 X95.371 Y141.351 E39.02929
G1 X93.043 Y141.028 E39.19814
G1 X90.313 Y140.717 E39.39554
G1 X87.609 Y140.486 E39.59051
G1 X84.862 Y140.33 E39.78817
G1 X82.1 Y140.251 E39.98668
G1 X80.706 Y140.241 E40.08683
G1 X62.858 Y140.241 E41.36907
G1 X62.16 Y140.231 E41.41922
G1 X61.653 Y140.183 E41.4558
G1 X61.16 Y140.058 E41.49234
G1 X60.693 Y139.856 E41.5289
G1 X60.263 Y139.584 E41.56545
G1 X59.881 Y139.248 E41.602
G1 X59.557 Y138.856 E41.63854
G1 X59.297 Y138.418 E41.67513
G1 X59.11 Y137.946 E41.7116
G1 X58.999 Y137.449 E41.74819
G1 X58.958 Y136.975 E41.78237
G1 X58.957 Y85.635 E45.47073
G1 X58.966 Y84.966 E45.5188
G1 X59.013 Y84.46 E45.55531
G1 X59.139 Y83.967 E45.59186
G1 X59.34 Y83.5 E45.62839
G1 X59.611 Y83.069 E45.66496
G1 X59.947 Y82.687 E45.70151
G1 X60.339 Y82.362 E45.73809
M204 S3000
G1 F5400 E42.73809
;MESH:macroPad_Case_v2_3_Base_001.stl
G0 F2400 X61.532 Y104.31
G0 X72.702 Y107.794
M204 S2000
;TYPE:WALL-OUTER
G1 F5400 E45.73809
G1 F2204.1 X72.824 Y108.392 E45.80971
M204 S3000
G0 F2400 X73.315 Y109.247
M204 S2000
G1 F2747.2 X73.501 Y109.167 E45.82877
G1 F2856.2 X73.627 Y109.166 E45.84018
G1 F3170.6 X73.842 Y109.258 E45.85926
G1 F3260.4 X73.709 Y109.193 E45.871
G1 F2928.8 X73.571 Y108.995 E45.89231
G1 F2742.9 X73.513 Y108.828 E45.90898
G1 F2756 X73.526 Y108.706 E45.9205
G1 F2994.8 X73.626 Y108.535 E45.9376
G1 F3394.9 X73.721 Y108.46 E45.94682
G1 F3119.1 X73.409 Y108.551 E45.97377
G1 F2756 X73.171 Y108.55 E45.99611
G1 F2465 X72.824 Y108.392 E46.03611
G1 X72.885 Y108.912 E46.09104
G1 F2742.9 X73.01 Y109.412 E46.13964
G1 F2796.1 X73.079 Y109.876 E46.18303
G1 F2814.3 X73.082 Y109.618 E46.20674
G1 F2764.8 X73.159 Y109.393 E46.22899
G1 F2747.2 X73.315 Y109.247 E46.2491
M204 S3000
G0 F2400 X73.499 Y109.168
G0 X73.079 Y109.876
M204 S2000
G1 F2851.5 X73.204 Y110.38 E46.2962
M204 S3000
G1 F5400 E43.2962
G0 F2400 X73.372 Y110.774
G0 X74.328 Y110.981
G0 X74.31 Y109.773
G0 X74.081 Y109.583
M204 S2000
G1 F5400 E46.2962
G1 F3764.7 X74.143 Y109.9 E46.31839
G1 F3806.2 X74.222 Y109.964 E46.3253
G1 X74.363 Y109.957 E46.33489
G1 X74.547 Y109.874 E46.34861
G1 X74.564 Y109.65 E46.36387
G1 F3756.5 X74.475 Y109.264 E46.39115
G1 F3700.2 X74.429 Y109.213 E46.39595
G1 F3548.3 X73.863 Y109.264 E46.43737
G1 F3555.6 X74.081 Y109.583 E46.46547
M204 S3000
G0 F2400 X74.119 Y109.779
G1 F5400 E43.46547
G0 F2400 X74.335 Y109.731
G0 X74.025 Y108.167
G0 X73.935 Y108.359
M204 S2000
G1 F5400 E46.46547
G1 F3661 X74.309 Y108.296 E46.49227
G1 F3668.8 X74.317 Y107.966 E46.51554
G1 F3653.3 X74.261 Y107.769 E46.53004
G1 X74.201 Y107.708 E46.53609
G1 X73.907 Y107.728 E46.55695
G1 X73.832 Y107.792 E46.56393
G1 X73.851 Y108.277 E46.5983
G1 F3607.5 X73.741 Y108.449 E46.61293
G1 X73.935 Y108.359 E46.62827
M204 S3000
G0 F2400 X74.132 Y108.326
G1 F5400 E43.62827
G0 F2400 X74.087 Y108.067
G0 X75.443 Y108.596
G0 X75.379 Y108.854
M204 S2000
G1 F5400 E46.62827
G1 F3469.9 X75.514 Y109.407 E46.67069
G1 F3401.6 X75.48 Y110.037 E46.71866
G1 X75.785 Y109.485 E46.76661
G1 F3223.9 X76.063 Y109.063 E46.80715
G1 F3548.3 X75.723 Y108.569 E46.85087
G1 F3857.1 X75.28 Y107.995 E46.89948
G1 X75.261 Y108.517 E46.93451
G1 F3954.2 X75.21 Y108.623 E46.9422
G1 F3857.1 X75.379 Y108.854 E46.96139
M204 S3000
G0 F2400 X75.426 Y109.048
G1 F5400 E43.96139
G0 F2400 X75.678 Y109.004
G0 X77.452 Y108.982
G0 X77.903 Y108.73
M204 S2000
G1 F5400 E46.96139
G1 F3153.3 X77.952 Y107.929 E47.02721
G1 X77.599 Y108.524 E47.08396
G1 F3124.8 X77.28 Y108.987 E47.1305
G1 F3260.4 X77.915 Y109.837 E47.21466
G1 X77.903 Y108.73 E47.30248
M204 S3000
G0 F2400 X77.915 Y108.531
G0 X78.854 Y108.741
M204 S2000
G1 F5416.9 X78.849 Y108.842 E47.30731
M204 S3000
G1 F5400 E44.30731
G0 F2400 X79.116 Y109.474
G0 X79.548 Y109.441
G0 X79.548 Y108.206
G0 X79.674 Y107.789
M204 S2000
G1 F5400 E47.30731
G1 F2708.5 X79.705 Y107.661 E47.31988
G1 X79.68 Y107.584 E47.32761
G1 X79.04 Y107.53 E47.38894
G1 F2712.7 X79.02 Y108.346 E47.46676
G1 X79.078 Y108.308 E47.47338
G1 X79.653 Y108.307 E47.5282
G1 X79.674 Y107.789 E47.57762
M204 S3000
G0 F2400 X79.705 Y107.661
G0 X79.684 Y107.595
G1 F5400 E44.57762
G0 F2400 X79.554 Y107.734
G0 X79.563 Y108.212
G0 X82.066 Y108.704
M204 S2000
G1 F5400 E47.57762
G1 F2344.6 X82.501 Y108.734 E47.62572
M204 S3000
G1 F5400 E44.62572
G0 F2400 X83.725 Y108.519
G0 X83.662 Y108.942
M204 S2000
G1 F5400 E47.62572
G1 F2796.1 X83.557 Y109.43 E47.67189
G1 F2994.8 X83.414 Y110.487 E47.76401
M204 S3000
G0 F2400 X82.522 Y110.636
M204 S2000
G1 F4124.1 X82.47 Y110.033 E47.80196
G1 F2638.2 X82.369 Y109.883 E47.81969
G1 F2223.9 X82.097 Y109.846 E47.85161
M204 S3000
G1 F5400 E44.85161
G0 F2400 X84.609 Y110.276
G0 X85.241 Y109.732
M204 S2000
G1 F5400 E47.85161
G1 F2889.6 X85.332 Y109.231 E47.89719
G1 F2884.8 X84.866 Y109.096 E47.94068
G1 X84.765 Y109.1 E47.94975
G1 F2860.9 X84.623 Y109.678 E48.00355
G1 F2851.5 X84.478 Y110.357 E48.06652
G1 F2875.2 X85.048 Y110.515 E48.11973
G1 F2884.8 X85.241 Y109.732 E48.19203
M204 S3000
G0 F2400 X85.276 Y109.536
G1 F5400 E45.19203
G0 F2400 X85.08 Y109.501
G0 X84.975 Y110.379
G0 X84.71 Y111.557
G0 X84.885 Y112.005
G0 X85.104 Y111.099
M204 S2000
G1 F5400 E48.19203
G1 F6063.2 X85.117 Y111.07 E48.19339
G1 X85.104 Y111.099 E48.19474
M204 S3000
G0 F2400 X84.885 Y112.005
G0 X80.261 Y110.654
G0 X80.116 Y109.922
G0 X79.551 Y109.954
G0 X79.123 Y111.086
G0 X76.412 Y110.654
G0 X75.935 Y110.997
G0 X72.663 Y111.339
G0 X72.139 Y111.136
G0 X71.815 Y109.923
G0 X71.922 Y109.311
M204 S2000
G1 F4465.1 X71.858 Y108.993 E48.21353
M204 S3000
G0 F2400 X71.442 Y108.484
G0 X70.988 Y108.56
G0 X70.866 Y109.335
M204 S2000
G1 F5008.7 X70.916 Y109.502 E48.22253
M204 S3000
G0 F2400 X71.33 Y110.058
G0 X71.583 Y111.136
G0 X71.106 Y112.106
G0 X70.882 Y111.551
M204 S2000
G1 F3600 X70.631 Y111.532 E48.24062
G1 X70.507 Y111.456 E48.25106
G1 X70.391 Y111.285 E48.26591
G1 X70.226 Y110.663 E48.31214
G1 X70.117 Y110.134 E48.35094
G1 X69.934 Y109.343 E48.40927
G1 X69.781 Y108.777 E48.45139
G1 F2805.2 X69.476 Y108.01 E48.52749
G1 X69.34 Y108.824 E48.60358
G1 F3600 X69.338 Y116.153 E49.13011
G1 X70.275 Y116.683 E49.20745
G1 X71.175 Y117.213 E49.28249
G1 X71.813 Y117.563 E49.33477
G1 X72.358 Y117.895 E49.38061
G1 X72.878 Y118.18 E49.42321
G1 X73.294 Y118.432 E49.45815
G1 X73.942 Y118.8 E49.51169
G1 X74.05 Y118.876 E49.52118
G1 X75.23 Y119.545 E49.61863
G1 X75.244 Y119.56 E49.6201
G1 X76.266 Y120.133 E49.70428
G1 X76.89 Y120.526 E49.75726
G1 X77.026 Y120.586 E49.76794
G1 X78.173 Y121.244 E49.86294
G1 X79.326 Y120.583 E49.95842
G1 X79.425 Y120.538 E49.96623
G1 X80.092 Y120.125 E50.02259
G1 X80.617 Y119.824 E50.06607
G1 X81.07 Y119.583 E50.10293
G1 X81.107 Y119.548 E50.10659
G1 X83.076 Y118.418 E50.26968
G1 X83.485 Y118.17 E50.30405
G1 X84.295 Y117.713 E50.37086
G1 X87.004 Y116.151 E50.59552
G1 X87.006 Y108.826 E51.12176
G1 F3874.4 X87.04 Y108.025 E51.17528
G1 X87.006 Y107.31 E51.22306
G1 F3600 X87.006 Y105.904 E51.32407
G1 X85.327 Y104.942 E51.46309
G1 X85.121 Y104.813 E51.48055
G1 X84.26 Y104.331 E51.55144
G1 X83.777 Y104.039 E51.59199
G1 X82.406 Y103.252 E51.70555
G1 X82.274 Y103.162 E51.71703
G1 X80.085 Y101.923 E51.89774
G1 X79.445 Y101.52 E51.95207
G1 X79.286 Y101.444 E51.96473
G1 X78.171 Y100.802 E52.05717
G1 X76.609 Y101.714 E52.18711
G1 X76.477 Y101.805 E52.19863
G1 X75.789 Y102.177 E52.25482
G1 X75.751 Y102.214 E52.25863
G1 X75.243 Y102.496 E52.30037
G1 X75.198 Y102.53 E52.30442
G1 X74.073 Y103.164 E52.3972
G1 X73.871 Y103.296 E52.41453
G1 X73.258 Y103.641 E52.46507
G1 X72.865 Y103.879 E52.49807
G1 X72.359 Y104.159 E52.53962
G1 X69.34 Y105.899 E52.78996
G1 F3562.9 X69.34 Y107.542 E52.90922
G1 F2796.1 X69.471 Y107.93 E52.9471
G1 F2818.9 X69.828 Y107.635 E52.98959
G1 F3600 X69.958 Y107.583 E52.99965
G1 X70.313 Y107.557 E53.02522
G1 X70.428 Y107.597 E53.03397
G1 X70.511 Y107.693 E53.04309
G1 X70.673 Y108.203 E53.08153
G1 F3630.3 X70.862 Y108.997 E53.13968
G1 X70.965 Y108.845 E53.15276
G1 F3600 X71.263 Y108.69 E53.17689
G1 X71.56 Y108.701 E53.19824
G1 F3724.1 X71.689 Y108.773 E53.2085
G1 F4224.9 X71.858 Y108.993 E53.22548
G1 F4065.9 X71.698 Y108.519 E53.25731
G1 F3600 X71.655 Y108.421 E53.26499
G1 X71.509 Y107.779 E53.31229
G1 X71.523 Y107.323 E53.34507
G1 X71.615 Y107.228 E53.35457
G1 X71.863 Y107.109 E53.37433
G1 X72.193 Y107.113 E53.39804
G1 X72.297 Y107.178 E53.40685
G1 F3592.5 X72.467 Y107.448 E53.42982
G1 F2704.2 X72.702 Y107.794 E53.46982
G1 F2708.5 X72.963 Y107.348 E53.51917
G1 F3600 X73.177 Y107.102 E53.54259
G1 X73.375 Y106.972 E53.55961
G1 X73.702 Y106.85 E53.58468
G1 X74.359 Y106.815 E53.63195
G1 X74.664 Y106.862 E53.65412
G1 X74.92 Y107.005 E53.67519
G1 X75.096 Y107.198 E53.69395
G1 X75.206 Y107.441 E53.71312
G1 F3607.5 X75.279 Y107.891 E53.7458
G1 F3615.1 X75.357 Y107.739 E53.75802
G1 F3607.5 X75.606 Y107.526 E53.78151
G1 F3600 X75.911 Y107.485 E53.80362
G1 X76.087 Y107.546 E53.817
G1 X76.64 Y108.196 E53.87832
G1 X76.845 Y107.834 E53.9082
G1 X77.204 Y107.409 E53.94817
G1 X77.271 Y107.381 E53.95339
G1 X77.547 Y107.422 E53.97343
G1 F3541 X77.858 Y107.66 E54.00204
G1 F3361.9 X77.957 Y107.862 E54.01934
G1 X77.994 Y107.601 E54.03962
G1 F3541 X78.006 Y106.903 E54.09061
G1 F3600 X78.073 Y106.736 E54.10354
G1 X78.406 Y106.545 E54.13112
G1 X79.961 Y106.603 E54.24291
G1 X80.237 Y106.7 E54.26393
G1 X80.527 Y106.9 E54.28924
G1 X80.729 Y107.261 E54.31895
G1 X80.735 Y107.906 E54.36529
G1 F2764.8 X80.88 Y108.398 E54.41328
G1 F2556.2 X81.037 Y108.173 E54.44103
G1 F3254.2 X81.382 Y107.859 E54.47811
G1 F3600 X81.766 Y107.665 E54.50902
G1 X82.656 Y107.732 E54.57314
G1 X83.037 Y107.834 E54.60147
G1 X83.391 Y108.102 E54.63337
G1 X83.525 Y108.321 E54.65182
G1 F3069.3 X83.662 Y108.942 E54.7054
G1 F2923.9 X83.782 Y108.705 E54.7289
G1 F3401.6 X84.108 Y108.311 E54.76778
G1 F3600 X84.482 Y108.174 E54.7964
G1 X85.019 Y108.191 E54.835
G1 X85.6 Y108.334 E54.87798
G1 X85.677 Y107.952 E54.90598
G1 X85.814 Y107.614 E54.93218
G1 X85.992 Y107.531 E54.94629
G1 X86.266 Y107.555 E54.96605
G1 X86.468 Y107.639 E54.98177
G1 F3716.1 X86.571 Y107.779 E54.99386
G1 F3990.8 X86.625 Y108.061 E55.01247
G1 F4018.6 X86.578 Y108.205 E55.02222
G1 F3740.3 X86.494 Y108.781 E55.06247
G1 F3600 X86.442 Y108.894 E55.07141
G1 X85.935 Y111.224 E55.24271
G1 X85.797 Y111.471 E55.26304
G1 X85.638 Y111.581 E55.27693
G1 X85.122 Y111.442 E55.31532
G1 F3981.6 X85.038 Y111.278 E55.32729
G1 X84.895 Y111.415 E55.34016
G1 F3600 X84.117 Y111.241 E55.39743
G1 X83.656 Y110.966 E55.43599
G1 F3548.3 X83.516 Y110.784 E55.45273
G1 F3266.5 X83.414 Y110.487 E55.47759
G1 X83.326 Y110.771 E55.50113
G1 F3548.3 X83.22 Y110.874 E55.51191
G1 F3600 X82.931 Y110.989 E55.53425
G1 X82.549 Y110.929 E55.56203
G1 F3865.8 X82.498 Y110.837 E55.56907
G1 F4826.8 X82.522 Y110.636 E55.57992
G1 X82.422 Y110.808 E55.59058
G1 F3865.8 X82.212 Y110.9 E55.60592
G1 F3600 X81.493 Y110.786 E55.65822
G1 X81.248 Y110.704 E55.67678
G1 X80.898 Y110.444 E55.7081
G1 X80.792 Y110.2 E55.72721
G1 X80.8 Y109.538 E55.77477
G1 F3630.3 X80.943 Y109.185 E55.80191
G1 F3592.5 X81.202 Y108.932 E55.82797
G1 F2889.6 X80.871 Y108.567 E55.87208
