;FLAVOR:Marlin
;TIME:2108
;Filament used: 4.18574m
;Layer height: 0.2
;MINX:58.58
;MINY:80.28
;MINZ:0.3
;MAXX:163.47
;MAXY:141.72
;MAXZ:14.9
;TARGET_MACHINE.NAME:Unknown
;Generated with Cura_SteamEngine 5.6.0
M140 S65
M105
M190 S65
M104 S183
M105
M109 S183
M82 ;absolute extrusion mode
G28 ;Home
G1 Z15.0 F6000 ;Move the platform down 15mm
;Prime the extruder
G92 E0
G1 F200 E3
G92 E0
G92 E0
G92 E0
G1 F5400 E-3
;LAYER_COUNT:74
;LAYER:0
M107
M204 S3000
M205 X20 Y20
G0 F2400 X60.196 Y81.949 Z0.3
M204 S2000
;TYPE:SKIRT
G1 F5400 E0
G1 F3000 X60.701 Y81.656 E0.04194
G1 X61.173 Y81.468 E0.07844
G1 X61.807 Y81.324 E0.12515
G1 X62.322 Y81.281 E0.16228
G1 X81.661 Y81.28 E1.55163
G1 X84.445 Y81.24 E1.75166
G1 X87.157 Y81.125 E1.94667
G1 X89.882 Y80.932 E2.14293
G1 X92.581 Y80.665 E2.33778
G1 X95.325 Y80.316 E2.5365
G1 X95.989 Y80.281 E2.58427
G1 X129.096 Y80.28 E4.96274
G1 X129.848 Y80.293 E5.01677
G1 X130.574 Y80.384 E5.06934
G1 X133.092 Y80.96 E5.25491
G1 X135.835 Y81.511 E5.45591
G1 X138.453 Y81.96 E5.64673
G1 X141.193 Y82.351 E5.84557
G1 X143.891 Y82.658 E6.04065
G1 X146.578 Y82.887 E6.23439
G1 X149.303 Y83.041 E6.43047
G1 X152.066 Y83.12 E6.62906
G1 X153.438 Y83.13 E6.72762
G1 X159.102 Y83.13 E7.13454
G1 X159.837 Y83.143 E7.18735
G1 X160.419 Y83.204 E7.22939
G1 X160.982 Y83.355 E7.27127
G1 X161.449 Y83.557 E7.30782
G1 X161.945 Y83.866 E7.3498
G1 X162.386 Y84.247 E7.39167
G1 X162.806 Y84.756 E7.43908
G1 X163.065 Y85.194 E7.47564
G1 X163.308 Y85.807 E7.52301
G1 X163.418 Y86.303 E7.55951
G1 X163.469 Y86.875 E7.60077
G1 X163.47 Y134.46 E11.01936
G1 X163.459 Y135.224 E11.07426
G1 X163.4 Y135.806 E11.11628
G1 X163.251 Y136.371 E11.15826
G1 X163.05 Y136.838 E11.19479
G1 X162.744 Y137.335 E11.23672
G1 X162.309 Y137.83 E11.28406
G1 X161.856 Y138.2 E11.32608
G1 X161.352 Y138.493 E11.36796
G1 X160.88 Y138.681 E11.40446
G1 X160.246 Y138.826 E11.45119
G1 X159.728 Y138.869 E11.48853
G1 X153.496 Y138.87 E11.93625
G1 X150.712 Y138.91 E12.13628
G1 X148 Y139.025 E12.33129
G1 X145.275 Y139.218 E12.52755
G1 X142.58 Y139.485 E12.72211
G1 X139.87 Y139.832 E12.91839
G1 X137.164 Y140.257 E13.11518
G1 X134.508 Y140.751 E13.30926
G1 X131.726 Y141.351 E13.51372
G1 X130.575 Y141.616 E13.59857
G1 X129.761 Y141.719 E13.65752
G1 X96.4 Y141.72 E16.05424
G1 X95.447 Y141.702 E16.12271
G1 X93.581 Y141.463 E16.25787
G1 X90.879 Y141.164 E16.45317
G1 X88.162 Y140.941 E16.64902
G1 X85.462 Y140.796 E16.84327
G1 X81.62 Y140.72 E17.11934
G1 X62.954 Y140.72 E18.46034
G1 X62.218 Y140.708 E18.51322
G1 X61.711 Y140.66 E18.54981
G1 X61.072 Y140.498 E18.59717
G1 X60.605 Y140.296 E18.63372
G1 X60.109 Y139.989 E18.67563
G1 X59.614 Y139.553 E18.72302
G1 X59.247 Y139.1 E18.76491
G1 X58.987 Y138.662 E18.8015
G1 X58.767 Y138.122 E18.84339
G1 X58.624 Y137.489 E18.89001
G1 X58.581 Y136.974 E18.92714
G1 X58.58 Y85.634 E22.6155
G1 X58.591 Y84.922 E22.66666
G1 X58.638 Y84.415 E22.70324
G1 X58.8 Y83.776 E22.7506
G1 X59.036 Y83.242 E22.79254
G1 X59.308 Y82.812 E22.82909
G1 X59.743 Y82.318 E22.87638
G1 X60.196 Y81.949 E22.91836
M204 S3000
G0 F2400 X60.441 Y82.362
M204 S2000
G1 F3000 X60.879 Y82.102 E22.95495
G1 X61.351 Y81.914 E22.99145
G1 X61.848 Y81.802 E23.02805
G1 X62.322 Y81.761 E23.06223
G1 X81.668 Y81.76 E24.45209
G1 X84.465 Y81.72 E24.65305
G1 X87.177 Y81.605 E24.84806
G1 X89.926 Y81.41 E25.04605
G1 X92.628 Y81.143 E25.24111
G1 X95.351 Y80.795 E25.43833
G1 X95.989 Y80.761 E25.48423
G1 X129.089 Y80.76 E27.86219
G1 X129.79 Y80.77 E27.91256
G1 X130.467 Y80.852 E27.96155
G1 X132.997 Y81.431 E28.14801
G1 X135.74 Y81.982 E28.34901
G1 X138.377 Y82.434 E28.54122
G1 X141.139 Y82.828 E28.74166
G1 X143.837 Y83.135 E28.93674
G1 X146.544 Y83.366 E29.13192
G1 X149.289 Y83.521 E29.32944
G1 X152.052 Y83.6 E29.52802
G1 X153.435 Y83.61 E29.62738
G1 X159.094 Y83.61 E30.03393
G1 X159.792 Y83.621 E30.08408
G1 X160.299 Y83.669 E30.12067
G1 X160.791 Y83.796 E30.15718
G1 X161.258 Y83.998 E30.19373
G1 X161.687 Y84.271 E30.23026
G1 X162.069 Y84.607 E30.26681
G1 X162.393 Y85 E30.3034
G1 X162.652 Y85.438 E30.33996
G1 X162.839 Y85.911 E30.3765
G1 X162.949 Y86.407 E30.413
G1 X162.989 Y86.875 E30.44674
G1 X162.99 Y134.454 E33.86491
G1 X162.981 Y135.181 E33.91714
G1 X162.935 Y135.688 E33.95372
G1 X162.81 Y136.181 E33.99025
G1 X162.609 Y136.648 E34.02678
G1 X162.338 Y137.079 E34.06336
G1 X162.002 Y137.461 E34.09991
G1 X161.611 Y137.787 E34.13648
G1 X161.174 Y138.047 E34.17301
G1 X160.702 Y138.235 E34.20951
G1 X160.205 Y138.348 E34.24613
G1 X159.728 Y138.389 E34.28052
G1 X153.489 Y138.39 E34.72874
G1 X150.692 Y138.43 E34.9297
G1 X147.98 Y138.545 E35.12472
G1 X145.231 Y138.74 E35.3227
G1 X142.533 Y139.007 E35.51748
G1 X139.809 Y139.356 E35.71478
G1 X137.076 Y139.785 E35.91353
G1 X134.42 Y140.279 E36.10761
G1 X131.618 Y140.883 E36.31354
G1 X130.467 Y141.148 E36.39839
G1 X129.761 Y141.239 E36.44953
G1 X96.407 Y141.24 E38.84574
G1 X95.508 Y141.226 E38.91034
G1 X93.634 Y140.986 E39.04607
G1 X90.932 Y140.687 E39.24137
G1 X88.19 Y140.462 E39.43902
G1 X85.471 Y140.316 E39.63464
G1 X81.629 Y140.24 E39.91071
G1 X62.961 Y140.24 E41.25186
G1 X62.263 Y140.23 E41.30201
G1 X61.756 Y140.182 E41.33859
G1 X61.263 Y140.057 E41.37513
G1 X60.796 Y139.855 E41.41169
G1 X60.366 Y139.583 E41.44824
G1 X59.984 Y139.247 E41.48479
G1 X59.66 Y138.855 E41.52133
G1 X59.4 Y138.417 E41.55792
G1 X59.213 Y137.945 E41.59439
G1 X59.102 Y137.448 E41.63098
G1 X59.061 Y136.974 E41.66516
G1 X59.06 Y85.64 E45.35309
G1 X59.069 Y84.966 E45.40152
G1 X59.116 Y84.459 E45.4381
G1 X59.241 Y83.966 E45.47463
G1 X59.442 Y83.499 E45.51116
G1 X59.714 Y83.069 E45.54771
G1 X60.05 Y82.687 E45.58426
G1 X60.441 Y82.362 E45.62079
M204 S3000
G1 F5400 E42.62079
;MESH:macroPad_Case_v2_3_Base.stl
G0 F2400 X63.26 Y84.335
G0 X63.26 Y85.96
G0 X93.368 Y85.932
G0 X93.43 Y136.13
G0 X94.06 Y136.76
M204 S2000
;TYPE:WALL-OUTER
G1 F5400 E45.62079
G1 F3000 X94.06 Y85.24 E49.32208
G1 X62.54 Y85.24 E51.58654
G1 X62.54 Y136.76 E55.28784
G1 X94.06 Y136.76 E57.55229
M204 S3000
G0 F2400 X94.06 Y136.56
G0 X93.58 Y136.28
M204 S2000
;TYPE:WALL-INNER
G1 F3000 X93.58 Y85.72 E61.18462
G1 X63.02 Y85.72 E63.38011
G1 X63.02 Y136.28 E67.01243
G1 X93.58 Y136.28 E69.20792
M204 S3000
G0 F2400 X93.1 Y135.8
M204 S2000
;TYPE:SKIN
G1 F3000 X93.1 Y86.2 E72.77128
G1 X63.5 Y86.2 E74.8978
G1 X63.5 Y135.8 E78.46116
G1 X93.1 Y135.8 E80.58768
M204 S3000
G0 F2400 X92.62 Y135.32
M204 S2000
G1 F3000 X92.62 Y86.68 E84.08207
G1 X63.98 Y86.68 E86.13962
G1 X63.98 Y135.32 E89.63401
G1 X92.62 Y135.32 E91.69156
M204 S3000
G0 F2400 X92.14 Y134.84
M204 S2000
G1 F3000 X92.14 Y87.16 E95.11698
G1 X64.46 Y87.16 E97.10556
G1 X64.46 Y134.84 E100.53098
G1 X92.14 Y134.84 E102.51957
M204 S3000
G0 F2400 X91.66 Y134.36
M204 S2000
G1 F3000 X91.66 Y87.64 E105.87602
G1 X64.94 Y87.64 E107.79564
G1 X64.94 Y134.36 E111.15209
G1 X91.66 Y134.36 E113.07171
M204 S3000
G0 F2400 X91.18 Y133.88
M204 S2000
G1 F3000 X91.18 Y88.12 E116.35919
G1 X65.42 Y88.12 E118.20984
G1 X65.42 Y133.88 E121.49732
G1 X91.18 Y133.88 E123.34797
M204 S3000
G0 F2400 X90.7 Y133.4
M204 S2000
G1 F3000 X90.7 Y88.6 E126.56649
G1 X65.9 Y88.6 E128.34817
G1 X65.9 Y133.4 E131.56668
G1 X90.7 Y133.4 E133.34836
M204 S3000
G0 F2400 X90.22 Y132.92
M204 S2000
G1 F3000 X90.22 Y89.08 E136.49791
G1 X66.38 Y89.08 E138.21062
G1 X66.38 Y132.92 E141.36017
G1 X90.22 Y132.92 E143.07288
M204 S3000
G0 F2400 X89.74 Y132.44
M204 S2000
G1 F3000 X89.74 Y89.56 E146.15346
G1 X66.86 Y89.56 E147.7972
G1 X66.86 Y132.44 E150.87778
G1 X89.74 Y132.44 E152.52153
M204 S3000
G0 F2400 X89.26 Y131.96
M204 S2000
G1 F3000 X89.26 Y90.04 E155.53314
G1 X67.34 Y90.04 E157.10791
G1 X67.34 Y131.96 E160.11952
G1 X89.26 Y131.96 E161.6943
M204 S3000
G0 F2400 X88.78 Y131.48
M204 S2000
G1 F3000 X88.78 Y90.52 E164.63694
G1 X67.82 Y90.52 E166.14275
G1 X67.82 Y131.48 E169.08539
G1 X88.78 Y131.48 E170.5912
M204 S3000
G0 F2400 X88.3 Y131
M204 S2000
G1 F3000 X88.3 Y91 E173.46487
G1 X68.3 Y91 E174.90171
G1 X68.3 Y131 E177.77539
G1 X88.3 Y131 E179.21222
M204 S3000
G0 F2400 X87.82 Y130.52
M204 S2000
G1 F3000 X87.82 Y91.48 E182.01693
G1 X68.78 Y91.48 E183.3848
G1 X68.78 Y130.52 E186.18951
G1 X87.82 Y130.52 E187.55738
M204 S3000
G0 F2400 X87.34 Y130.04
M204 S2000
G1 F3000 X87.34 Y91.96 E190.29312
G1 X69.26 Y91.96 E191.59202
G1 X69.26 Y130.04 E194.32776
G1 X87.34 Y130.04 E195.62666
M204 S3000
G0 F2400 X86.86 Y129.56
M204 S2000
G1 F3000 X86.86 Y92.44 E198.29343
G1 X69.74 Y92.44 E199.52336
G1 X69.74 Y129.56 E202.19014
G1 X86.86 Y129.56 E203.42007
M204 S3000
G0 F2400 X86.38 Y129.08
M204 S2000
G1 F3000 X86.38 Y92.92 E206.01787
G1 X70.22 Y92.92 E207.17884
G1 X70.22 Y129.08 E209.77664
G1 X86.38 Y129.08 E210.9376
M204 S3000
G0 F2400 X85.9 Y128.6
M204 S2000
G1 F3000 X85.9 Y93.4 E213.46644
G1 X70.7 Y93.4 E214.55844
G1 X70.7 Y128.6 E217.08727
G1 X85.9 Y128.6 E218.17927
M204 S3000
G0 F2400 X85.42 Y128.12
M204 S2000
G1 F3000 X85.42 Y93.88 E220.63913
G1 X71.18 Y93.88 E221.66216
G1 X71.18 Y128.12 E224.12203
G1 X85.42 Y128.12 E225.14506
M204 S3000
G0 F2400 X84.94 Y127.64
M204 S2000
G1 F3000 X84.94 Y94.36 E227.53595
G1 X71.66 Y94.36 E228.49002
G1 X71.66 Y127.64 E230.88091
G1 X84.94 Y127.64 E231.83497
M204 S3000
G0 F2400 X84.46 Y127.16
M204 S2000
G1 F3000 X84.46 Y94.84 E234.1569
G1 X72.14 Y94.84 E235.042
G1 X72.14 Y127.16 E237.36393
G1 X84.46 Y127.16 E238.24902
M204 S3000
G0 F2400 X83.98 Y126.68
M204 S2000
G1 F3000 X83.98 Y95.32 E240.50198
G1 X72.62 Y95.32 E241.3181
G1 X72.62 Y126.68 E243.57106
G1 X83.98 Y126.68 E244.38719
M204 S3000
G0 F2400 X83.5 Y126.2
M204 S2000
G1 F3000 X83.5 Y95.8 E246.57118
G1 X73.1 Y95.8 E247.31834
G1 X73.1 Y126.2 E249.50233
G1 X83.5 Y126.2 E250.24949
M204 S3000
G0 F2400 X83.02 Y125.72
M204 S2000
G1 F3000 X83.02 Y96.28 E252.36451
G1 X73.58 Y96.28 E253.0427
G1 X73.58 Y125.72 E255.15773
G1 X83.02 Y125.72 E255.83591
M204 S3000
G0 F2400 X82.54 Y125.24
M204 S2000
G1 F3000 X82.54 Y96.76 E257.88197
G1 X74.06 Y96.76 E258.49119
G1 X74.06 Y125.24 E260.53725
G1 X82.54 Y125.24 E261.14647
M204 S3000
G0 F2400 X82.06 Y124.76
M204 S2000
G1 F3000 X82.06 Y97.24 E263.12355
G1 X74.54 Y97.24 E263.66381
G1 X74.54 Y124.76 E265.64089
G1 X82.06 Y124.76 E266.18115
M204 S3000
G0 F2400 X81.58 Y124.28
M204 S2000
G1 F3000 X81.58 Y97.72 E268.08927
G1 X75.02 Y97.72 E268.56055
G1 X75.02 Y124.28 E270.46867
G1 X81.58 Y124.28 E270.93995
M204 S3000
G0 F2400 X81.1 Y123.8
M204 S2000
G1 F3000 X81.1 Y98.2 E272.7791
G1 X75.5 Y98.2 E273.18142
G1 X75.5 Y123.8 E275.02057
G1 X81.1 Y123.8 E275.42289
M204 S3000
G0 F2400 X80.62 Y123.32
M204 S2000
G1 F3000 X80.62 Y98.68 E277.19307
G1 X75.98 Y98.68 E277.52642
G1 X75.98 Y123.32 E279.2966
G1 X80.62 Y123.32 E279.62995
M204 S3000
G0 F2400 X80.14 Y122.84
M204 S2000
G1 F3000 X80.14 Y99.16 E281.33116
G1 X76.46 Y99.16 E281.59554
G1 X76.46 Y122.84 E283.29676
G1 X80.14 Y122.84 E283.56114
M204 S3000
G0 F2400 X79.66 Y122.36
M204 S2000
G1 F3000 X79.66 Y99.64 E285.19338
G1 X76.94 Y99.64 E285.38879
G1 X76.94 Y122.36 E287.02104
G1 X79.66 Y122.36 E287.21645
M204 S3000
G0 F2400 X79.18 Y121.88
M204 S2000
G1 F3000 X79.18 Y100.12 E288.77973
G1 X77.42 Y100.12 E288.90617
G1 X77.42 Y121.88 E290.46945
G1 X79.18 Y121.88 E290.59589
M204 S3000
G0 F2400 X78.62 Y121.32
M204 S2000
G1 F2250 X78.62 Y100.68 E292.57298
G1 X77.98 Y100.68 E292.63429
G1 X77.98 Y121.32 E294.61138
G1 X78.62 Y121.32 E294.67268
M204 S3000
G1 F5400 E291.67268
;MESH:macroPad_Case_v2_1_Lid.stl
G0 F2400 X102.413 Y120.97
G0 X103.222 Y121.673
G0 X103.209 Y121.02
M204 S2000
;TYPE:WALL-OUTER
G1 F5400 E294.67268
G1 F3000 X103.117 Y120.869 E294.68538
G1 X103.118 Y101.858 E296.05117
G1 X103.209 Y101.713 E296.06347
G1 X103.328 Y101.667 E296.07264
G1 X122.489 Y101.667 E297.4492
G1 X122.621 Y101.727 E297.45961
G1 X122.695 Y101.853 E297.47011
G1 X122.695 Y120.88 E298.83705
G1 X122.621 Y121.006 E298.84755
G1 X122.489 Y121.066 E298.85796
G1 X103.328 Y121.066 E300.23452
G1 X103.209 Y121.02 E300.24369
M204 S3000
G0 F2400 X103.117 Y120.869
G0 X103.117 Y120.845
G1 F5400 E297.24369
G0 F2400 X102.494 Y120.845
G0 X102.926 Y121.255
G0 X122.571 Y121.762
G0 X128.79 Y121.762
G0 X128.88 Y137.13
G0 X129.51 Y137.759
M204 S2000
G1 F5400 E300.24369
G1 F3000 X129.51 Y84.24 E304.0886
G1 X95.99 Y84.24 E306.49674
G1 X95.991 Y137.759 E310.34164
G1 X129.51 Y137.759 E312.74971
M204 S3000
G0 F2400 X129.51 Y137.559
G0 X129.03 Y137.279
M204 S2000
;TYPE:WALL-INNER
G1 F3000 X129.03 Y84.72 E316.52565
G1 X96.47 Y84.72 E318.86482
G1 X96.471 Y137.279 E322.64076
G1 X129.03 Y137.279 E324.97986
M204 S3000
G1 F5400 E321.97986
G0 F2400 X128.88 Y137.13
G0 X102.991 Y137.039
G0 X103.255 Y121.763
G0 X102.921 Y121.404
M204 S2000
G1 F5400 E324.97986
G1 F3000 X102.752 Y121.224 E324.9976
G1 X102.634 Y120.918 E325.02116
G1 X102.634 Y101.797 E326.39485
G1 X102.752 Y101.509 E326.41721
G1 X102.921 Y101.329 E326.43495
G1 X103.278 Y101.189 E326.46249
G1 X122.545 Y101.19 E327.84667
G1 X122.737 Y101.241 E327.86094
G1 X122.943 Y101.371 E327.87844
G1 X123.113 Y101.601 E327.89899
G1 X123.18 Y101.797 E327.91387
G1 X123.18 Y120.936 E329.28885
G1 X123.113 Y121.132 E329.30374
G1 X122.943 Y121.362 E329.32428
G1 X122.737 Y121.492 E329.34178
G1 X122.545 Y121.543 E329.35605
G1 X103.278 Y121.544 E330.74023
G1 X102.921 Y121.404 E330.76778
M204 S3000
G0 F2400 X102.967 Y121.642
G0 X122.871 Y121.654
G0 X123.268 Y121.717
M204 S2000
;TYPE:SKIN
G1 F3000 X122.889 Y121.948 E330.79967
G1 X122.603 Y122.02 E330.82086
G1 X103.201 Y122.017 E332.21473
G1 X102.939 Y121.956 E332.23406
G1 X102.663 Y121.807 E332.25659
G1 X102.377 Y121.52 E332.2857
G1 X102.157 Y121.016 E332.32521
G1 X102.154 Y101.708 E333.71233
G1 X102.377 Y101.213 E333.75134
G1 X102.663 Y100.926 E333.78044
G1 X102.939 Y100.777 E333.80298
G1 X103.228 Y100.712 E333.82426
G1 X122.603 Y100.713 E335.21619
G1 X122.889 Y100.785 E335.23738
G1 X123.268 Y101.016 E335.26927
G1 X123.524 Y101.354 E335.29973
G1 X123.66 Y101.716 E335.32751
G1 X123.657 Y121.014 E336.71392
G1 X123.524 Y121.379 E336.74183
G1 X123.268 Y121.717 E336.77229
M204 S3000
G1 F5400 E333.77229
G0 F2400 X122.834 Y121.594
G0 X128.79 Y121.696
G0 X128.89 Y136.799
G0 X128.55 Y136.799
M204 S2000
G1 F5400 E336.77229
G1 F3000 X128.55 Y85.2 E340.47926
G1 X96.951 Y85.201 E342.74939
G1 X96.951 Y136.799 E346.45629
G1 X128.55 Y136.799 E348.72642
M204 S3000
G0 F2400 X128.07 Y136.319
M204 S2000
G1 F3000 X128.07 Y85.681 E352.36435
G1 X97.431 Y85.681 E354.56551
G1 X97.431 Y136.319 E358.20344
G1 X128.07 Y136.319 E360.40461
M204 S3000
G0 F2400 X127.59 Y135.839
M204 S2000
G1 F3000 X127.59 Y86.161 E363.97357
G1 X97.911 Y86.161 E366.10576
G1 X97.911 Y135.839 E369.67472
G1 X127.59 Y135.839 E371.80692
M204 S3000
G0 F2400 X127.11 Y135.359
M204 S2000
G1 F3000 X127.11 Y86.641 E375.30691
G1 X98.391 Y86.641 E377.37014
G1 X98.391 Y135.359 E380.87013
G1 X127.11 Y135.359 E382.93336
M204 S3000
G0 F2400 X126.63 Y134.879
M204 S2000
G1 F3000 X126.63 Y87.121 E386.36439
G1 X98.871 Y87.121 E388.35865
G1 X98.871 Y134.879 E391.78967
G1 X126.63 Y134.879 E393.78393
M204 S3000
G1 F5400 E390.78393
G0 F2400 X122.856 Y124.41
M204 S2000
G1 F5400 E393.78393
G1 F3000 X102.944 Y124.415 E395.21445
G1 X102.073 Y124.198 E395.27893
G1 X101.182 Y123.722 E395.35151
G1 X100.447 Y122.974 E395.42684
G1 X100.113 Y122.38 E395.4758
G1 F3050.8 X99.779 Y121.476 E395.54388
G1 F3130.4 X99.779 Y111.502 E396.23058
G1 F3185.8 X99.779 Y101.528 E396.90533
G1 F3103.4 X99.901 Y100.844 E396.95358
G1 F3000 X100.352 Y99.901 E397.02868
G1 X100.676 Y99.512 E397.06505
G1 X101.383 Y98.871 E397.13361
G1 X102.243 Y98.478 E397.20154
G1 X103.011 Y98.319 E397.25788
G1 X122.856 Y98.324 E398.68359
G1 X123.762 Y98.53 E398.75034
G1 X124.571 Y99 E398.81755
G1 X125.094 Y99.447 E398.86698
G1 F2845.8 X125.694 Y100.3 E398.94596
G1 F2580.6 X126.098 Y101.35 E399.03992
G1 F2706.8 X126.15 Y100.266 E399.12633
G1 F3000 X126.15 Y87.601 E400.03621
G1 X99.351 Y87.601 E401.9615
G1 X99.352 Y100.815 E402.91082
G1 F3116.9 X99.333 Y101.573 E402.96325
G1 F3228.7 X99.335 Y121.493 E404.29297
G1 F3103.4 X99.352 Y122.521 E404.36437
G1 F3000 X99.351 Y134.399 E405.21771
G1 X126.15 Y134.399 E407.143
G1 X126.15 Y122.55 E407.99426
G1 F2686.6 X126.094 Y121.489 E408.07949
G1 X125.646 Y122.52 E408.16967
G1 F3000 X125.062 Y123.325 E408.24112
